;FLAVOR:Marlin
M117 Time Left 4h37m41s
;TIME:16661
;Filament used: 17.4072m
;Layer height: 0.28
;MINX:41
;MINY:109
;MINZ:0.285
;MAXX:194
;MAXY:176
;MAXZ:32.765
;POSTPROCESSED
;Generated with Cura_SteamEngine 4.7.1
M140 S60
M105
M190 S60
M104 S200
M105
M109 S200
M82 ;absolute extrusion mode
; Ender 3 Custom Start G-code
G92 E0 ; Reset Extruder
G28 ; Home all axes
; ***SET NEW E STEP *** (93 is factory value - 95 mine - start)
G90                          ; Force coordinates to be absolute relative to the origin
M92 E95 ;					 ; ***SET NEW E STEP *** (93 is factory value - 95 mine - end)
G90                          ; Force coordinates to be absolute relative to the origin
G28                          ; Home X/Y/Z axis
G92 E0 ; Reset Extruder								
G28 ; Home all axes		
G1 Z2.0 F3000 ; Move Z Axis up little to prevent scratching of Heat Bed
G1 X0.1 Y20 Z0.3 F5000.0 ; Move to start position
G1 X0.1 Y200.0 Z0.3 F1500.0 E15 ; Draw the first line
G1 X0.4 Y200.0 Z0.3 F5000.0 ; Move to side a little
G1 X0.4 Y20 Z0.3 F1500.0 E30 ; Draw the second line
G92 E0 ; Reset Extruder
G1 Z2.0 F3000 ; Move Z Axis up little to prevent scratching of Heat Bed
G1 X5 Y20 Z0.3 F5000.0 ; Move over to prevent blob squish
G92 E0
G92 E0
G1 F2700 E-6
;LAYER_COUNT:117
;LAYER:0
M107
M204 S500
M205 X8 Y8
G0 F7500 X47.239 Y110.097 Z0.285
;TYPE:SKIRT
G1 F2700 E0
G1 F1500 X48.101 Y109.727 E0.04224
G1 X48.991 Y109.431 E0.08447
G1 X49.903 Y109.213 E0.12669
G1 X50.83 Y109.072 E0.16891
G1 X51.701 Y109.013 E0.20821
G1 X52.022 Y109.004 E0.22267
G1 X52.33 Y109 E0.23654
G1 X182.293 Y109 E6.08825
G1 X182.451 Y109.001 E6.09536
G1 X183.149 Y109.011 E6.12679
G1 X184.085 Y109.065 E6.16901
G1 X185.013 Y109.197 E6.21121
G1 X185.927 Y109.409 E6.25346
G1 X186.819 Y109.698 E6.29567
G1 X187.684 Y110.061 E6.33791
G1 X188.514 Y110.497 E6.38013
G1 X189.305 Y111.002 E6.42238
G1 X190.049 Y111.573 E6.46461
G1 X190.742 Y112.205 E6.50684
G1 X191.379 Y112.893 E6.54906
G1 X191.954 Y113.634 E6.59129
G1 X192.465 Y114.42 E6.6335
G1 X192.907 Y115.248 E6.67576
G1 X193.276 Y116.11 E6.71798
G1 X193.571 Y117 E6.7602
G1 X193.789 Y117.912 E6.80242
G1 X193.929 Y118.84 E6.84467
G1 X193.987 Y119.701 E6.88353
G1 X193.996 Y120.021 E6.89794
G1 X194 Y120.33 E6.91186
G1 X193.999 Y164.4 E8.89615
G1 X193.99 Y165.127 E8.92888
G1 X193.939 Y166.064 E8.97114
G1 X193.807 Y166.992 E9.01334
G1 X193.598 Y167.906 E9.05556
G1 X193.311 Y168.799 E9.09779
G1 X192.949 Y169.665 E9.14005
G1 X192.515 Y170.496 E9.18226
G1 X192.011 Y171.287 E9.2245
G1 X191.442 Y172.032 E9.2667
G1 X190.811 Y172.727 E9.30897
G1 X190.124 Y173.365 E9.35119
G1 X189.385 Y173.942 E9.3934
G1 X188.599 Y174.454 E9.43564
G1 X187.773 Y174.897 E9.47784
G1 X186.911 Y175.269 E9.52011
G1 X186.022 Y175.565 E9.5623
G1 X185.11 Y175.785 E9.60454
G1 X184.183 Y175.926 E9.64676
G1 X183.299 Y175.987 E9.68666
G1 X182.978 Y175.996 E9.70112
G1 X182.67 Y176 E9.71499
G1 X52.707 Y176 E15.56669
G1 X51.867 Y175.99 E15.60451
G1 X50.931 Y175.938 E15.64672
G1 X50.002 Y175.806 E15.68897
G1 X49.088 Y175.596 E15.7312
G1 X48.195 Y175.309 E15.77343
G1 X47.33 Y174.946 E15.81567
G1 X46.499 Y174.512 E15.85788
G1 X45.708 Y174.008 E15.90011
G1 X44.963 Y173.438 E15.94235
G1 X44.269 Y172.807 E15.98458
G1 X43.632 Y172.12 E16.02677
G1 X43.055 Y171.38 E16.06902
G1 X42.543 Y170.594 E16.11125
G1 X42.1 Y169.767 E16.15349
G1 X41.729 Y168.906 E16.19571
G1 X41.433 Y168.016 E16.23794
G1 X41.214 Y167.104 E16.28017
G1 X41.073 Y166.177 E16.32239
G1 X41.013 Y165.288 E16.36251
G1 X41.004 Y164.955 E16.37751
G1 X41 Y164.658 E16.39088
G1 X41.001 Y120.525 E18.37801
G1 X41.01 Y119.86 E18.40795
G1 X41.063 Y118.924 E18.45017
G1 X41.195 Y117.995 E18.49242
G1 X41.406 Y117.081 E18.53465
G1 X41.694 Y116.189 E18.57686
G1 X42.057 Y115.324 E18.61909
G1 X42.492 Y114.493 E18.66133
G1 X42.996 Y113.703 E18.70352
G1 X43.566 Y112.958 E18.74576
G1 X44.198 Y112.264 E18.78802
G1 X44.886 Y111.627 E18.83024
G1 X45.626 Y111.051 E18.87246
G1 X46.412 Y110.539 E18.9147
G1 X47.239 Y110.097 E18.95692
G0 F7500 X47.611 Y110.364
G1 F1500 X48.465 Y110.019 E18.99839
G1 X49.345 Y109.749 E19.03983
G1 X50.245 Y109.557 E19.08127
G1 X51.159 Y109.443 E19.12274
G1 X51.712 Y109.413 E19.14768
G1 X52.033 Y109.404 E19.16214
G1 X52.33 Y109.4 E19.17551
G1 X182.293 Y109.4 E25.02721
G1 X183.143 Y109.411 E25.06549
G1 X184.062 Y109.464 E25.10694
G1 X184.973 Y109.597 E25.14839
G1 X185.869 Y109.808 E25.18984
G1 X186.743 Y110.096 E25.23127
G1 X187.59 Y110.459 E25.27276
G1 X188.401 Y110.894 E25.3142
G1 X189.171 Y111.398 E25.35564
G1 X189.895 Y111.967 E25.3971
G1 X190.567 Y112.597 E25.43857
G1 X191.182 Y113.282 E25.48002
G1 X191.735 Y114.018 E25.52147
G1 X192.222 Y114.799 E25.56291
G1 X192.639 Y115.62 E25.60437
G1 X192.984 Y116.474 E25.64585
G1 X193.253 Y117.354 E25.68728
G1 X193.445 Y118.255 E25.72876
G1 X193.558 Y119.168 E25.77018
G1 X193.587 Y119.712 E25.79471
G1 X193.596 Y120.032 E25.80912
G1 X193.6 Y120.33 E25.82254
G1 X193.599 Y164.395 E27.80661
G1 X193.59 Y165.122 E27.83935
G1 X193.539 Y166.041 E27.88079
G1 X193.408 Y166.953 E27.92227
G1 X193.198 Y167.849 E27.96371
G1 X192.912 Y168.724 E28.00516
G1 X192.551 Y169.571 E28.04661
G1 X192.117 Y170.383 E28.08807
G1 X191.615 Y171.155 E28.12953
G1 X191.047 Y171.88 E28.171
G1 X190.419 Y172.553 E28.21245
G1 X189.735 Y173.169 E28.25389
G1 X189 Y173.723 E28.29534
G1 X188.22 Y174.212 E28.33679
G1 X187.4 Y174.631 E28.37825
G1 X186.547 Y174.977 E28.4197
G1 X185.667 Y175.248 E28.46115
G1 X184.767 Y175.441 E28.5026
G1 X183.853 Y175.556 E28.54408
G1 X183.288 Y175.587 E28.56956
G1 X182.967 Y175.596 E28.58401
G1 X182.67 Y175.6 E28.59739
G1 X52.707 Y175.6 E34.44909
G1 X51.872 Y175.59 E34.48669
G1 X50.953 Y175.538 E34.52813
G1 X50.042 Y175.407 E34.56958
G1 X49.146 Y175.197 E34.61101
G1 X48.271 Y174.91 E34.65247
G1 X47.424 Y174.548 E34.69395
G1 X46.612 Y174.114 E34.7354
G1 X45.841 Y173.612 E34.77683
G1 X45.116 Y173.044 E34.8183
G1 X44.443 Y172.415 E34.85978
G1 X43.828 Y171.731 E34.90119
G1 X43.274 Y170.996 E34.94263
G1 X42.786 Y170.215 E34.9841
G1 X42.367 Y169.395 E35.02556
G1 X42.021 Y168.542 E35.06701
G1 X41.751 Y167.662 E35.10845
G1 X41.558 Y166.761 E35.14994
G1 X41.444 Y165.848 E35.19137
G1 X41.413 Y165.277 E35.21712
G1 X41.404 Y164.944 E35.23212
G1 X41.4 Y164.658 E35.245
G1 X41.401 Y120.531 E37.23185
G1 X41.41 Y119.866 E37.2618
G1 X41.462 Y118.946 E37.30329
G1 X41.594 Y118.035 E37.34474
G1 X41.805 Y117.139 E37.38618
G1 X42.092 Y116.264 E37.42764
G1 X42.455 Y115.418 E37.4691
G1 X42.889 Y114.606 E37.51055
G1 X43.392 Y113.835 E37.552
G1 X43.961 Y113.111 E37.59346
G1 X44.589 Y112.439 E37.63487
G1 X45.274 Y111.823 E37.67635
G1 X46.01 Y111.27 E37.71781
G1 X46.791 Y110.782 E37.75927
G1 X47.611 Y110.364 E37.80071
G0 F7500 X47.982 Y110.638
G1 F1500 X48.827 Y110.318 E37.8414
G1 X49.696 Y110.075 E37.88202
G1 X50.584 Y109.909 E37.9227
G1 X51.723 Y109.813 E37.97417
G1 X52.044 Y109.804 E37.98863
G1 X52.33 Y109.8 E38.0015
G1 X182.293 Y109.8 E43.85321
G1 X183.137 Y109.811 E43.89121
G1 X184.039 Y109.864 E43.93189
G1 X184.932 Y109.996 E43.97254
G1 X185.81 Y110.207 E44.0132
G1 X186.666 Y110.495 E44.05386
G1 X187.493 Y110.857 E44.09451
G1 X188.285 Y111.292 E44.1352
G1 X189.036 Y111.794 E44.17587
G1 X189.739 Y112.361 E44.21654
G1 X190.389 Y112.988 E44.2572
G1 X190.981 Y113.67 E44.29786
G1 X191.511 Y114.401 E44.33852
G1 X191.973 Y115.177 E44.37918
G1 X192.366 Y115.99 E44.41984
G1 X192.684 Y116.835 E44.46049
G1 X192.927 Y117.705 E44.50116
G1 X193.092 Y118.593 E44.54183
G1 X193.187 Y119.723 E44.59289
G1 X193.196 Y120.043 E44.6073
G1 X193.2 Y120.33 E44.62023
G1 X193.199 Y164.39 E46.60407
G1 X193.19 Y165.117 E46.6368
G1 X193.139 Y166.019 E46.67748
G1 X193.008 Y166.913 E46.71817
G1 X192.799 Y167.791 E46.7588
G1 X192.513 Y168.648 E46.79948
G1 X192.152 Y169.476 E46.84015
G1 X191.72 Y170.268 E46.88077
G1 X191.219 Y171.02 E46.92146
G1 X190.653 Y171.724 E46.96213
G1 X190.028 Y172.375 E47.00277
G1 X189.347 Y172.969 E47.04345
G1 X188.616 Y173.5 E47.08413
G1 X187.842 Y173.964 E47.12477
G1 X187.029 Y174.358 E47.16545
G1 X186.185 Y174.678 E47.20609
G1 X185.315 Y174.923 E47.24678
G1 X184.428 Y175.089 E47.28741
G1 X183.277 Y175.187 E47.33943
G1 X182.956 Y175.196 E47.35389
G1 X182.67 Y175.2 E47.36676
G1 X52.707 Y175.2 E53.21847
G1 X51.877 Y175.19 E53.25584
G1 X50.976 Y175.139 E53.29647
G1 X50.082 Y175.007 E53.33716
G1 X49.204 Y174.798 E53.3778
G1 X48.347 Y174.511 E53.41849
G1 X47.52 Y174.15 E53.45912
G1 X46.727 Y173.717 E53.49981
G1 X45.976 Y173.216 E53.54045
G1 X45.272 Y172.65 E53.58113
G1 X44.621 Y172.024 E53.62179
G1 X44.028 Y171.343 E53.66245
G1 X43.498 Y170.612 E53.7031
G1 X43.034 Y169.837 E53.74378
G1 X42.64 Y169.024 E53.78445
G1 X42.32 Y168.18 E53.8251
G1 X42.076 Y167.31 E53.86578
G1 X41.91 Y166.422 E53.90645
G1 X41.813 Y165.267 E53.95864
G1 X41.804 Y164.934 E53.97364
G1 X41.8 Y164.658 E53.98607
G1 X41.801 Y120.536 E55.9727
G1 X41.81 Y119.871 E56.00265
G1 X41.862 Y118.969 E56.04333
G1 X41.994 Y118.076 E56.08397
G1 X42.204 Y117.198 E56.12462
G1 X42.491 Y116.341 E56.16532
G1 X42.853 Y115.514 E56.20596
G1 X43.286 Y114.722 E56.24661
G1 X43.788 Y113.971 E56.28728
G1 X44.355 Y113.267 E56.32798
G1 X44.981 Y112.617 E56.36861
G1 X45.662 Y112.024 E56.40927
G1 X46.394 Y111.494 E56.44996
G1 X47.169 Y111.031 E56.49061
G1 X47.982 Y110.638 E56.53127
G1 F2700 E50.53127
;MESH:city_box.stl
G0 F7500 X170.327 Y129.665
G0 X170.327 Y128.23
G0 X168.4 Y128.4
;TYPE:WALL-INNER
G1 F2700 E56.53127
G1 F1800 X168.4 Y156.6 E57.801
G1 X173.6 Y156.6 E58.03513
G1 X173.6 Y128.4 E59.30486
G1 X168.4 Y128.4 E59.539
G0 F7500 X168.8 Y128.8
;TYPE:WALL-OUTER
G1 F1800 X168.8 Y156.2 E60.71102
G1 X173.2 Y156.2 E60.89923
G1 X173.2 Y128.8 E62.07126
G1 X168.8 Y128.8 E62.25946
G0 F7500 X168.8 Y129.2
G0 X168.36 Y129.2
G1 F2700 E56.25946
G0 F7500 X168.21 Y128.4
G0 X169.653 Y129.653
G0 X158.347 Y129.653
G0 X159.79 Y128.4
G0 X153.4 Y128.4
;TYPE:WALL-INNER
G1 F2700 E62.25946
G1 F1800 X153.4 Y156.6 E63.52919
G1 X159.6 Y156.6 E63.80836
G1 X159.6 Y128.4 E65.07809
G1 X153.4 Y128.4 E65.35725
G0 F7500 X153.8 Y128.8
;TYPE:WALL-OUTER
G1 F1800 X153.8 Y156.2 E66.52927
G1 X159.2 Y156.2 E66.76025
G1 X159.2 Y128.8 E67.93228
G1 X153.8 Y128.8 E68.16326
G0 F7500 X153.8 Y129.2
G0 X153.36 Y129.2
G1 F2700 E62.16326
G0 F7500 X153.21 Y128.4
G0 X154.653 Y129.653
G0 X143.347 Y129.653
G0 X144.79 Y128.4
G0 X138.4 Y128.4
;TYPE:WALL-INNER
G1 F2700 E68.16326
G1 F1800 X138.4 Y156.6 E69.43299
G1 X144.6 Y156.6 E69.71215
G1 X144.6 Y128.4 E70.98188
G1 X138.4 Y128.4 E71.26104
G0 F7500 X138.8 Y128.8
;TYPE:WALL-OUTER
G1 F1800 X138.8 Y156.2 E72.43307
G1 X144.2 Y156.2 E72.66405
G1 X144.2 Y128.8 E73.83608
G1 X138.8 Y128.8 E74.06706
G0 F7500 X138.8 Y129.2
G0 X138.36 Y129.2
G1 F2700 E68.06706
G0 F7500 X138.21 Y128.4
G0 X139.653 Y129.653
G0 X128.347 Y129.653
G0 X129.79 Y128.4
G0 X122.4 Y128.4
;TYPE:WALL-INNER
G1 F2700 E74.06706
G1 F1800 X122.4 Y156.6 E75.33679
G1 X129.6 Y156.6 E75.66098
G1 X129.6 Y128.4 E76.93071
G1 X122.4 Y128.4 E77.25489
G0 F7500 X122.8 Y128.8
;TYPE:WALL-OUTER
G1 F1800 X122.8 Y156.2 E78.42692
G1 X129.2 Y156.2 E78.70067
G1 X129.2 Y128.8 E79.8727
G1 X122.8 Y128.8 E80.14646
G0 F7500 X122.8 Y129.2
G0 X122.36 Y129.2
G1 F2700 E74.14646
G0 F7500 X122.21 Y128.4
G0 X123.653 Y129.653
G0 X112.347 Y129.653
G0 X113.79 Y128.4
G0 X106.4 Y128.4
;TYPE:WALL-INNER
G1 F2700 E80.14646
G1 F1800 X106.4 Y156.6 E81.41619
G1 X113.6 Y156.6 E81.74037
G1 X113.6 Y128.4 E83.0101
G1 X106.4 Y128.4 E83.33429
G0 F7500 X106.8 Y128.8
;TYPE:WALL-OUTER
G1 F1800 X106.8 Y156.2 E84.50631
G1 X113.2 Y156.2 E84.78007
G1 X113.2 Y128.8 E85.9521
G1 X106.8 Y128.8 E86.22585
G0 F7500 X106.8 Y129.2
G0 X106.36 Y129.2
G1 F2700 E80.22585
G0 F7500 X106.21 Y128.4
G0 X107.653 Y129.653
G0 X96.347 Y129.653
G0 X97.79 Y128.4
G0 X89.4 Y128.4
;TYPE:WALL-INNER
G1 F2700 E86.22585
G1 F1800 X89.4 Y156.6 E87.49558
G1 X97.6 Y156.6 E87.8648
G1 X97.6 Y128.4 E89.13453
G1 X89.4 Y128.4 E89.50374
G0 F7500 X89.8 Y128.8
;TYPE:WALL-OUTER
G1 F1800 X89.8 Y156.2 E90.67576
G1 X97.2 Y156.2 E90.9923
G1 X97.2 Y128.8 E92.16432
G1 X89.8 Y128.8 E92.48085
G0 F7500 X89.8 Y129.2
G0 X89.36 Y129.2
G1 F2700 E86.48085
G0 F7500 X89.21 Y128.4
G0 X90.653 Y129.653
G0 X79.347 Y129.653
G0 X80.81 Y128.4
G0 X52.6 Y128.4
;TYPE:WALL-INNER
G1 F2700 E92.48085
G1 F1800 X52.6 Y120.6 E92.83206
G1 X182.4 Y120.6 E98.67642
G1 X182.4 Y164.4 E100.64855
G1 X52.6 Y164.4 E106.49292
G1 X52.6 Y156.6 E106.84412
G1 X80.6 Y156.6 E108.10484
G1 X80.6 Y128.4 E109.37457
G1 X52.6 Y128.4 E110.6353
G0 F7500 X52.8 Y128.8
;TYPE:WALL-OUTER
G1 F1800 X52.8 Y156.2 E111.80732
G1 X80.2 Y156.2 E112.97935
G1 X80.2 Y128.8 E114.15137
G1 X52.8 Y128.8 E115.3234
G0 F7500 X52.8 Y129.2
G1 F2700 E109.3234
G0 F7500 X52.6 Y129.2
G0 X52.37 Y120.37
G0 X52.2 Y120.2
G1 F2700 E115.3234
G1 F1800 X182.8 Y120.2 E120.90976
G1 X182.8 Y164.8 E122.81751
G1 X52.2 Y164.8 E128.40387
G1 X52.2 Y120.2 E130.31162
G0 F7500 X52.6 Y120.2
G0 X52.64 Y120.64
G0 X52.99 Y120.99
;TYPE:SKIN
G1 F1800 X182.01 Y120.99 E136.12086
G1 X182.01 Y164.01 E138.05788
G1 X52.99 Y164.01 E143.86712
G1 X52.99 Y156.99 E144.1832
G1 X80.99 Y156.99 E145.44393
G1 X80.99 Y128.01 E146.74878
G1 X52.99 Y128.01 E148.0095
G1 X52.99 Y120.99 E148.32559
G1 F2700 E142.32559
G0 F7500 X52.99 Y120.71
G0 X89.26 Y120.81
G0 X89.26 Y119.335
G0 X90.653 Y129.653
G0 X89.26 Y128.21
G0 X89.26 Y128.29
G0 X89.01 Y128.01
G1 F2700 E148.32559
G1 F1800 X89.01 Y156.99 E149.63044
G1 X97.99 Y156.99 E150.03477
G1 X97.99 Y128.01 E151.33962
G1 X89.01 Y128.01 E151.74395
G1 F2700 E145.74395
G0 F7500 X89.26 Y128.29
G0 X97.79 Y128.29
G0 X96.347 Y129.653
G0 X107.653 Y129.653
G0 X106.21 Y128.29
G0 X106.01 Y128.01
G1 F2700 E151.74395
G1 F1800 X106.01 Y156.99 E153.0488
G1 X113.99 Y156.99 E153.40811
G1 X113.99 Y128.01 E154.71296
G1 X106.01 Y128.01 E155.07227
G1 F2700 E149.07227
G0 F7500 X106.26 Y128.29
G0 X113.79 Y128.29
G0 X112.347 Y129.653
G0 X123.653 Y129.653
G0 X122.21 Y128.29
G0 X122.01 Y128.01
G1 F2700 E155.07227
G1 F1800 X122.01 Y156.99 E156.37712
G1 X129.99 Y156.99 E156.73643
G1 X129.99 Y128.01 E158.04128
G1 X122.01 Y128.01 E158.40058
G1 F2700 E152.40058
G0 F7500 X122.26 Y128.29
G0 X129.79 Y128.29
G0 X128.347 Y129.653
G0 X139.653 Y129.653
G0 X138.21 Y128.29
G0 X138.01 Y128.01
G1 F2700 E158.40058
G1 F1800 X138.01 Y156.99 E159.70543
G1 X144.99 Y156.99 E160.01972
G1 X144.99 Y128.01 E161.32457
G1 X138.01 Y128.01 E161.63885
G1 F2700 E155.63885
G0 F7500 X138.26 Y128.29
G0 X144.79 Y128.29
G0 X143.347 Y129.653
G0 X154.653 Y129.653
G0 X153.21 Y128.29
G0 X153.01 Y128.01
G1 F2700 E161.63885
G1 F1800 X153.01 Y156.99 E162.9437
G1 X159.99 Y156.99 E163.25798
G1 X159.99 Y128.01 E164.56283
G1 X153.01 Y128.01 E164.87711
G1 F2700 E158.87711
G0 F7500 X153.26 Y128.29
G0 X159.79 Y128.29
G0 X158.347 Y129.653
G0 X169.653 Y129.653
G0 X168.21 Y128.29
G0 X168.01 Y128.01
G1 F2700 E164.87711
G1 F1800 X168.01 Y156.99 E166.18196
G1 X173.99 Y156.99 E166.45122
G1 X173.99 Y128.01 E167.75607
G1 X168.01 Y128.01 E168.02532
G1 F2700 E162.02532
G0 F7500 X168.26 Y128.29
G0 X170.327 Y128.23
G0 X170.327 Y129.665
G0 X173.796 Y119.335
G0 X173.796 Y120.81
G0 X182.218 Y120.782
G0 X182.29 Y121.321
G0 X181.849 Y121.321
G1 F2700 E168.02532
G1 F1800 X181.678 Y121.15 E168.03621
G0 F7500 X181.112 Y121.15
G1 F1800 X181.849 Y121.886 E168.08311
G0 F7500 X181.849 Y122.452
G1 F1800 X180.546 Y121.15 E168.16605
G0 F7500 X179.981 Y121.15
G1 F1800 X181.849 Y123.018 E168.28499
G0 F7500 X181.849 Y123.583
G1 F1800 X179.415 Y121.15 E168.43995
G0 F7500 X178.849 Y121.15
G1 F1800 X181.849 Y124.149 E168.63095
G0 F7500 X181.849 Y124.715
G1 F1800 X178.284 Y121.15 E168.85795
G0 F7500 X177.718 Y121.15
G1 F1800 X181.849 Y125.28 E169.12097
G0 F7500 X181.849 Y125.846
G1 F1800 X177.152 Y121.15 E169.42002
G0 F7500 X176.587 Y121.15
G1 F1800 X181.849 Y126.412 E169.75509
G0 F7500 X181.849 Y126.977
G1 F1800 X176.021 Y121.15 E170.12616
G0 F7500 X175.455 Y121.15
G1 F1800 X181.849 Y127.543 E170.53327
G0 F7500 X181.849 Y128.109
G1 F1800 X174.89 Y121.15 E170.9764
G0 F7500 X174.324 Y121.15
G1 F1800 X181.849 Y128.675 E171.45556
G0 F7500 X181.849 Y129.24
G1 F1800 X173.758 Y121.15 E171.97073
G0 F7500 X173.193 Y121.15
G1 F1800 X181.849 Y129.806 E172.52192
G0 F7500 X181.849 Y130.372
