;FLAVOR:Marlin
;TIME:14377
;Filament used: 9.67022m
;Layer height: 0.2
;MINX:1
;MINY:104
;MINZ:0.2
;MAXX:234
;MAXY:171
;MAXZ:33
;Generated with Cura_SteamEngine 4.7.1
M140 S60
M105
M190 S60
M104 S200
M105
M109 S200
M82 ;absolute extrusion mode
; Ender 3 Custom Start G-code
G92 E0 ; Reset Extruder
G28 ; Home all axes
; ***SET NEW E STEP *** (93 is factory value - 95 mine - start)
G90                          ; Force coordinates to be absolute relative to the origin
M92 E95 ;					 ; ***SET NEW E STEP *** (93 is factory value - 95 mine - end)
G90                          ; Force coordinates to be absolute relative to the origin
G28                          ; Home X/Y/Z axis
G92 E0 ; Reset Extruder								
G28 ; Home all axes		
G1 Z2.0 F3000 ; Move Z Axis up little to prevent scratching of Heat Bed
G1 X0.1 Y20 Z0.3 F5000.0 ; Move to start position
G1 X0.1 Y200.0 Z0.3 F1500.0 E15 ; Draw the first line
G1 X0.4 Y200.0 Z0.3 F5000.0 ; Move to side a little
G1 X0.4 Y20 Z0.3 F1500.0 E30 ; Draw the second line
G92 E0 ; Reset Extruder
G1 Z2.0 F3000 ; Move Z Axis up little to prevent scratching of Heat Bed
G1 X5 Y20 Z0.3 F5000.0 ; Move over to prevent blob squish
G92 E0
G92 E0
G1 F2700 E-6
;LAYER_COUNT:165
;LAYER:0
M107
M204 S500
M205 X8 Y8
G0 F7500 X10.83 Y104.072 Z0.2
;TYPE:SKIRT
G1 F2700 E0
G1 F1500 X11.701 Y104.013 E0.02758
G1 X12.022 Y104.004 E0.03773
G1 X12.33 Y104 E0.04746
G1 X222.293 Y104 E6.68169
G1 X222.451 Y104.001 E6.68668
G1 X223.149 Y104.011 E6.70874
G1 X224.085 Y104.065 E6.73837
G1 X225.013 Y104.197 E6.76798
G1 X225.927 Y104.409 E6.79763
G1 X226.819 Y104.698 E6.82726
G1 X227.684 Y105.061 E6.8569
G1 X228.514 Y105.497 E6.88652
G1 X229.305 Y106.002 E6.91617
G1 X230.049 Y106.573 E6.94581
G1 X230.742 Y107.205 E6.97544
G1 X231.379 Y107.893 E7.00507
G1 X231.954 Y108.634 E7.0347
G1 X232.465 Y109.42 E7.06433
G1 X232.907 Y110.248 E7.09398
G1 X233.276 Y111.11 E7.12361
G1 X233.571 Y112 E7.15324
G1 X233.789 Y112.912 E7.18286
G1 X233.929 Y113.84 E7.21252
G1 X233.987 Y114.701 E7.23978
G1 X233.996 Y115.021 E7.2499
G1 X234 Y115.33 E7.25966
G1 X233.999 Y159.4 E8.65215
G1 X233.99 Y160.127 E8.67512
G1 X233.939 Y161.064 E8.70477
G1 X233.807 Y161.992 E8.73439
G1 X233.598 Y162.906 E8.76402
G1 X233.311 Y163.799 E8.79365
G1 X232.949 Y164.665 E8.82331
G1 X232.515 Y165.496 E8.85293
G1 X232.011 Y166.287 E8.88257
G1 X231.442 Y167.032 E8.91219
G1 X230.811 Y167.727 E8.94185
G1 X230.124 Y168.365 E8.97147
G1 X229.385 Y168.942 E9.0011
G1 X228.599 Y169.454 E9.03074
G1 X227.773 Y169.897 E9.06035
G1 X226.911 Y170.269 E9.09002
G1 X226.022 Y170.565 E9.11962
G1 X225.11 Y170.785 E9.14927
G1 X224.183 Y170.926 E9.1789
G1 X223.299 Y170.987 E9.20689
G1 X222.978 Y170.996 E9.21704
G1 X222.67 Y171 E9.22677
G1 X12.707 Y171 E15.861
G1 X11.867 Y170.99 E15.88754
G1 X10.931 Y170.938 E15.91717
G1 X10.002 Y170.806 E15.94681
G1 X9.088 Y170.596 E15.97645
G1 X8.195 Y170.309 E16.00608
G1 X7.33 Y169.946 E16.03572
G1 X6.499 Y169.512 E16.06535
G1 X5.708 Y169.008 E16.09498
G1 X4.963 Y168.438 E16.12462
G1 X4.269 Y167.807 E16.15426
G1 X3.632 Y167.12 E16.18386
G1 X3.055 Y166.38 E16.21351
G1 X2.543 Y165.594 E16.24315
G1 X2.1 Y164.767 E16.27279
G1 X1.729 Y163.906 E16.30242
G1 X1.433 Y163.016 E16.33205
G1 X1.214 Y162.104 E16.36169
G1 X1.073 Y161.177 E16.39132
G1 X1.013 Y160.288 E16.41947
G1 X1.004 Y159.955 E16.43
G1 X1 Y159.658 E16.43938
G1 X1.001 Y115.525 E17.83386
G1 X1.01 Y114.86 E17.85487
G1 X1.063 Y113.924 E17.88449
G1 X1.195 Y112.995 E17.91414
G1 X1.406 Y112.081 E17.94378
G1 X1.694 Y111.189 E17.9734
G1 X2.057 Y110.324 E18.00304
G1 X2.492 Y109.493 E18.03268
G1 X2.996 Y108.703 E18.06229
G1 X3.566 Y107.958 E18.09193
G1 X4.198 Y107.264 E18.12158
G1 X4.886 Y106.627 E18.15121
G1 X5.626 Y106.051 E18.18084
G1 X6.412 Y105.539 E18.21048
G1 X7.239 Y105.097 E18.24011
G1 X8.101 Y104.727 E18.26975
G1 X8.991 Y104.431 E18.29938
G1 X9.903 Y104.213 E18.32901
G1 X10.83 Y104.072 E18.35864
G0 F7500 X11.159 Y104.443
G1 F1500 X11.712 Y104.413 E18.37614
G1 X12.033 Y104.404 E18.38629
G1 X12.33 Y104.4 E18.39567
G1 X222.293 Y104.4 E25.0299
G1 X223.143 Y104.411 E25.05676
G1 X224.062 Y104.464 E25.08584
G1 X224.973 Y104.597 E25.11493
G1 X225.869 Y104.808 E25.14402
G1 X226.743 Y105.096 E25.1731
G1 X227.59 Y105.459 E25.20221
G1 X228.401 Y105.894 E25.23129
G1 X229.171 Y106.398 E25.26037
G1 X229.895 Y106.967 E25.28947
G1 X230.567 Y107.597 E25.31857
G1 X231.182 Y108.282 E25.34766
G1 X231.735 Y109.018 E25.37675
G1 X232.222 Y109.799 E25.40583
G1 X232.639 Y110.62 E25.43492
G1 X232.984 Y111.474 E25.46403
G1 X233.253 Y112.354 E25.4931
G1 X233.445 Y113.255 E25.52221
G1 X233.558 Y114.168 E25.55128
G1 X233.587 Y114.712 E25.56849
G1 X233.596 Y115.032 E25.57861
G1 X233.6 Y115.33 E25.58802
G1 X233.599 Y159.395 E26.98035
G1 X233.59 Y160.122 E27.00333
G1 X233.539 Y161.041 E27.03241
G1 X233.408 Y161.953 E27.06152
G1 X233.198 Y162.849 E27.0906
G1 X232.912 Y163.724 E27.11968
G1 X232.551 Y164.571 E27.14878
G1 X232.117 Y165.383 E27.17787
G1 X231.615 Y166.155 E27.20697
G1 X231.047 Y166.88 E27.23607
G1 X230.419 Y167.553 E27.26515
G1 X229.735 Y168.169 E27.29424
G1 X229 Y168.723 E27.32332
G1 X228.22 Y169.212 E27.35241
G1 X227.4 Y169.631 E27.3815
G1 X226.547 Y169.977 E27.41059
G1 X225.667 Y170.248 E27.43968
G1 X224.767 Y170.441 E27.46877
G1 X223.853 Y170.556 E27.49787
G1 X223.288 Y170.587 E27.51575
G1 X222.967 Y170.596 E27.5259
G1 X222.67 Y170.6 E27.53529
G1 X12.707 Y170.6 E34.16951
G1 X11.872 Y170.59 E34.1959
G1 X10.953 Y170.538 E34.22498
G1 X10.042 Y170.407 E34.25406
G1 X9.146 Y170.197 E34.28314
G1 X8.271 Y169.91 E34.31224
G1 X7.424 Y169.548 E34.34134
G1 X6.612 Y169.114 E34.37044
G1 X5.841 Y168.612 E34.39951
G1 X5.116 Y168.044 E34.42861
G1 X4.443 Y167.415 E34.45771
G1 X3.828 Y166.731 E34.48678
G1 X3.274 Y165.996 E34.51586
G1 X2.786 Y165.215 E34.54496
G1 X2.367 Y164.395 E34.57405
G1 X2.021 Y163.542 E34.60314
G1 X1.751 Y162.662 E34.63222
G1 X1.558 Y161.761 E34.66134
G1 X1.444 Y160.848 E34.69041
G1 X1.413 Y160.277 E34.70848
G1 X1.404 Y159.944 E34.719
G1 X1.4 Y159.658 E34.72804
G1 X1.401 Y115.531 E36.12233
G1 X1.41 Y114.866 E36.14334
G1 X1.462 Y113.946 E36.17246
G1 X1.594 Y113.035 E36.20154
G1 X1.805 Y112.139 E36.23063
G1 X2.092 Y111.264 E36.25973
G1 X2.455 Y110.418 E36.28881
G1 X2.889 Y109.606 E36.31791
G1 X3.392 Y108.835 E36.34699
G1 X3.961 Y108.111 E36.37609
G1 X4.589 Y107.439 E36.40515
G1 X5.274 Y106.823 E36.43426
G1 X6.01 Y106.27 E36.46335
G1 X6.791 Y105.782 E36.49245
G1 X7.611 Y105.364 E36.52153
G1 X8.465 Y105.019 E36.55063
G1 X9.345 Y104.749 E36.57972
G1 X10.245 Y104.557 E36.60879
G1 X11.159 Y104.443 E36.6379
G0 F7500 X10.584 Y104.909
G1 F1500 X11.723 Y104.813 E36.67401
G1 X12.044 Y104.804 E36.68416
G1 X12.33 Y104.8 E36.6932
G1 X222.293 Y104.8 E43.32743
G1 X223.137 Y104.811 E43.3541
G1 X224.039 Y104.864 E43.38265
G1 X224.932 Y104.996 E43.41117
G1 X225.81 Y105.207 E43.4397
G1 X226.666 Y105.495 E43.46824
G1 X227.493 Y105.857 E43.49676
G1 X228.285 Y106.292 E43.52531
G1 X229.036 Y106.794 E43.55386
G1 X229.739 Y107.361 E43.58239
G1 X230.389 Y107.988 E43.61093
G1 X230.981 Y108.67 E43.63946
G1 X231.511 Y109.401 E43.66799
G1 X231.973 Y110.177 E43.69653
G1 X232.366 Y110.99 E43.72506
G1 X232.684 Y111.835 E43.75359
G1 X232.927 Y112.705 E43.78213
G1 X233.092 Y113.593 E43.81067
G1 X233.187 Y114.723 E43.8465
G1 X233.196 Y115.043 E43.85662
G1 X233.2 Y115.33 E43.86569
G1 X233.199 Y159.39 E45.25785
G1 X233.19 Y160.117 E45.28083
G1 X233.139 Y161.019 E45.30937
G1 X233.008 Y161.913 E45.33792
G1 X232.799 Y162.791 E45.36644
G1 X232.513 Y163.648 E45.39499
G1 X232.152 Y164.476 E45.42353
G1 X231.72 Y165.268 E45.45203
G1 X231.219 Y166.02 E45.48059
G1 X230.653 Y166.724 E45.50913
G1 X230.028 Y167.375 E45.53764
G1 X229.347 Y167.969 E45.5662
G1 X228.616 Y168.5 E45.59474
G1 X227.842 Y168.964 E45.62326
G1 X227.029 Y169.358 E45.6518
G1 X226.185 Y169.678 E45.68032
G1 X225.315 Y169.923 E45.70888
G1 X224.428 Y170.089 E45.7374
G1 X223.277 Y170.187 E45.7739
G1 X222.956 Y170.196 E45.78404
G1 X222.67 Y170.2 E45.79308
G1 X12.707 Y170.2 E52.42731
G1 X11.877 Y170.19 E52.45354
G1 X10.976 Y170.139 E52.48205
G1 X10.082 Y170.007 E52.5106
G1 X9.204 Y169.798 E52.53912
G1 X8.347 Y169.511 E52.56768
G1 X7.52 Y169.15 E52.59619
G1 X6.727 Y168.717 E52.62474
G1 X5.976 Y168.216 E52.65326
G1 X5.272 Y167.65 E52.68181
G1 X4.621 Y167.024 E52.71034
G1 X4.028 Y166.343 E52.73888
G1 X3.498 Y165.612 E52.76741
G1 X3.034 Y164.837 E52.79595
G1 X2.64 Y164.024 E52.82449
G1 X2.32 Y163.18 E52.85301
G1 X2.076 Y162.31 E52.88156
G1 X1.91 Y161.422 E52.91011
G1 X1.813 Y160.267 E52.94673
G1 X1.804 Y159.934 E52.95726
G1 X1.8 Y159.658 E52.96598
G1 X1.801 Y115.536 E54.36011
G1 X1.81 Y114.871 E54.38112
G1 X1.862 Y113.969 E54.40967
G1 X1.994 Y113.076 E54.43819
G1 X2.204 Y112.198 E54.46672
G1 X2.491 Y111.341 E54.49527
G1 X2.853 Y110.514 E54.5238
G1 X3.286 Y109.722 E54.55232
G1 X3.788 Y108.971 E54.58086
G1 X4.355 Y108.267 E54.60942
G1 X4.981 Y107.617 E54.63794
G1 X5.662 Y107.024 E54.66647
G1 X6.394 Y106.494 E54.69502
G1 X7.169 Y106.031 E54.72355
G1 X7.982 Y105.638 E54.75208
G1 X8.827 Y105.318 E54.78063
G1 X9.696 Y105.075 E54.80914
G1 X10.584 Y104.909 E54.83769
G1 F2700 E48.83769
;MESH:adventure_box.stl
G0 F7500 X12.314 Y114.335
G0 X12.314 Y115.314
G0 X222.218 Y115.782
G0 X222.218 Y123.218
G0 X21.4 Y123.4
;TYPE:WALL-INNER
G1 F2700 E54.83769
G1 F1500 X21.4 Y151.6 E55.72873
G1 X222.4 Y151.6 E62.07975
G1 X222.4 Y159.4 E62.32621
G1 X12.6 Y159.4 E68.95528
G1 X12.6 Y115.6 E70.33924
G1 X222.4 Y115.6 E76.96832
G1 X222.4 Y123.4 E77.21477
G1 X21.4 Y123.4 E83.5658
G0 F7500 X21.8 Y123.8
;TYPE:WALL-OUTER
G1 F1500 X21.8 Y151.2 E84.38827
G1 X222.2 Y151.2 E90.40373
G1 X222.2 Y123.8 E91.2262
G1 X21.8 Y123.8 E97.24166
G0 F7500 X21.8 Y124.2
G0 X21.36 Y124.2
G1 F2700 E91.24166
G0 F7500 X21.218 Y123.218
G0 X222.218 Y123.218
G0 X222.218 Y115.782
G0 X12.37 Y115.37
G0 X12.2 Y115.2
G1 F2700 E97.24166
G1 F1500 X222.8 Y115.2 E103.5633
G1 X222.8 Y159.8 E104.90207
G1 X12.2 Y159.8 E111.22371
G1 X12.2 Y115.2 E112.56248
G0 F7500 X12.6 Y115.2
G0 X12.64 Y115.64
G0 X12.99 Y115.99
;TYPE:SKIN
G1 F1500 X222.01 Y115.99 E119.16691
G1 X222.01 Y123.01 E119.38872
G1 X21.01 Y123.01 E125.73975
G1 X21.01 Y151.99 E126.65543
G1 X222.01 Y151.99 E133.00645
G1 X222.01 Y159.01 E133.22827
G1 X12.99 Y159.01 E139.8327
G1 X12.99 Y115.99 E141.19201
G1 F2700 E135.19201
G0 F7500 X12.99 Y115.71
G0 X12.782 Y115.782
G0 X12.782 Y159.218
G0 X13.468 Y159.29
G0 X13.468 Y158.849
G1 F2700 E141.19201
G1 F1500 X13.15 Y158.531 E141.20622
G0 F7500 X13.15 Y157.965
G1 F1500 X14.033 Y158.849 E141.2457
G0 F7500 X14.599 Y158.849
G1 F1500 X13.15 Y157.399 E141.31047
G0 F7500 X13.15 Y156.834
G1 F1500 X15.165 Y158.849 E141.40051
G0 F7500 X15.731 Y158.849
G1 F1500 X13.15 Y156.268 E141.51584
G0 F7500 X13.15 Y155.702
G1 F1500 X16.296 Y158.849 E141.65644
G0 F7500 X16.862 Y158.849
G1 F1500 X13.15 Y155.137 E141.82231
G0 F7500 X13.15 Y154.571
G1 F1500 X17.428 Y158.849 E142.01347
G0 F7500 X17.993 Y158.849
G1 F1500 X13.15 Y154.005 E142.22991
G0 F7500 X13.15 Y153.44
G1 F1500 X18.559 Y158.849 E142.47161
G0 F7500 X19.125 Y158.849
G1 F1500 X13.15 Y152.874 E142.7386
G0 F7500 X13.15 Y152.308
G1 F1500 X19.69 Y158.849 E143.03086
G0 F7500 X20.256 Y158.849
G1 F1500 X13.15 Y151.742 E143.34842
G0 F7500 X13.15 Y151.177
G1 F1500 X20.822 Y158.849 E143.69124
G0 F7500 X21.387 Y158.849
G1 F1500 X13.15 Y150.611 E144.05934
G0 F7500 X13.15 Y150.045
G1 F1500 X21.953 Y158.849 E144.45272
G0 F7500 X22.519 Y158.849
G1 F1500 X13.15 Y149.48 E144.87138
G0 F7500 X13.15 Y148.914
G1 F1500 X23.084 Y158.849 E145.3153
G0 F7500 X23.65 Y158.849
G1 F1500 X13.15 Y148.348 E145.78452
G0 F7500 X13.15 Y147.783
G1 F1500 X24.216 Y158.849 E146.279
G0 F7500 X24.781 Y158.849
G1 F1500 X13.15 Y147.217 E146.79876
G0 F7500 X13.15 Y146.651
G1 F1500 X25.347 Y158.849 E147.3438
G0 F7500 X25.913 Y158.849
G1 F1500 X13.15 Y146.086 E147.91412
G0 F7500 X13.15 Y145.52
G1 F1500 X26.479 Y158.849 E148.50973
G0 F7500 X27.044 Y158.849
G1 F1500 X13.15 Y144.954 E149.1306
G0 F7500 X13.15 Y144.389
G1 F1500 X20.85 Y152.089 E149.47468
G0 F7500 X20.91 Y152.149
G1 F1500 X27.61 Y158.849 E149.77407
G0 F7500 X28.176 Y158.849
G1 F1500 X21.476 Y152.149 E150.07346
G0 F7500 X22.041 Y152.149
G1 F1500 X28.741 Y158.849 E150.37285
G0 F7500 X29.307 Y158.849
G1 F1500 X22.607 Y152.149 E150.67224
G0 F7500 X23.173 Y152.149
G1 F1500 X29.873 Y158.849 E150.97163
G0 F7500 X30.438 Y158.849
G1 F1500 X23.738 Y152.149 E151.27102
G0 F7500 X24.304 Y152.149
G1 F1500 X31.004 Y158.849 E151.57041
G0 F7500 X31.57 Y158.849
G1 F1500 X24.87 Y152.149 E151.8698
G0 F7500 X25.436 Y152.149
G1 F1500 X32.135 Y158.849 E152.16917
G0 F7500 X32.701 Y158.849
G1 F1500 X26.001 Y152.149 E152.46856
G0 F7500 X26.567 Y152.149
G1 F1500 X33.267 Y158.849 E152.76795
G0 F7500 X33.832 Y158.849
G1 F1500 X27.133 Y152.149 E153.06731
G0 F7500 X27.698 Y152.149
G1 F1500 X34.398 Y158.849 E153.3667
G0 F7500 X34.964 Y158.849
G1 F1500 X28.264 Y152.149 E153.66609
G0 F7500 X28.83 Y152.149
G1 F1500 X35.529 Y158.849 E153.96546
G0 F7500 X36.095 Y158.849
G1 F1500 X29.395 Y152.149 E154.26485
G0 F7500 X29.961 Y152.149
G1 F1500 X36.661 Y158.849 E154.56424
G0 F7500 X37.227 Y158.849
G1 F1500 X30.527 Y152.149 E154.86363
G0 F7500 X31.092 Y152.149
G1 F1500 X37.792 Y158.849 E155.16302
G0 F7500 X38.358 Y158.849
G1 F1500 X31.658 Y152.149 E155.46241
G0 F7500 X32.224 Y152.149
G1 F1500 X38.924 Y158.849 E155.7618
G0 F7500 X39.489 Y158.849
G1 F1500 X32.789 Y152.149 E156.06119
G0 F7500 X33.355 Y152.149
G1 F1500 X40.055 Y158.849 E156.36058
G0 F7500 X40.621 Y158.849
G1 F1500 X33.921 Y152.149 E156.65997
G0 F7500 X34.487 Y152.149
G1 F1500 X41.186 Y158.849 E156.95934
G0 F7500 X41.752 Y158.849
G1 F1500 X35.052 Y152.149 E157.25873
G0 F7500 X35.618 Y152.149
G1 F1500 X42.318 Y158.849 E157.55812
G0 F7500 X42.883 Y158.849
G1 F1500 X36.184 Y152.149 E157.85749
G0 F7500 X36.749 Y152.149
G1 F1500 X43.449 Y158.849 E158.15688
G0 F7500 X44.015 Y158.849
G1 F1500 X37.315 Y152.149 E158.45627
G0 F7500 X37.881 Y152.149
G1 F1500 X44.58 Y158.849 E158.75564
G0 F7500 X45.146 Y158.849
G1 F1500 X38.446 Y152.149 E159.05503
G0 F7500 X39.012 Y152.149
G1 F1500 X45.712 Y158.849 E159.35442
G0 F7500 X46.278 Y158.849
G1 F1500 X39.578 Y152.149 E159.65381
G0 F7500 X40.143 Y152.149
G1 F1500 X46.843 Y158.849 E159.9532
G0 F7500 X47.409 Y158.849
G1 F1500 X40.709 Y152.149 E160.25259
G0 F7500 X41.275 Y152.149
G1 F1500 X47.975 Y158.849 E160.55198
G0 F7500 X48.54 Y158.849
G1 F1500 X41.84 Y152.149 E160.85137
G0 F7500 X42.406 Y152.149
G1 F1500 X49.106 Y158.849 E161.15076
G0 F7500 X49.672 Y158.849
G1 F1500 X42.972 Y152.149 E161.45015
G0 F7500 X43.537 Y152.149
G1 F1500 X50.237 Y158.849 E161.74954
G0 F7500 X50.803 Y158.849
G1 F1500 X44.103 Y152.149 E162.04893
G0 F7500 X44.669 Y152.149
G1 F1500 X51.369 Y158.849 E162.34832
G0 F7500 X51.934 Y158.849
G1 F1500 X45.235 Y152.149 E162.64769
G0 F7500 X45.8 Y152.149
G1 F1500 X52.5 Y158.849 E162.94708
G0 F7500 X53.066 Y158.849
G1 F1500 X46.366 Y152.149 E163.24647
G0 F7500 X46.932 Y152.149
G1 F1500 X53.631 Y158.849 E163.54583
G0 F7500 X54.197 Y158.849
G1 F1500 X47.497 Y152.149 E163.84522
G0 F7500 X48.063 Y152.149
G1 F1500 X54.763 Y158.849 E164.14461
G0 F7500 X55.328 Y158.849
G1 F1500 X48.629 Y152.149 E164.44398
G0 F7500 X49.194 Y152.149
G1 F1500 X55.894 Y158.849 E164.74337
G0 F7500 X56.46 Y158.849
G1 F1500 X49.76 Y152.149 E165.04276
G0 F7500 X50.326 Y152.149
G1 F1500 X57.026 Y158.849 E165.34215
G0 F7500 X57.591 Y158.849
G1 F1500 X50.891 Y152.149 E165.64154
G0 F7500 X51.457 Y152.149
G1 F1500 X58.157 Y158.849 E165.94093
G0 F7500 X58.723 Y158.849
G1 F1500 X52.023 Y152.149 E166.24032
G0 F7500 X52.588 Y152.149
G1 F1500 X59.288 Y158.849 E166.53971
G0 F7500 X59.854 Y158.849
G1 F1500 X53.154 Y152.149 E166.8391
G0 F7500 X53.72 Y152.149
G1 F1500 X60.42 Y158.849 E167.13849
G0 F7500 X60.985 Y158.849
G1 F1500 X54.286 Y152.149 E167.43786
G0 F7500 X54.851 Y152.149
G1 F1500 X61.551 Y158.849 E167.73725
G0 F7500 X62.117 Y158.849
G1 F1500 X55.417 Y152.149 E168.03664
G0 F7500 X55.983 Y152.149
G1 F1500 X62.682 Y158.849 E168.33601
G0 F7500 X63.248 Y158.849
G1 F1500 X56.548 Y152.149 E168.6354
G0 F7500 X57.114 Y152.149
G1 F1500 X63.814 Y158.849 E168.93479
