;FLAVOR:Marlin
M117 Time Left 6h33m14s
;TIME:23594
;Filament used: 17.6357m
;Layer height: 0.2
;MINX:41
;MINY:129
;MINZ:0.2
;MAXX:194
;MAXY:196
;MAXZ:33
;POSTPROCESSED
;Generated with Cura_SteamEngine 4.7.1
M140 S60
M105
M190 S60
M104 S200
M105
M109 S200
M82 ;absolute extrusion mode
; Ender 3 Custom Start G-code
G92 E0 ; Reset Extruder
G28 ; Home all axes
; ***SET NEW E STEP *** (93 is factory value - 95 mine - start)
G90                          ; Force coordinates to be absolute relative to the origin
M92 E95 ;					 ; ***SET NEW E STEP *** (93 is factory value - 95 mine - end)
G90                          ; Force coordinates to be absolute relative to the origin
G28                          ; Home X/Y/Z axis
G92 E0 ; Reset Extruder								
G28 ; Home all axes		
G1 Z2.0 F3000 ; Move Z Axis up little to prevent scratching of Heat Bed
G1 X0.1 Y20 Z0.3 F5000.0 ; Move to start position
G1 X0.1 Y200.0 Z0.3 F1500.0 E15 ; Draw the first line
G1 X0.4 Y200.0 Z0.3 F5000.0 ; Move to side a little
G1 X0.4 Y20 Z0.3 F1500.0 E30 ; Draw the second line
G92 E0 ; Reset Extruder
G1 Z2.0 F3000 ; Move Z Axis up little to prevent scratching of Heat Bed
G1 X5 Y20 Z0.3 F5000.0 ; Move over to prevent blob squish
G92 E0
G92 E0
G1 F2700 E-6
;LAYER_COUNT:165
;LAYER:0
M107
M204 S500
M205 X8 Y8
G0 F7500 X48.101 Y129.727 Z0.2
;TYPE:SKIRT
G1 F2700 E0
G1 F1500 X48.991 Y129.431 E0.02964
G1 X49.903 Y129.213 E0.05926
G1 X50.83 Y129.072 E0.08889
G1 X51.701 Y129.013 E0.11648
G1 X52.022 Y129.004 E0.12662
G1 X52.33 Y129 E0.13636
G1 X182.293 Y129 E4.24281
G1 X182.451 Y129.001 E4.24781
G1 X183.149 Y129.011 E4.26986
G1 X184.085 Y129.065 E4.29949
G1 X185.013 Y129.197 E4.3291
G1 X185.927 Y129.409 E4.35875
G1 X186.819 Y129.698 E4.38838
G1 X187.684 Y130.061 E4.41802
G1 X188.514 Y130.497 E4.44764
G1 X189.305 Y131.002 E4.47729
G1 X190.049 Y131.573 E4.50693
G1 X190.742 Y132.205 E4.53656
G1 X191.379 Y132.893 E4.56619
G1 X191.954 Y133.634 E4.59582
G1 X192.465 Y134.42 E4.62545
G1 X192.907 Y135.248 E4.6551
G1 X193.276 Y136.11 E4.68473
G1 X193.571 Y137 E4.71436
G1 X193.789 Y137.912 E4.74399
G1 X193.929 Y138.84 E4.77364
G1 X193.987 Y139.701 E4.80091
G1 X193.996 Y140.021 E4.81102
G1 X194 Y140.33 E4.82079
G1 X193.999 Y184.4 E6.21327
G1 X193.99 Y185.127 E6.23624
G1 X193.939 Y186.064 E6.26589
G1 X193.807 Y186.992 E6.29551
G1 X193.598 Y187.906 E6.32514
G1 X193.311 Y188.799 E6.35477
G1 X192.949 Y189.665 E6.38443
G1 X192.515 Y190.496 E6.41405
G1 X192.011 Y191.287 E6.44369
G1 X191.442 Y192.032 E6.47331
G1 X190.811 Y192.727 E6.50297
G1 X190.124 Y193.365 E6.5326
G1 X189.385 Y193.942 E6.56222
G1 X188.599 Y194.454 E6.59186
G1 X187.773 Y194.897 E6.62148
G1 X186.911 Y195.269 E6.65114
G1 X186.022 Y195.565 E6.68075
G1 X185.11 Y195.785 E6.71039
G1 X184.183 Y195.926 E6.74002
G1 X183.299 Y195.987 E6.76802
G1 X182.978 Y195.996 E6.77816
G1 X182.67 Y196 E6.78789
G1 X52.707 Y196 E10.89435
G1 X51.867 Y195.99 E10.9209
G1 X50.931 Y195.938 E10.95052
G1 X50.002 Y195.806 E10.98016
G1 X49.088 Y195.596 E11.0098
G1 X48.195 Y195.309 E11.03943
G1 X47.33 Y194.946 E11.06908
G1 X46.499 Y194.512 E11.0987
G1 X45.708 Y194.008 E11.12833
G1 X44.963 Y193.438 E11.15797
G1 X44.269 Y192.807 E11.18761
G1 X43.632 Y192.12 E11.21721
G1 X43.055 Y191.38 E11.24686
G1 X42.543 Y190.594 E11.2765
G1 X42.1 Y189.767 E11.30615
G1 X41.729 Y188.906 E11.33577
G1 X41.433 Y188.016 E11.36541
G1 X41.214 Y187.104 E11.39504
G1 X41.073 Y186.177 E11.42467
G1 X41.013 Y185.288 E11.45282
G1 X41.004 Y184.955 E11.46335
G1 X41 Y184.658 E11.47273
G1 X41.001 Y140.525 E12.86721
G1 X41.01 Y139.86 E12.88822
G1 X41.063 Y138.924 E12.91785
G1 X41.195 Y137.995 E12.94749
G1 X41.406 Y137.081 E12.97713
G1 X41.694 Y136.189 E13.00675
G1 X42.057 Y135.324 E13.03639
G1 X42.492 Y134.493 E13.06603
G1 X42.996 Y133.703 E13.09564
G1 X43.566 Y132.958 E13.12528
G1 X44.198 Y132.264 E13.15494
G1 X44.886 Y131.627 E13.18456
G1 X45.626 Y131.051 E13.21419
G1 X46.412 Y130.539 E13.24383
G1 X47.239 Y130.097 E13.27346
G1 X48.101 Y129.727 E13.3031
G0 F7500 X48.465 Y130.019
G1 F1500 X49.345 Y129.749 E13.33218
G1 X50.245 Y129.557 E13.36126
G1 X51.159 Y129.443 E13.39037
G1 X51.712 Y129.413 E13.40786
G1 X52.033 Y129.404 E13.41801
G1 X52.33 Y129.4 E13.4274
G1 X182.293 Y129.4 E17.53385
G1 X183.143 Y129.411 E17.56071
G1 X184.062 Y129.464 E17.5898
G1 X184.973 Y129.597 E17.61889
G1 X185.869 Y129.808 E17.64798
G1 X186.743 Y130.096 E17.67705
G1 X187.59 Y130.459 E17.70617
G1 X188.401 Y130.894 E17.73525
G1 X189.171 Y131.398 E17.76433
G1 X189.895 Y131.967 E17.79342
G1 X190.567 Y132.597 E17.82253
G1 X191.182 Y133.282 E17.85161
G1 X191.735 Y134.018 E17.8807
G1 X192.222 Y134.799 E17.90978
G1 X192.639 Y135.62 E17.93888
G1 X192.984 Y136.474 E17.96798
G1 X193.253 Y137.354 E17.99706
G1 X193.445 Y138.255 E18.02617
G1 X193.558 Y139.168 E18.05523
G1 X193.587 Y139.712 E18.07245
G1 X193.596 Y140.032 E18.08256
G1 X193.6 Y140.33 E18.09198
G1 X193.599 Y184.395 E19.48431
G1 X193.59 Y185.122 E19.50728
G1 X193.539 Y186.041 E19.53636
G1 X193.408 Y186.953 E19.56547
G1 X193.198 Y187.849 E19.59455
G1 X192.912 Y188.724 E19.62364
G1 X192.551 Y189.571 E19.65273
G1 X192.117 Y190.383 E19.68182
G1 X191.615 Y191.155 E19.71092
G1 X191.047 Y191.88 E19.74002
G1 X190.419 Y192.553 E19.76911
G1 X189.735 Y193.169 E19.79819
G1 X189 Y193.723 E19.82727
G1 X188.22 Y194.212 E19.85636
G1 X187.4 Y194.631 E19.88546
G1 X186.547 Y194.977 E19.91454
G1 X185.667 Y195.248 E19.94364
G1 X184.767 Y195.441 E19.97272
G1 X183.853 Y195.556 E20.00183
G1 X183.288 Y195.587 E20.01971
G1 X182.967 Y195.596 E20.02985
G1 X182.67 Y195.6 E20.03924
G1 X52.707 Y195.6 E24.1457
G1 X51.872 Y195.59 E24.17208
G1 X50.953 Y195.538 E24.20117
G1 X50.042 Y195.407 E24.23025
G1 X49.146 Y195.197 E24.25933
G1 X48.271 Y194.91 E24.28842
G1 X47.424 Y194.548 E24.31753
G1 X46.612 Y194.114 E24.34662
G1 X45.841 Y193.612 E24.37569
G1 X45.116 Y193.044 E24.40479
G1 X44.443 Y192.415 E24.4339
G1 X43.828 Y191.731 E24.46296
G1 X43.274 Y190.996 E24.49204
G1 X42.786 Y190.215 E24.52114
G1 X42.367 Y189.395 E24.55024
G1 X42.021 Y188.542 E24.57932
G1 X41.751 Y187.662 E24.60841
G1 X41.558 Y186.761 E24.63752
G1 X41.444 Y185.848 E24.6666
G1 X41.413 Y185.277 E24.68466
G1 X41.404 Y184.944 E24.69519
G1 X41.4 Y184.658 E24.70423
G1 X41.401 Y140.531 E26.09851
G1 X41.41 Y139.866 E26.11953
G1 X41.462 Y138.946 E26.14864
G1 X41.594 Y138.035 E26.17773
G1 X41.805 Y137.139 E26.20681
G1 X42.092 Y136.264 E26.23591
G1 X42.455 Y135.418 E26.265
G1 X42.889 Y134.606 E26.29409
G1 X43.392 Y133.835 E26.32318
G1 X43.961 Y133.111 E26.35227
G1 X44.589 Y132.439 E26.38134
G1 X45.274 Y131.823 E26.41044
G1 X46.01 Y131.27 E26.43953
G1 X46.791 Y130.782 E26.46863
G1 X47.611 Y130.364 E26.49771
G1 X48.465 Y130.019 E26.52682
G0 F7500 X47.982 Y130.638
G1 F1500 X48.827 Y130.318 E26.55537
G1 X49.696 Y130.075 E26.58388
G1 X50.584 Y129.909 E26.61242
G1 X51.723 Y129.813 E26.64854
G1 X52.044 Y129.804 E26.65868
G1 X52.33 Y129.8 E26.66772
G1 X182.293 Y129.8 E30.77418
G1 X183.137 Y129.811 E30.80085
G1 X184.039 Y129.864 E30.8294
G1 X184.932 Y129.996 E30.85792
G1 X185.81 Y130.207 E30.88645
G1 X186.666 Y130.495 E30.91499
G1 X187.493 Y130.857 E30.94352
G1 X188.285 Y131.292 E30.97207
G1 X189.036 Y131.794 E31.00061
G1 X189.739 Y132.361 E31.02915
G1 X190.389 Y132.988 E31.05768
G1 X190.981 Y133.67 E31.08622
G1 X191.511 Y134.401 E31.11475
G1 X191.973 Y135.177 E31.14328
G1 X192.366 Y135.99 E31.17182
G1 X192.684 Y136.835 E31.20034
G1 X192.927 Y137.705 E31.22889
G1 X193.092 Y138.593 E31.25742
G1 X193.187 Y139.723 E31.29326
G1 X193.196 Y140.043 E31.30337
G1 X193.2 Y140.33 E31.31244
G1 X193.199 Y184.39 E32.70461
G1 X193.19 Y185.117 E32.72758
G1 X193.139 Y186.019 E32.75613
G1 X193.008 Y186.913 E32.78468
G1 X192.799 Y187.791 E32.81319
G1 X192.513 Y188.648 E32.84174
G1 X192.152 Y189.476 E32.87028
G1 X191.72 Y190.268 E32.89879
G1 X191.219 Y191.02 E32.92734
G1 X190.653 Y191.724 E32.95588
G1 X190.028 Y192.375 E32.9844
G1 X189.347 Y192.969 E33.01295
G1 X188.616 Y193.5 E33.0415
G1 X187.842 Y193.964 E33.07001
G1 X187.029 Y194.358 E33.09856
G1 X186.185 Y194.678 E33.12708
G1 X185.315 Y194.923 E33.15564
G1 X184.428 Y195.089 E33.18415
G1 X183.277 Y195.187 E33.22065
G1 X182.956 Y195.196 E33.2308
G1 X182.67 Y195.2 E33.23983
G1 X52.707 Y195.2 E37.34629
G1 X51.877 Y195.19 E37.37252
G1 X50.976 Y195.139 E37.40103
G1 X50.082 Y195.007 E37.42959
G1 X49.204 Y194.798 E37.45811
G1 X48.347 Y194.511 E37.48666
G1 X47.52 Y194.15 E37.51517
G1 X46.727 Y193.717 E37.54372
G1 X45.976 Y193.216 E37.57225
G1 X45.272 Y192.65 E37.60079
G1 X44.621 Y192.024 E37.62933
G1 X44.028 Y191.343 E37.65786
G1 X43.498 Y190.612 E37.68639
G1 X43.034 Y189.837 E37.71493
G1 X42.64 Y189.024 E37.74348
G1 X42.32 Y188.18 E37.772
G1 X42.076 Y187.31 E37.80055
G1 X41.91 Y186.422 E37.82909
G1 X41.813 Y185.267 E37.86571
G1 X41.804 Y184.934 E37.87624
G1 X41.8 Y184.658 E37.88496
G1 X41.801 Y140.536 E39.27909
G1 X41.81 Y139.871 E39.3001
G1 X41.862 Y138.969 E39.32865
G1 X41.994 Y138.076 E39.35717
G1 X42.204 Y137.198 E39.3857
G1 X42.491 Y136.341 E39.41426
G1 X42.853 Y135.514 E39.44278
G1 X43.286 Y134.722 E39.4713
G1 X43.788 Y133.971 E39.49984
G1 X44.355 Y133.267 E39.52841
G1 X44.981 Y132.617 E39.55692
G1 X45.662 Y132.024 E39.58545
G1 X46.394 Y131.494 E39.61401
G1 X47.169 Y131.031 E39.64253
G1 X47.982 Y130.638 E39.67107
G1 F2700 E33.67107
;MESH:city_box.stl
G0 F7500 X170.327 Y149.665
G0 X170.327 Y148.23
G0 X168.4 Y148.4
;TYPE:WALL-INNER
G1 F2700 E39.67107
G1 F1500 X168.4 Y176.6 E40.5621
G1 X173.6 Y176.6 E40.72641
G1 X173.6 Y148.4 E41.61745
G1 X168.4 Y148.4 E41.78175
G0 F7500 X168.8 Y148.8
;TYPE:WALL-OUTER
G1 F1500 X168.8 Y176.2 E42.60423
G1 X173.2 Y176.2 E42.7363
G1 X173.2 Y148.8 E43.55878
G1 X168.8 Y148.8 E43.69085
G0 F7500 X168.8 Y149.2
G0 X168.36 Y149.2
G1 F2700 E37.69085
G0 F7500 X168.21 Y148.4
G0 X169.653 Y149.653
G0 X158.347 Y149.653
G0 X159.79 Y148.4
G0 X153.4 Y148.4
;TYPE:WALL-INNER
G1 F2700 E43.69085
G1 F1500 X153.4 Y176.6 E44.58189
G1 X159.6 Y176.6 E44.77779
G1 X159.6 Y148.4 E45.66883
G1 X153.4 Y148.4 E45.86473
G0 F7500 X153.8 Y148.8
;TYPE:WALL-OUTER
G1 F1500 X153.8 Y176.2 E46.68721
G1 X159.2 Y176.2 E46.8493
G1 X159.2 Y148.8 E47.67177
G1 X153.8 Y148.8 E47.83387
G0 F7500 X153.8 Y149.2
G0 X153.36 Y149.2
G1 F2700 E41.83387
G0 F7500 X153.21 Y148.4
G0 X154.653 Y149.653
G0 X143.347 Y149.653
G0 X144.79 Y148.4
G0 X138.4 Y148.4
;TYPE:WALL-INNER
G1 F2700 E47.83387
G1 F1500 X138.4 Y176.6 E48.72491
G1 X144.6 Y176.6 E48.92081
G1 X144.6 Y148.4 E49.81185
G1 X138.4 Y148.4 E50.00775
G0 F7500 X138.8 Y148.8
;TYPE:WALL-OUTER
G1 F1500 X138.8 Y176.2 E50.83022
G1 X144.2 Y176.2 E50.99232
G1 X144.2 Y148.8 E51.81479
G1 X138.8 Y148.8 E51.97688
G0 F7500 X138.8 Y149.2
G0 X138.36 Y149.2
G1 F2700 E45.97688
G0 F7500 X138.21 Y148.4
G0 X139.653 Y149.653
G0 X128.347 Y149.653
G0 X129.79 Y148.4
G0 X122.4 Y148.4
;TYPE:WALL-INNER
G1 F2700 E51.97688
G1 F1500 X122.4 Y176.6 E52.86792
G1 X129.6 Y176.6 E53.09542
G1 X129.6 Y148.4 E53.98646
G1 X122.4 Y148.4 E54.21396
G0 F7500 X122.8 Y148.8
;TYPE:WALL-OUTER
G1 F1500 X122.8 Y176.2 E55.03643
G1 X129.2 Y176.2 E55.22854
G1 X129.2 Y148.8 E56.05102
G1 X122.8 Y148.8 E56.24313
G0 F7500 X122.8 Y149.2
G0 X122.36 Y149.2
G1 F2700 E50.24313
G0 F7500 X122.21 Y148.4
G0 X123.653 Y149.653
G0 X112.347 Y149.653
G0 X113.79 Y148.4
G0 X106.4 Y148.4
;TYPE:WALL-INNER
G1 F2700 E56.24313
G1 F1500 X106.4 Y176.6 E57.13417
G1 X113.6 Y176.6 E57.36167
G1 X113.6 Y148.4 E58.2527
G1 X106.4 Y148.4 E58.4802
G0 F7500 X106.8 Y148.8
;TYPE:WALL-OUTER
G1 F1500 X106.8 Y176.2 E59.30268
G1 X113.2 Y176.2 E59.49479
G1 X113.2 Y148.8 E60.31726
G1 X106.8 Y148.8 E60.50937
G0 F7500 X106.8 Y149.2
G0 X106.36 Y149.2
G1 F2700 E54.50937
G0 F7500 X106.21 Y148.4
G0 X107.653 Y149.653
G0 X96.347 Y149.653
G0 X97.79 Y148.4
G0 X89.4 Y148.4
;TYPE:WALL-INNER
G1 F2700 E60.50937
G1 F1500 X89.4 Y176.6 E61.40041
G1 X97.6 Y176.6 E61.65951
G1 X97.6 Y148.4 E62.55055
G1 X89.4 Y148.4 E62.80964
G0 F7500 X89.8 Y148.8
;TYPE:WALL-OUTER
G1 F1500 X89.8 Y176.2 E63.63212
G1 X97.2 Y176.2 E63.85424
G1 X97.2 Y148.8 E64.67672
G1 X89.8 Y148.8 E64.89884
G0 F7500 X89.8 Y149.2
G0 X89.36 Y149.2
G1 F2700 E58.89884
G0 F7500 X89.21 Y148.4
G0 X90.653 Y149.653
G0 X79.347 Y149.653
G0 X80.81 Y148.4
G0 X52.6 Y148.4
;TYPE:WALL-INNER
G1 F2700 E64.89884
G1 F1500 X52.6 Y140.6 E65.1453
G1 X182.4 Y140.6 E69.24661
G1 X182.4 Y184.4 E70.63056
G1 X52.6 Y184.4 E74.73187
G1 X52.6 Y176.6 E74.97833
G1 X80.6 Y176.6 E75.86305
G1 X80.6 Y148.4 E76.75409
G1 X52.6 Y148.4 E77.63881
G0 F7500 X52.8 Y148.8
;TYPE:WALL-OUTER
G1 F1500 X52.8 Y176.2 E78.46128
G1 X80.2 Y176.2 E79.28375
G1 X80.2 Y148.8 E80.10623
G1 X52.8 Y148.8 E80.9287
G0 F7500 X52.8 Y149.2
G1 F2700 E74.9287
G0 F7500 X52.6 Y149.2
G0 X52.37 Y140.37
G0 X52.2 Y140.2
G1 F2700 E80.9287
G1 F1500 X182.8 Y140.2 E84.84896
G1 X182.8 Y184.8 E86.18773
G1 X52.2 Y184.8 E90.10798
G1 X52.2 Y140.2 E91.44675
G0 F7500 X52.6 Y140.2
G0 X52.64 Y140.64
G0 X52.99 Y140.99
;TYPE:SKIN
G1 F1500 X182.01 Y140.99 E95.52341
G1 X182.01 Y184.01 E96.88272
G1 X52.99 Y184.01 E100.95938
G1 X52.99 Y176.99 E101.18119
G1 X80.99 Y176.99 E102.06591
G1 X80.99 Y148.01 E102.9816
G1 X52.99 Y148.01 E103.86632
G1 X52.99 Y140.99 E104.08813
G1 F2700 E98.08813
G0 F7500 X52.99 Y140.71
G0 X89.26 Y140.81
G0 X89.26 Y139.335
G0 X90.653 Y149.653
G0 X89.26 Y148.21
G0 X89.26 Y148.29
G0 X89.01 Y148.01
G1 F2700 E104.08813
G1 F1500 X89.01 Y176.99 E105.00382
G1 X97.99 Y176.99 E105.28756
G1 X97.99 Y148.01 E106.20324
G1 X89.01 Y148.01 E106.48698
G1 F2700 E100.48698
G0 F7500 X89.26 Y148.29
G0 X97.79 Y148.29
G0 X96.347 Y149.653
G0 X107.653 Y149.653
G0 X106.21 Y148.29
G0 X106.01 Y148.01
G1 F2700 E106.48698
G1 F1500 X106.01 Y176.99 E107.40267
G1 X113.99 Y176.99 E107.65481
G1 X113.99 Y148.01 E108.5705
G1 X106.01 Y148.01 E108.82264
G1 F2700 E102.82264
G0 F7500 X106.26 Y148.29
G0 X113.79 Y148.29
G0 X112.347 Y149.653
G0 X123.653 Y149.653
G0 X122.21 Y148.29
G0 X122.01 Y148.01
G1 F2700 E108.82264
G1 F1500 X122.01 Y176.99 E109.73833
G1 X129.99 Y176.99 E109.99047
G1 X129.99 Y148.01 E110.90616
G1 X122.01 Y148.01 E111.1583
G1 F2700 E105.1583
G0 F7500 X122.26 Y148.29
G0 X129.79 Y148.29
G0 X128.347 Y149.653
G0 X139.653 Y149.653
G0 X138.21 Y148.29
G0 X138.01 Y148.01
G1 F2700 E111.1583
G1 F1500 X138.01 Y176.99 E112.07399
G1 X144.99 Y176.99 E112.29454
G1 X144.99 Y148.01 E113.21022
G1 X138.01 Y148.01 E113.43077
G1 F2700 E107.43077
G0 F7500 X138.26 Y148.29
G0 X144.79 Y148.29
G0 X143.347 Y149.653
G0 X154.653 Y149.653
G0 X153.21 Y148.29
G0 X153.01 Y148.01
G1 F2700 E113.43077
G1 F1500 X153.01 Y176.99 E114.34645
G1 X159.99 Y176.99 E114.567
G1 X159.99 Y148.01 E115.48269
G1 X153.01 Y148.01 E115.70324
G1 F2700 E109.70324
G0 F7500 X153.26 Y148.29
G0 X159.79 Y148.29
G0 X158.347 Y149.653
G0 X169.653 Y149.653
G0 X168.21 Y148.29
G0 X168.01 Y148.01
G1 F2700 E115.70324
G1 F1500 X168.01 Y176.99 E116.61892
G1 X173.99 Y176.99 E116.80787
G1 X173.99 Y148.01 E117.72356
G1 X168.01 Y148.01 E117.91251
G1 F2700 E111.91251
G0 F7500 X168.26 Y148.29
G0 X170.327 Y148.23
G0 X170.327 Y149.665
G0 X183.665 Y148.204
G0 X182.19 Y148.204
G0 X182.29 Y141.685
G0 X181.849 Y141.685
G1 F2700 E117.91251
G1 F1500 X181.313 Y141.149 E117.93646
G0 F7500 X180.747 Y141.149
G1 F1500 X181.849 Y142.251 E117.9857
G0 F7500 X181.849 Y142.817
G1 F1500 X180.182 Y141.149 E118.06021
G0 F7500 X179.616 Y141.149
G1 F1500 X181.849 Y143.382 E118.15999
G0 F7500 X181.849 Y143.948
G1 F1500 X179.05 Y141.149 E118.28507
G0 F7500 X178.485 Y141.149
G1 F1500 X181.849 Y144.514 E118.43541
G0 F7500 X181.849 Y145.079
G1 F1500 X177.919 Y141.149 E118.61102
G0 F7500 X177.353 Y141.149
G1 F1500 X181.849 Y145.645 E118.81193
G0 F7500 X181.849 Y146.211
G1 F1500 X176.788 Y141.149 E119.0381
G0 F7500 X176.222 Y141.149
G1 F1500 X181.849 Y146.776 E119.28954
G0 F7500 X181.849 Y147.342
G1 F1500 X175.656 Y141.149 E119.56628
G0 F7500 X175.09 Y141.149
G1 F1500 X181.849 Y147.908 E119.86831
G0 F7500 X181.849 Y148.474
G1 F1500 X174.525 Y141.149 E120.1956
G0 F7500 X173.959 Y141.149
G1 F1500 X181.849 Y149.039 E120.54817
G0 F7500 X181.849 Y149.605
G1 F1500 X173.393 Y141.149 E120.92602
G0 F7500 X172.828 Y141.149
G1 F1500 X181.849 Y150.171 E121.32915
G0 F7500 X181.849 Y150.736
G1 F1500 X172.262 Y141.149 E121.75755
