;FLAVOR:Marlin
M117 Time Left 2h10m07s
;TIME:7807
;Filament used: 7.96161m
;Layer height: 0.28
;MINX:76
;MINY:104
;MINZ:0.285
;MAXX:159
;MAXY:171
;MAXZ:32.765
;POSTPROCESSED
;Generated with Cura_SteamEngine 4.7.1
M140 S60
M105
M190 S60
M104 S200
M105
M109 S200
M82 ;absolute extrusion mode
; Ender 3 Custom Start G-code
G92 E0 ; Reset Extruder
G28 ; Home all axes
; ***SET NEW E STEP *** (93 is factory value - 95 mine - start)
G90                          ; Force coordinates to be absolute relative to the origin
M92 E95 ;					 ; ***SET NEW E STEP *** (93 is factory value - 95 mine - end)
G90                          ; Force coordinates to be absolute relative to the origin
G28                          ; Home X/Y/Z axis
G92 E0 ; Reset Extruder								
G28 ; Home all axes		
G1 Z2.0 F3000 ; Move Z Axis up little to prevent scratching of Heat Bed
G1 X0.1 Y20 Z0.3 F5000.0 ; Move to start position
G1 X0.1 Y200.0 Z0.3 F1500.0 E15 ; Draw the first line
G1 X0.4 Y200.0 Z0.3 F5000.0 ; Move to side a little
G1 X0.4 Y20 Z0.3 F1500.0 E30 ; Draw the second line
G92 E0 ; Reset Extruder
G1 Z2.0 F3000 ; Move Z Axis up little to prevent scratching of Heat Bed
G1 X5 Y20 Z0.3 F5000.0 ; Move over to prevent blob squish
G92 E0
G92 E0
G1 F2700 E-6
;LAYER_COUNT:117
;LAYER:0
M107
M204 S500
M205 X8 Y8
G0 F7500 X80.626 Y106.051 Z0.285
;TYPE:SKIRT
G1 F2700 E0
G1 F1500 X81.412 Y105.539 E0.04224
G1 X82.239 Y105.097 E0.08446
G1 X83.101 Y104.727 E0.12669
G1 X83.991 Y104.431 E0.16893
G1 X84.903 Y104.213 E0.21115
G1 X85.83 Y104.072 E0.25337
G1 X86.701 Y104.013 E0.29267
G1 X87.022 Y104.004 E0.30713
G1 X87.33 Y104 E0.321
G1 X147.293 Y104 E3.02089
G1 X147.451 Y104.001 E3.028
G1 X148.149 Y104.011 E3.05943
G1 X149.085 Y104.065 E3.10165
G1 X150.013 Y104.197 E3.14385
G1 X150.927 Y104.409 E3.1861
G1 X151.819 Y104.698 E3.22832
G1 X152.684 Y105.061 E3.27056
G1 X153.514 Y105.497 E3.31277
G1 X154.305 Y106.002 E3.35503
G1 X155.049 Y106.573 E3.39725
G1 X155.742 Y107.205 E3.43948
G1 X156.379 Y107.893 E3.4817
G1 X156.954 Y108.634 E3.52393
G1 X157.465 Y109.42 E3.56614
G1 X157.907 Y110.248 E3.6084
G1 X158.276 Y111.11 E3.65062
G1 X158.571 Y112 E3.69284
G1 X158.789 Y112.912 E3.73506
G1 X158.929 Y113.84 E3.77732
G1 X158.987 Y114.701 E3.81617
G1 X158.996 Y115.021 E3.83059
G1 X159 Y115.33 E3.8445
G1 X158.999 Y159.4 E5.82879
G1 X158.99 Y160.127 E5.86153
G1 X158.939 Y161.064 E5.90378
G1 X158.807 Y161.992 E5.94599
G1 X158.598 Y162.906 E5.9882
G1 X158.311 Y163.799 E6.03043
G1 X157.949 Y164.665 E6.0727
G1 X157.515 Y165.496 E6.11491
G1 X157.011 Y166.287 E6.15714
G1 X156.442 Y167.032 E6.19935
G1 X155.811 Y167.727 E6.24161
G1 X155.124 Y168.365 E6.28383
G1 X154.385 Y168.942 E6.32604
G1 X153.599 Y169.454 E6.36828
G1 X152.773 Y169.897 E6.41048
G1 X151.911 Y170.269 E6.45276
G1 X151.022 Y170.565 E6.49494
G1 X150.11 Y170.785 E6.53719
G1 X149.183 Y170.926 E6.57941
G1 X148.299 Y170.987 E6.6193
G1 X147.978 Y170.996 E6.63376
G1 X147.67 Y171 E6.64763
G1 X87.707 Y171 E9.34752
G1 X86.867 Y170.99 E9.38534
G1 X85.931 Y170.938 E9.42755
G1 X85.002 Y170.806 E9.4698
G1 X84.088 Y170.596 E9.51203
G1 X83.195 Y170.309 E9.55426
G1 X82.33 Y169.946 E9.5965
G1 X81.499 Y169.512 E9.63871
G1 X80.708 Y169.008 E9.68094
G1 X79.963 Y168.438 E9.72318
G1 X79.269 Y167.807 E9.76541
G1 X78.632 Y167.12 E9.8076
G1 X78.055 Y166.38 E9.84985
G1 X77.543 Y165.594 E9.89208
G1 X77.1 Y164.767 E9.93433
G1 X76.729 Y163.906 E9.97654
G1 X76.433 Y163.016 E10.01877
G1 X76.214 Y162.104 E10.061
G1 X76.073 Y161.177 E10.10322
G1 X76.013 Y160.288 E10.14334
G1 X76.004 Y159.955 E10.15834
G1 X76 Y159.658 E10.17171
G1 X76.001 Y115.525 E12.15884
G1 X76.01 Y114.86 E12.18879
G1 X76.063 Y113.924 E12.231
G1 X76.195 Y112.995 E12.27325
G1 X76.406 Y112.081 E12.31548
G1 X76.694 Y111.189 E12.35769
G1 X77.057 Y110.324 E12.39992
G1 X77.492 Y109.493 E12.44216
G1 X77.996 Y108.703 E12.48435
G1 X78.566 Y107.958 E12.52659
G1 X79.198 Y107.264 E12.56885
G1 X79.886 Y106.627 E12.61107
G1 X80.626 Y106.051 E12.65329
G0 F7500 X81.01 Y106.27
G1 F1500 X81.791 Y105.782 E12.69476
G1 X82.611 Y105.364 E12.7362
G1 X83.465 Y105.019 E12.77767
G1 X84.345 Y104.749 E12.81911
G1 X85.245 Y104.557 E12.86055
G1 X86.159 Y104.443 E12.90202
G1 X86.712 Y104.413 E12.92696
G1 X87.033 Y104.404 E12.94142
G1 X87.33 Y104.4 E12.95479
G1 X147.293 Y104.4 E15.65468
G1 X148.143 Y104.411 E15.69295
G1 X149.062 Y104.464 E15.7344
G1 X149.973 Y104.597 E15.77586
G1 X150.869 Y104.808 E15.8173
G1 X151.743 Y105.096 E15.85874
G1 X152.59 Y105.459 E15.90023
G1 X153.401 Y105.894 E15.94167
G1 X154.171 Y106.398 E15.9831
G1 X154.895 Y106.967 E16.02456
G1 X155.567 Y107.597 E16.06604
G1 X156.182 Y108.282 E16.10749
G1 X156.735 Y109.018 E16.14894
G1 X157.222 Y109.799 E16.19038
G1 X157.639 Y110.62 E16.23184
G1 X157.984 Y111.474 E16.27331
G1 X158.253 Y112.354 E16.31475
G1 X158.445 Y113.255 E16.35622
G1 X158.558 Y114.168 E16.39765
G1 X158.587 Y114.712 E16.42218
G1 X158.596 Y115.032 E16.43659
G1 X158.6 Y115.33 E16.45001
G1 X158.599 Y159.395 E18.43408
G1 X158.59 Y160.122 E18.46681
G1 X158.539 Y161.041 E18.50825
G1 X158.408 Y161.953 E18.54974
G1 X158.198 Y162.849 E18.59118
G1 X157.912 Y163.724 E18.63262
G1 X157.551 Y164.571 E18.67408
G1 X157.117 Y165.383 E18.71554
G1 X156.615 Y166.155 E18.757
G1 X156.047 Y166.88 E18.79847
G1 X155.419 Y167.553 E18.83991
G1 X154.735 Y168.169 E18.88136
G1 X154 Y168.723 E18.9228
G1 X153.22 Y169.212 E18.96425
G1 X152.4 Y169.631 E19.00572
G1 X151.547 Y169.977 E19.04716
G1 X150.667 Y170.248 E19.08862
G1 X149.767 Y170.441 E19.13007
G1 X148.853 Y170.556 E19.17154
G1 X148.288 Y170.587 E19.19702
G1 X147.967 Y170.596 E19.21148
G1 X147.67 Y170.6 E19.22485
G1 X87.707 Y170.6 E21.92474
G1 X86.872 Y170.59 E21.96234
G1 X85.953 Y170.538 E22.00379
G1 X85.042 Y170.407 E22.04523
G1 X84.146 Y170.197 E22.08666
G1 X83.271 Y169.91 E22.12813
G1 X82.424 Y169.548 E22.1696
G1 X81.612 Y169.114 E22.21106
G1 X80.841 Y168.612 E22.25248
G1 X80.116 Y168.044 E22.29395
G1 X79.443 Y167.415 E22.33543
G1 X78.828 Y166.731 E22.37684
G1 X78.274 Y165.996 E22.41829
G1 X77.786 Y165.215 E22.45975
G1 X77.367 Y164.395 E22.50121
G1 X77.021 Y163.542 E22.54266
G1 X76.751 Y162.662 E22.58411
G1 X76.558 Y161.761 E22.62559
G1 X76.444 Y160.848 E22.66702
G1 X76.413 Y160.277 E22.69277
G1 X76.404 Y159.944 E22.70777
G1 X76.4 Y159.658 E22.72065
G1 X76.401 Y115.531 E24.70751
G1 X76.41 Y114.866 E24.73745
G1 X76.462 Y113.946 E24.77894
G1 X76.594 Y113.035 E24.82039
G1 X76.805 Y112.139 E24.86183
G1 X77.092 Y111.264 E24.9033
G1 X77.455 Y110.418 E24.94475
G1 X77.889 Y109.606 E24.9862
G1 X78.392 Y108.835 E25.02765
G1 X78.961 Y108.111 E25.06911
G1 X79.589 Y107.439 E25.11053
G1 X80.274 Y106.823 E25.15201
G1 X81.01 Y106.27 E25.19346
G0 F7500 X81.394 Y106.494
G1 F1500 X82.169 Y106.031 E25.23411
G1 X82.982 Y105.638 E25.27477
G1 X83.827 Y105.318 E25.31545
G1 X84.696 Y105.075 E25.35608
G1 X85.584 Y104.909 E25.39675
G1 X86.723 Y104.813 E25.44822
G1 X87.044 Y104.804 E25.46268
G1 X87.33 Y104.8 E25.47556
G1 X147.293 Y104.8 E28.17545
G1 X148.137 Y104.811 E28.21345
G1 X149.039 Y104.864 E28.25413
G1 X149.932 Y104.996 E28.29478
G1 X150.81 Y105.207 E28.33544
G1 X151.666 Y105.495 E28.3761
G1 X152.493 Y105.857 E28.41675
G1 X153.285 Y106.292 E28.45744
G1 X154.036 Y106.794 E28.49811
G1 X154.739 Y107.361 E28.53877
G1 X155.389 Y107.988 E28.57944
G1 X155.981 Y108.67 E28.6201
G1 X156.511 Y109.401 E28.66076
G1 X156.973 Y110.177 E28.70142
G1 X157.366 Y110.99 E28.74208
G1 X157.684 Y111.835 E28.78273
G1 X157.927 Y112.705 E28.8234
G1 X158.092 Y113.593 E28.86407
G1 X158.187 Y114.723 E28.91513
G1 X158.196 Y115.043 E28.92954
G1 X158.2 Y115.33 E28.94247
G1 X158.199 Y159.39 E30.92631
G1 X158.19 Y160.117 E30.95904
G1 X158.139 Y161.019 E30.99972
G1 X158.008 Y161.913 E31.0404
G1 X157.799 Y162.791 E31.08104
G1 X157.513 Y163.648 E31.12172
G1 X157.152 Y164.476 E31.16239
G1 X156.72 Y165.268 E31.20301
G1 X156.219 Y166.02 E31.2437
G1 X155.653 Y166.724 E31.28437
G1 X155.028 Y167.375 E31.325
G1 X154.347 Y167.969 E31.36569
G1 X153.616 Y168.5 E31.40637
G1 X152.842 Y168.964 E31.44701
G1 X152.029 Y169.358 E31.48768
G1 X151.185 Y169.678 E31.52833
G1 X150.315 Y169.923 E31.56902
G1 X149.428 Y170.089 E31.60965
G1 X148.277 Y170.187 E31.66167
G1 X147.956 Y170.196 E31.67612
G1 X147.67 Y170.2 E31.689
G1 X87.707 Y170.2 E34.38889
G1 X86.877 Y170.19 E34.42627
G1 X85.976 Y170.139 E34.4669
G1 X85.082 Y170.007 E34.50759
G1 X84.204 Y169.798 E34.54823
G1 X83.347 Y169.511 E34.58892
G1 X82.52 Y169.15 E34.62955
G1 X81.727 Y168.717 E34.67023
G1 X80.976 Y168.216 E34.71088
G1 X80.272 Y167.65 E34.75155
G1 X79.621 Y167.024 E34.79222
G1 X79.028 Y166.343 E34.83287
G1 X78.498 Y165.612 E34.87353
G1 X78.034 Y164.837 E34.9142
G1 X77.64 Y164.024 E34.95488
G1 X77.32 Y163.18 E34.99552
G1 X77.076 Y162.31 E35.0362
G1 X76.91 Y161.422 E35.07688
G1 X76.813 Y160.267 E35.12907
G1 X76.804 Y159.934 E35.14407
G1 X76.8 Y159.658 E35.1565
G1 X76.801 Y115.536 E37.14313
G1 X76.81 Y114.871 E37.17307
G1 X76.862 Y113.969 E37.21375
G1 X76.994 Y113.076 E37.2544
G1 X77.204 Y112.198 E37.29505
G1 X77.491 Y111.341 E37.33574
G1 X77.853 Y110.514 E37.37639
G1 X78.286 Y109.722 E37.41703
G1 X78.788 Y108.971 E37.4577
G1 X79.355 Y108.267 E37.4984
G1 X79.981 Y107.617 E37.53904
G1 X80.662 Y107.024 E37.5797
G1 X81.394 Y106.494 E37.62039
G1 F2700 E31.62039
;MESH:lost_realms_box.stl
G0 F7500 X131.327 Y124.665
G0 X131.327 Y123.23
G0 X129.4 Y123.4
;TYPE:WALL-INNER
G1 F2700 E37.62039
G1 F1800 X129.4 Y151.6 E38.89012
G1 X138.6 Y151.6 E39.30436
G1 X138.6 Y123.4 E40.57409
G1 X129.4 Y123.4 E40.98832
G0 F7500 X129.8 Y123.8
;TYPE:WALL-OUTER
G1 F1800 X129.8 Y151.2 E42.16035
G1 X138.2 Y151.2 E42.51966
G1 X138.2 Y123.8 E43.69168
G1 X129.8 Y123.8 E44.05099
G0 F7500 X129.8 Y124.2
G0 X129.36 Y124.2
G1 F2700 E38.05099
G0 F7500 X129.21 Y123.4
G0 X130.653 Y124.653
G0 X119.347 Y124.653
G0 X120.79 Y123.4
G0 X111.4 Y123.4
;TYPE:WALL-INNER
G1 F2700 E44.05099
G1 F1800 X111.4 Y151.6 E45.32072
G1 X120.6 Y151.6 E45.73496
G1 X120.6 Y123.4 E47.00469
G1 X111.4 Y123.4 E47.41892
G0 F7500 X111.8 Y123.8
;TYPE:WALL-OUTER
G1 F1800 X111.8 Y151.2 E48.59095
G1 X120.2 Y151.2 E48.95026
G1 X120.2 Y123.8 E50.12228
G1 X111.8 Y123.8 E50.48159
G0 F7500 X111.8 Y124.2
G0 X111.36 Y124.2
G1 F2700 E44.48159
G0 F7500 X111.21 Y123.4
G0 X112.653 Y124.653
G0 X101.347 Y124.653
G0 X102.81 Y123.4
G0 X87.6 Y123.4
;TYPE:WALL-INNER
G1 F2700 E50.48159
G1 F1800 X87.6 Y115.6 E50.83279
G1 X147.4 Y115.6 E53.52534
G1 X147.4 Y159.4 E55.49747
G1 X87.6 Y159.4 E58.19002
G1 X87.6 Y151.6 E58.54122
G1 X102.6 Y151.6 E59.21661
G1 X102.6 Y123.4 E60.48634
G1 X87.6 Y123.4 E61.16173
G0 F7500 X87.8 Y123.8
;TYPE:WALL-OUTER
G1 F1800 X87.8 Y151.2 E62.33376
G1 X102.2 Y151.2 E62.94971
G1 X102.2 Y123.8 E64.12174
G1 X87.8 Y123.8 E64.73769
G0 F7500 X87.8 Y124.2
G1 F2700 E58.73769
G0 F7500 X87.6 Y124.2
G0 X87.37 Y115.37
G0 X87.2 Y115.2
G1 F2700 E64.73769
G1 F1800 X147.8 Y115.2 E67.32983
G1 X147.8 Y159.8 E69.23758
G1 X87.2 Y159.8 E71.82972
G1 X87.2 Y115.2 E73.73747
G0 F7500 X87.6 Y115.2
G0 X87.64 Y115.64
G0 X87.99 Y115.99
;TYPE:SKIN
G1 F1800 X147.01 Y115.99 E76.3949
G1 X147.01 Y159.01 E78.33191
G1 X87.99 Y159.01 E80.98934
G1 X87.99 Y151.99 E81.30542
G1 X102.99 Y151.99 E81.98081
G1 X102.99 Y123.01 E83.28566
G1 X87.99 Y123.01 E83.96105
G1 X87.99 Y115.99 E84.27713
G1 F2700 E78.27713
G0 F7500 X87.99 Y115.71
G0 X111.26 Y115.81
G0 X111.26 Y114.335
G0 X112.653 Y124.653
G0 X111.26 Y123.21
G0 X111.26 Y123.29
G0 X111.01 Y123.01
G1 F2700 E84.27713
G1 F1800 X111.01 Y151.99 E85.58198
G1 X120.99 Y151.99 E86.03134
G1 X120.99 Y123.01 E87.33619
G1 X111.01 Y123.01 E87.78555
G1 F2700 E81.78555
G0 F7500 X111.26 Y123.29
G0 X120.79 Y123.29
G0 X119.347 Y124.653
G0 X130.653 Y124.653
G0 X129.21 Y123.29
G0 X129.01 Y123.01
G1 F2700 E87.78555
G1 F1800 X129.01 Y151.99 E89.0904
G1 X138.99 Y151.99 E89.53976
G1 X138.99 Y123.01 E90.84461
G1 X129.01 Y123.01 E91.29397
G1 F2700 E85.29397
G0 F7500 X129.26 Y123.29
G0 X135.601 Y123.23
G0 X135.601 Y124.665
G0 X148.665 Y123.204
G0 X147.19 Y123.204
G0 X147.29 Y116.302
G0 X146.849 Y116.302
G1 F2700 E91.29397
G1 F1800 X146.697 Y116.15 E91.30365
G0 F7500 X146.131 Y116.15
G1 F1800 X146.849 Y116.868 E91.34937
G0 F7500 X146.849 Y117.434
G1 F1800 X145.565 Y116.15 E91.43113
G0 F7500 X145 Y116.15
G1 F1800 X146.849 Y117.999 E91.54887
G0 F7500 X146.849 Y118.565
G1 F1800 X144.434 Y116.15 E91.70264
G0 F7500 X143.868 Y116.15
G1 F1800 X146.849 Y119.131 E91.89246
G0 F7500 X146.849 Y119.696
G1 F1800 X143.302 Y116.15 E92.11829
G0 F7500 X142.737 Y116.15
G1 F1800 X146.849 Y120.262 E92.38013
G0 F7500 X146.849 Y120.828
G1 F1800 X142.171 Y116.15 E92.67801
G0 F7500 X141.605 Y116.15
G1 F1800 X146.849 Y121.393 E93.01189
G0 F7500 X146.849 Y121.959
G1 F1800 X141.04 Y116.15 E93.38179
G0 F7500 X140.474 Y116.15
G1 F1800 X146.849 Y122.525 E93.78772
G0 F7500 X146.849 Y123.091
G1 F1800 X139.908 Y116.15 E94.2297
G0 F7500 X139.343 Y116.15
G1 F1800 X146.849 Y123.656 E94.70765
G0 F7500 X146.849 Y124.222
G1 F1800 X138.777 Y116.15 E95.22165
G0 F7500 X138.211 Y116.15
G1 F1800 X146.849 Y124.788 E95.77168
G0 F7500 X146.849 Y125.353
G1 F1800 X137.646 Y116.15 E96.3577
G0 F7500 X137.08 Y116.15
G1 F1800 X146.849 Y125.919 E96.97975
G0 F7500 X146.849 Y126.485
G1 F1800 X136.514 Y116.15 E97.63784
G0 F7500 X135.949 Y116.15
G1 F1800 X146.849 Y127.05 E98.33192
G0 F7500 X146.849 Y127.616
G1 F1800 X135.383 Y116.15 E99.06203
G0 F7500 X134.817 Y116.15
G1 F1800 X146.849 Y128.182 E99.82818
G0 F7500 X146.849 Y128.747
G1 F1800 X134.252 Y116.15 E100.63031
G0 F7500 X133.686 Y116.15
G1 F1800 X146.849 Y129.313 E101.46848
G0 F7500 X146.849 Y129.879
G1 F1800 X133.12 Y116.15 E102.34269
G0 F7500 X132.554 Y116.15
G1 F1800 X146.849 Y130.444 E103.25291
G0 F7500 X146.849 Y131.01
G1 F1800 X139.148 Y123.309 E103.74328
G0 F7500 X139.148 Y123.875
G1 F1800 X146.849 Y131.576 E104.23365
G0 F7500 X146.849 Y132.141
G1 F1800 X139.148 Y124.44 E104.72402
G0 F7500 X139.148 Y125.006
G1 F1800 X146.849 Y132.707 E105.21439
G0 F7500 X146.849 Y133.273
G1 F1800 X139.148 Y125.572 E105.70477
G0 F7500 X139.148 Y126.137
G1 F1800 X146.849 Y133.839 E106.19517
G0 F7500 X146.849 Y134.404
G1 F1800 X139.148 Y126.703 E106.68554
G0 F7500 X139.148 Y127.269
G1 F1800 X146.849 Y134.97 E107.17591
G0 F7500 X146.849 Y135.536
G1 F1800 X139.148 Y127.835 E107.66628
G0 F7500 X139.148 Y128.4
G1 F1800 X146.849 Y136.101 E108.15665
G0 F7500 X146.849 Y136.667
G1 F1800 X139.148 Y128.966 E108.64702
G0 F7500 X139.148 Y129.532
G1 F1800 X146.849 Y137.233 E109.13739
G0 F7500 X146.849 Y137.798
G1 F1800 X139.148 Y130.097 E109.62776
G0 F7500 X139.148 Y130.663
G1 F1800 X146.849 Y138.364 E110.11813
G0 F7500 X146.849 Y138.93
G1 F1800 X139.148 Y131.229 E110.60851
G0 F7500 X139.148 Y131.794
G1 F1800 X146.849 Y139.495 E111.09888
G0 F7500 X146.849 Y140.061
G1 F1800 X139.148 Y132.36 E111.58925
G0 F7500 X139.148 Y132.926
G1 F1800 X146.849 Y140.627 E112.07962
G0 F7500 X146.849 Y141.192
G1 F1800 X139.148 Y133.491 E112.56999
G0 F7500 X139.148 Y134.057
G1 F1800 X146.849 Y141.758 E113.06036
G0 F7500 X146.849 Y142.324
G1 F1800 X139.148 Y134.623 E113.55073
G0 F7500 X139.148 Y135.188
G1 F1800 X146.849 Y142.89 E114.04113
G0 F7500 X146.849 Y143.455
G1 F1800 X139.148 Y135.754 E114.5315
G0 F7500 X139.148 Y136.32
G1 F1800 X146.849 Y144.021 E115.02187
G0 F7500 X146.849 Y144.587
G1 F1800 X139.148 Y136.885 E115.51228
G0 F7500 X139.148 Y137.451
G1 F1800 X146.849 Y145.152 E116.00265
G0 F7500 X146.849 Y145.718
G1 F1800 X139.149 Y138.018 E116.49295
G0 F7500 X139.149 Y138.583
G1 F1800 X146.849 Y146.284 E116.98329
G0 F7500 X146.849 Y146.849
G1 F1800 X139.149 Y139.149 E117.4736
G0 F7500 X139.149 Y139.715
G1 F1800 X146.849 Y147.415 E117.96391
G0 F7500 X146.849 Y147.981
G1 F1800 X139.149 Y140.28 E118.45425
G0 F7500 X139.149 Y140.846
G1 F1800 X146.849 Y148.546 E118.94455
G0 F7500 X146.849 Y149.112
G1 F1800 X139.149 Y141.412 E119.43486
G0 F7500 X139.149 Y141.977
G1 F1800 X146.849 Y149.678 E119.9252
G0 F7500 X146.849 Y150.243
G1 F1800 X139.149 Y142.543 E120.41551
G0 F7500 X139.149 Y143.109
G1 F1800 X146.849 Y150.809 E120.90581
G0 F7500 X146.849 Y151.375
G1 F1800 X139.149 Y143.674 E121.39615
G0 F7500 X139.149 Y144.24
G1 F1800 X146.849 Y151.94 E121.88646
G0 F7500 X146.849 Y152.506
