;FLAVOR:Marlin
;TIME:9088
;Filament used: 6.55855m
;Layer height: 0.2
;MINX:72
;MINY:114
;MINZ:0.2
;MAXX:163
;MAXY:181
;MAXZ:33
;Generated with Cura_SteamEngine 4.7.1
M140 S60
M105
M190 S60
M104 S200
M105
M109 S200
M82 ;absolute extrusion mode
; Ender 3 Custom Start G-code
G92 E0 ; Reset Extruder
G28 ; Home all axes
; ***SET NEW E STEP *** (93 is factory value - 95 mine - start)
G90                          ; Force coordinates to be absolute relative to the origin
M92 E95 ;					 ; ***SET NEW E STEP *** (93 is factory value - 95 mine - end)
G90                          ; Force coordinates to be absolute relative to the origin
G28                          ; Home X/Y/Z axis
G92 E0 ; Reset Extruder								
G28 ; Home all axes		
G1 Z2.0 F3000 ; Move Z Axis up little to prevent scratching of Heat Bed
G1 X0.1 Y20 Z0.3 F5000.0 ; Move to start position
G1 X0.1 Y200.0 Z0.3 F1500.0 E15 ; Draw the first line
G1 X0.4 Y200.0 Z0.3 F5000.0 ; Move to side a little
G1 X0.4 Y20 Z0.3 F1500.0 E30 ; Draw the second line
G92 E0 ; Reset Extruder
G1 Z2.0 F3000 ; Move Z Axis up little to prevent scratching of Heat Bed
G1 X5 Y20 Z0.3 F5000.0 ; Move over to prevent blob squish
G92 E0
G92 E0
G1 F2700 E-6
;LAYER_COUNT:165
;LAYER:0
M107
M204 S500
M205 X8 Y8
G0 F7500 X76.626 Y116.051 Z0.2
;TYPE:SKIRT
G1 F2700 E0
G1 F1500 X77.412 Y115.539 E0.02964
G1 X78.239 Y115.097 E0.05927
G1 X79.101 Y114.727 E0.08891
G1 X79.991 Y114.431 E0.11854
G1 X80.903 Y114.213 E0.14817
G1 X81.83 Y114.072 E0.1778
G1 X82.701 Y114.013 E0.20538
G1 X83.022 Y114.004 E0.21553
G1 X83.33 Y114 E0.22526
G1 X151.293 Y114 E2.3727
G1 X151.451 Y114.001 E2.37769
G1 X152.149 Y114.011 E2.39975
G1 X153.085 Y114.065 E2.42937
G1 X154.013 Y114.197 E2.45899
G1 X154.927 Y114.409 E2.48864
G1 X155.819 Y114.698 E2.51826
G1 X156.684 Y115.061 E2.5479
G1 X157.514 Y115.497 E2.57753
G1 X158.305 Y116.002 E2.60718
G1 X159.049 Y116.573 E2.63681
G1 X159.742 Y117.205 E2.66645
G1 X160.379 Y117.893 E2.69608
G1 X160.954 Y118.634 E2.72571
G1 X161.465 Y119.42 E2.75533
G1 X161.907 Y120.248 E2.78499
G1 X162.276 Y121.11 E2.81462
G1 X162.571 Y122 E2.84424
G1 X162.789 Y122.912 E2.87387
G1 X162.929 Y123.84 E2.90353
G1 X162.987 Y124.701 E2.93079
G1 X162.996 Y125.021 E2.94091
G1 X163 Y125.33 E2.95067
G1 X162.999 Y169.4 E4.34316
G1 X162.99 Y170.127 E4.36613
G1 X162.939 Y171.064 E4.39578
G1 X162.807 Y171.992 E4.4254
G1 X162.598 Y172.906 E4.45502
G1 X162.311 Y173.799 E4.48466
G1 X161.949 Y174.665 E4.51432
G1 X161.515 Y175.496 E4.54394
G1 X161.011 Y176.287 E4.57358
G1 X160.442 Y177.032 E4.6032
G1 X159.811 Y177.727 E4.63286
G1 X159.124 Y178.365 E4.66248
G1 X158.385 Y178.942 E4.69211
G1 X157.599 Y179.454 E4.72175
G1 X156.773 Y179.897 E4.75136
G1 X155.911 Y180.269 E4.78103
G1 X155.022 Y180.565 E4.81063
G1 X154.11 Y180.785 E4.84028
G1 X153.183 Y180.926 E4.8699
G1 X152.299 Y180.987 E4.8979
G1 X151.978 Y180.996 E4.90805
G1 X151.67 Y181 E4.91778
G1 X83.707 Y181 E7.06522
G1 X82.867 Y180.99 E7.09176
G1 X81.931 Y180.938 E7.12138
G1 X81.002 Y180.806 E7.15103
G1 X80.088 Y180.596 E7.18066
G1 X79.195 Y180.309 E7.2103
G1 X78.33 Y179.946 E7.23994
G1 X77.499 Y179.512 E7.26956
G1 X76.708 Y179.008 E7.2992
G1 X75.963 Y178.438 E7.32884
G1 X75.269 Y177.807 E7.35847
G1 X74.632 Y177.12 E7.38808
G1 X74.055 Y176.38 E7.41773
G1 X73.543 Y175.594 E7.44737
G1 X73.1 Y174.767 E7.47701
G1 X72.729 Y173.906 E7.50663
G1 X72.433 Y173.016 E7.53627
G1 X72.214 Y172.104 E7.56591
G1 X72.073 Y171.177 E7.59553
G1 X72.013 Y170.288 E7.62369
G1 X72.004 Y169.955 E7.63421
G1 X72 Y169.658 E7.6436
G1 X72.001 Y125.525 E9.03807
G1 X72.01 Y124.86 E9.05909
G1 X72.063 Y123.924 E9.08871
G1 X72.195 Y122.995 E9.11836
G1 X72.406 Y122.081 E9.148
G1 X72.694 Y121.189 E9.17762
G1 X73.057 Y120.324 E9.20726
G1 X73.492 Y119.493 E9.23689
G1 X73.996 Y118.703 E9.2665
G1 X74.566 Y117.958 E9.29614
G1 X75.198 Y117.264 E9.3258
G1 X75.886 Y116.627 E9.35543
G1 X76.626 Y116.051 E9.38506
G0 F7500 X77.01 Y116.27
G1 F1500 X77.791 Y115.782 E9.41415
G1 X78.611 Y115.364 E9.44324
G1 X79.465 Y115.019 E9.47234
G1 X80.345 Y114.749 E9.50142
G1 X81.245 Y114.557 E9.5305
G1 X82.159 Y114.443 E9.5596
G1 X82.712 Y114.413 E9.5771
G1 X83.033 Y114.404 E9.58725
G1 X83.33 Y114.4 E9.59664
G1 X151.293 Y114.4 E11.74407
G1 X152.143 Y114.411 E11.77093
G1 X153.062 Y114.464 E11.80002
G1 X153.973 Y114.597 E11.82911
G1 X154.869 Y114.808 E11.85819
G1 X155.743 Y115.096 E11.88727
G1 X156.59 Y115.459 E11.91639
G1 X157.401 Y115.894 E11.94546
G1 X158.171 Y116.398 E11.97454
G1 X158.895 Y116.967 E12.00364
G1 X159.567 Y117.597 E12.03274
G1 X160.182 Y118.282 E12.06183
G1 X160.735 Y119.018 E12.09092
G1 X161.222 Y119.799 E12.12
G1 X161.639 Y120.62 E12.1491
G1 X161.984 Y121.474 E12.1782
G1 X162.253 Y122.354 E12.20728
G1 X162.445 Y123.255 E12.23638
G1 X162.558 Y124.168 E12.26545
G1 X162.587 Y124.712 E12.28266
G1 X162.596 Y125.032 E12.29278
G1 X162.6 Y125.33 E12.3022
G1 X162.599 Y169.395 E13.69452
G1 X162.59 Y170.122 E13.7175
G1 X162.539 Y171.041 E13.74658
G1 X162.408 Y171.953 E13.77569
G1 X162.198 Y172.849 E13.80477
G1 X161.912 Y173.724 E13.83386
G1 X161.551 Y174.571 E13.86295
G1 X161.117 Y175.383 E13.89204
G1 X160.615 Y176.155 E13.92114
G1 X160.047 Y176.88 E13.95024
G1 X159.419 Y177.553 E13.97932
G1 X158.735 Y178.169 E14.00841
G1 X158 Y178.723 E14.03749
G1 X157.22 Y179.212 E14.06658
G1 X156.4 Y179.631 E14.09568
G1 X155.547 Y179.977 E14.12476
G1 X154.667 Y180.248 E14.15385
G1 X153.767 Y180.441 E14.18294
G1 X152.853 Y180.556 E14.21205
G1 X152.288 Y180.587 E14.22993
G1 X151.967 Y180.596 E14.24007
G1 X151.67 Y180.6 E14.24946
G1 X83.707 Y180.6 E16.39689
G1 X82.872 Y180.59 E16.42328
G1 X81.953 Y180.538 E16.45236
G1 X81.042 Y180.407 E16.48144
G1 X80.146 Y180.197 E16.51052
G1 X79.271 Y179.91 E16.53962
G1 X78.424 Y179.548 E16.56872
G1 X77.612 Y179.114 E16.59781
G1 X76.841 Y178.612 E16.62689
G1 X76.116 Y178.044 E16.65599
G1 X75.443 Y177.415 E16.68509
G1 X74.828 Y176.731 E16.71416
G1 X74.274 Y175.996 E16.74324
G1 X73.786 Y175.215 E16.77234
G1 X73.367 Y174.395 E16.80143
G1 X73.021 Y173.542 E16.83052
G1 X72.751 Y172.662 E16.8596
G1 X72.558 Y171.761 E16.88872
G1 X72.444 Y170.848 E16.91779
G1 X72.413 Y170.277 E16.93586
G1 X72.404 Y169.944 E16.94638
G1 X72.4 Y169.658 E16.95542
G1 X72.401 Y125.531 E18.34971
G1 X72.41 Y124.866 E18.37072
G1 X72.462 Y123.946 E18.39984
G1 X72.594 Y123.035 E18.42892
G1 X72.805 Y122.139 E18.45801
G1 X73.092 Y121.264 E18.48711
G1 X73.455 Y120.418 E18.51619
G1 X73.889 Y119.606 E18.54529
G1 X74.392 Y118.835 E18.57437
G1 X74.961 Y118.111 E18.60347
G1 X75.589 Y117.439 E18.63253
G1 X76.274 Y116.823 E18.66164
G1 X77.01 Y116.27 E18.69073
G0 F7500 X77.394 Y116.494
G1 F1500 X78.169 Y116.031 E18.71925
G1 X78.982 Y115.638 E18.74779
G1 X79.827 Y115.318 E18.77634
G1 X80.696 Y115.075 E18.80485
G1 X81.584 Y114.909 E18.83339
G1 X82.723 Y114.813 E18.86951
G1 X83.044 Y114.804 E18.87965
G1 X83.33 Y114.8 E18.88869
G1 X151.293 Y114.8 E21.03613
G1 X152.137 Y114.811 E21.0628
G1 X153.039 Y114.864 E21.09135
G1 X153.932 Y114.996 E21.11987
G1 X154.81 Y115.207 E21.1484
G1 X155.666 Y115.495 E21.17694
G1 X156.493 Y115.857 E21.20546
G1 X157.285 Y116.292 E21.23402
G1 X158.036 Y116.794 E21.26256
G1 X158.739 Y117.361 E21.29109
G1 X159.389 Y117.988 E21.31963
G1 X159.981 Y118.67 E21.34817
G1 X160.511 Y119.401 E21.3767
G1 X160.973 Y120.177 E21.40523
G1 X161.366 Y120.99 E21.43376
G1 X161.684 Y121.835 E21.46229
G1 X161.927 Y122.705 E21.49083
G1 X162.092 Y123.593 E21.51937
G1 X162.187 Y124.723 E21.5552
G1 X162.196 Y125.043 E21.56532
G1 X162.2 Y125.33 E21.57439
G1 X162.199 Y169.39 E22.96656
G1 X162.19 Y170.117 E22.98953
G1 X162.139 Y171.019 E23.01808
G1 X162.008 Y171.913 E23.04663
G1 X161.799 Y172.791 E23.07514
G1 X161.513 Y173.648 E23.10369
G1 X161.152 Y174.476 E23.13223
G1 X160.72 Y175.268 E23.16074
G1 X160.219 Y176.02 E23.18929
G1 X159.653 Y176.724 E23.21783
G1 X159.028 Y177.375 E23.24634
G1 X158.347 Y177.969 E23.2749
G1 X157.616 Y178.5 E23.30345
G1 X156.842 Y178.964 E23.33196
G1 X156.029 Y179.358 E23.36051
G1 X155.185 Y179.678 E23.38903
G1 X154.315 Y179.923 E23.41758
G1 X153.428 Y180.089 E23.4461
G1 X152.277 Y180.187 E23.4826
G1 X151.956 Y180.196 E23.49274
G1 X151.67 Y180.2 E23.50178
G1 X83.707 Y180.2 E25.64922
G1 X82.877 Y180.19 E25.67545
G1 X81.976 Y180.139 E25.70396
G1 X81.082 Y180.007 E25.73251
G1 X80.204 Y179.798 E25.76103
G1 X79.347 Y179.511 E25.78959
G1 X78.52 Y179.15 E25.8181
G1 X77.727 Y178.717 E25.84665
G1 X76.976 Y178.216 E25.87517
G1 X76.272 Y177.65 E25.90372
G1 X75.621 Y177.024 E25.93225
G1 X75.028 Y176.343 E25.96078
G1 X74.498 Y175.612 E25.98931
G1 X74.034 Y174.837 E26.01786
G1 X73.64 Y174.024 E26.0464
G1 X73.32 Y173.18 E26.07492
G1 X73.076 Y172.31 E26.10347
G1 X72.91 Y171.422 E26.13202
G1 X72.813 Y170.267 E26.16864
G1 X72.804 Y169.934 E26.17917
G1 X72.8 Y169.658 E26.18789
G1 X72.801 Y125.536 E27.58202
G1 X72.81 Y124.871 E27.60303
G1 X72.862 Y123.969 E27.63158
G1 X72.994 Y123.076 E27.6601
G1 X73.204 Y122.198 E27.68863
G1 X73.491 Y121.341 E27.71718
G1 X73.853 Y120.514 E27.74571
G1 X74.286 Y119.722 E27.77423
G1 X74.788 Y118.971 E27.80277
G1 X75.355 Y118.267 E27.83133
G1 X75.981 Y117.617 E27.85985
G1 X76.662 Y117.024 E27.88838
G1 X77.394 Y116.494 E27.91693
G1 F2700 E21.91693
;MESH:highlands_box.stl
G0 F7500 X140.665 Y136.166
G0 X139.23 Y136.166
G0 X139.4 Y133.4
;TYPE:WALL-INNER
G1 F2700 E27.91693
G1 F1500 X139.4 Y161.6 E28.80797
G1 X142.6 Y161.6 E28.90908
G1 X142.6 Y133.4 E29.80012
G1 X139.4 Y133.4 E29.90123
G0 F7500 X139.8 Y133.8
;TYPE:WALL-OUTER
G1 F1500 X139.8 Y161.2 E30.72371
G1 X142.2 Y161.2 E30.79575
G1 X142.2 Y133.8 E31.61822
G1 X139.8 Y133.8 E31.69026
G0 F7500 X139.8 Y134.2
G0 X139.36 Y134.2
G1 F2700 E25.69026
G0 F7500 X139.21 Y133.4
G0 X140.653 Y134.653
G0 X129.347 Y134.653
G0 X130.81 Y133.4
G0 X83.6 Y133.4
;TYPE:WALL-INNER
G1 F2700 E31.69026
G1 F1500 X83.6 Y125.6 E31.93672
G1 X151.4 Y125.6 E34.07901
G1 X151.4 Y169.4 E35.46296
G1 X83.6 Y169.4 E37.60525
G1 X83.6 Y161.6 E37.8517
G1 X130.6 Y161.6 E39.33677
G1 X130.6 Y133.4 E40.22781
G1 X83.6 Y133.4 E41.71287
G0 F7500 X83.8 Y133.8
;TYPE:WALL-OUTER
G1 F1500 X83.8 Y161.2 E42.53534
G1 X130.2 Y161.2 E43.92815
G1 X130.2 Y133.8 E44.75062
G1 X83.8 Y133.8 E46.14342
G0 F7500 X83.8 Y134.2
G1 F2700 E40.14342
G0 F7500 X83.6 Y134.2
G0 X83.37 Y125.37
G0 X83.2 Y125.2
G1 F2700 E46.14342
G1 F1500 X151.8 Y125.2 E48.20261
G1 X151.8 Y169.8 E49.54138
G1 X83.2 Y169.8 E51.60056
G1 X83.2 Y125.2 E52.93933
G0 F7500 X83.6 Y125.2
G0 X83.64 Y125.64
G0 X83.99 Y125.99
;TYPE:SKIN
G1 F1500 X151.01 Y125.99 E55.05697
G1 X151.01 Y169.01 E56.41628
G1 X83.99 Y169.01 E58.53392
G1 X83.99 Y161.99 E58.75573
G1 X130.99 Y161.99 E60.2408
G1 X130.99 Y133.01 E61.15648
G1 X83.99 Y133.01 E62.64155
G1 X83.99 Y125.99 E62.86336
G1 F2700 E56.86336
G0 F7500 X83.99 Y125.71
G0 X139.26 Y125.81
G0 X139.26 Y124.335
G0 X140.653 Y134.653
G0 X139.26 Y133.21
G0 X139.26 Y133.29
G0 X139.01 Y133.01
G1 F2700 E62.86336
G1 F1500 X139.01 Y161.99 E63.77904
G1 X142.99 Y161.99 E63.9048
G1 X142.99 Y133.01 E64.82048
G1 X139.01 Y133.01 E64.94624
G1 F2700 E58.94624
G0 F7500 X139.26 Y133.29
G0 X142.328 Y133.672
G0 X142.77 Y135.327
G0 X141.335 Y135.327
G0 X152.665 Y133.204
G0 X151.19 Y133.204
G0 X151.29 Y126.525
G0 X150.849 Y126.525
G1 F2700 E64.94624
G1 F1500 X150.474 Y126.149 E64.96302
G0 F7500 X149.908 Y126.149
G1 F1500 X150.849 Y127.091 E65.00509
G0 F7500 X150.849 Y127.656
G1 F1500 X149.343 Y126.149 E65.07241
G0 F7500 X148.777 Y126.149
G1 F1500 X150.849 Y128.222 E65.16502
G0 F7500 X150.849 Y128.788
G1 F1500 X148.211 Y126.149 E65.28292
G0 F7500 X147.646 Y126.149
G1 F1500 X150.849 Y129.353 E65.42607
G0 F7500 X150.849 Y129.919
G1 F1500 X147.08 Y126.149 E65.59451
G0 F7500 X146.514 Y126.149
G1 F1500 X150.849 Y130.485 E65.78824
G0 F7500 X150.849 Y131.05
G1 F1500 X145.948 Y126.149 E66.00724
G0 F7500 X145.383 Y126.149
G1 F1500 X150.849 Y131.616 E66.25151
G0 F7500 X150.849 Y132.182
G1 F1500 X144.817 Y126.149 E66.52108
G0 F7500 X144.251 Y126.149
G1 F1500 X150.849 Y132.747 E66.81591
G0 F7500 X150.849 Y133.313
G1 F1500 X143.686 Y126.149 E67.13601
G0 F7500 X143.12 Y126.149
G1 F1500 X150.849 Y133.879 E67.4814
G0 F7500 X150.849 Y134.445
G1 F1500 X142.554 Y126.149 E67.85209
G0 F7500 X141.989 Y126.149
G1 F1500 X150.849 Y135.01 E68.24802
G0 F7500 X150.849 Y135.576
G1 F1500 X141.423 Y126.149 E68.66925
G0 F7500 X140.857 Y126.149
G1 F1500 X150.849 Y136.142 E69.11576
G0 F7500 X150.849 Y136.707
G1 F1500 X140.292 Y126.149 E69.58752
G0 F7500 X139.726 Y126.149
G1 F1500 X150.849 Y137.273 E70.08458
G0 F7500 X150.849 Y137.839
G1 F1500 X139.16 Y126.149 E70.60692
G0 F7500 X138.595 Y126.149
G1 F1500 X150.849 Y138.404 E71.15452
G0 F7500 X150.849 Y138.97
G1 F1500 X138.029 Y126.149 E71.7274
G0 F7500 X137.463 Y126.149
G1 F1500 X150.849 Y139.536 E72.32558
G0 F7500 X150.849 Y140.101
G1 F1500 X136.897 Y126.149 E72.94903
G0 F7500 X136.332 Y126.149
G1 F1500 X143.032 Y132.849 E73.24842
G0 F7500 X143.149 Y132.967
G1 F1500 X150.849 Y140.667 E73.59249
G0 F7500 X150.849 Y141.233
G1 F1500 X143.149 Y133.532 E73.93659
G0 F7500 X143.149 Y134.098
G1 F1500 X150.849 Y141.798 E74.28066
G0 F7500 X150.849 Y142.364
G1 F1500 X143.149 Y134.664 E74.62474
G0 F7500 X143.149 Y135.229
G1 F1500 X150.849 Y142.93 E74.96884
G0 F7500 X150.849 Y143.496
G1 F1500 X143.149 Y135.795 E75.31293
G0 F7500 X143.149 Y136.361
G1 F1500 X150.849 Y144.061 E75.65701
G0 F7500 X150.849 Y144.627
G1 F1500 X143.149 Y136.926 E76.00111
G0 F7500 X143.149 Y137.492
G1 F1500 X150.849 Y145.193 E76.3452
G0 F7500 X150.849 Y145.758
G1 F1500 X143.149 Y138.058 E76.68928
G0 F7500 X143.149 Y138.624
G1 F1500 X150.849 Y146.324 E77.03336
G0 F7500 X150.849 Y146.89
G1 F1500 X143.149 Y139.189 E77.37745
G0 F7500 X143.149 Y139.755
G1 F1500 X150.849 Y147.455 E77.72153
G0 F7500 X150.85 Y148.022
G1 F1500 X143.149 Y140.321 E78.06565
G0 F7500 X143.149 Y140.886
G1 F1500 X150.85 Y148.587 E78.40977
G0 F7500 X150.85 Y149.153
G1 F1500 X143.149 Y141.452 E78.75389
G0 F7500 X143.149 Y142.018
G1 F1500 X150.85 Y149.719 E79.09801
G0 F7500 X150.85 Y150.284
G1 F1500 X143.149 Y142.583 E79.44213
G0 F7500 X143.149 Y143.149
G1 F1500 X150.85 Y150.85 E79.78625
G0 F7500 X150.85 Y151.416
G1 F1500 X143.149 Y143.715 E80.13037
G0 F7500 X143.149 Y144.28
G1 F1500 X150.85 Y151.981 E80.47449
G0 F7500 X150.85 Y152.547
G1 F1500 X143.149 Y144.846 E80.81861
G0 F7500 X143.149 Y145.412
G1 F1500 X150.85 Y153.113 E81.16273
G0 F7500 X150.85 Y153.679
G1 F1500 X143.149 Y145.977 E81.50687
G0 F7500 X143.149 Y146.543
G1 F1500 X150.85 Y154.244 E81.85099
G0 F7500 X150.85 Y154.81
G1 F1500 X143.149 Y147.109 E82.19511
G0 F7500 X143.149 Y147.675
G1 F1500 X150.85 Y155.376 E82.53923
G0 F7500 X150.85 Y155.941
G1 F1500 X143.149 Y148.24 E82.88335
G0 F7500 X143.149 Y148.806
G1 F1500 X150.85 Y156.507 E83.22747
G0 F7500 X150.85 Y157.073
G1 F1500 X143.149 Y149.372 E83.57159
G0 F7500 X143.149 Y149.937
G1 F1500 X150.85 Y157.638 E83.91571
G0 F7500 X150.85 Y158.204
G1 F1500 X143.149 Y150.503 E84.25983
G0 F7500 X143.149 Y151.069
G1 F1500 X150.85 Y158.77 E84.60395
G0 F7500 X150.85 Y159.335
G1 F1500 X143.149 Y151.634 E84.94807
G0 F7500 X143.149 Y152.2
G1 F1500 X150.85 Y159.901 E85.29219
G0 F7500 X150.85 Y160.467
G1 F1500 X143.149 Y152.766 E85.63631
G0 F7500 X143.149 Y153.331
G1 F1500 X150.85 Y161.032 E85.98043
G0 F7500 X150.85 Y161.598
G1 F1500 X143.149 Y153.897 E86.32455
G0 F7500 X143.149 Y154.463
G1 F1500 X150.85 Y162.164 E86.66867
G0 F7500 X150.85 Y162.73
G1 F1500 X143.149 Y155.028 E87.01281
G0 F7500 X143.149 Y155.594
G1 F1500 X150.85 Y163.295 E87.35693
G0 F7500 X150.85 Y163.861
G1 F1500 X143.149 Y156.16 E87.70105
G0 F7500 X143.149 Y156.725
G1 F1500 X150.85 Y164.427 E88.04519
G0 F7500 X150.85 Y164.992
G1 F1500 X143.149 Y157.291 E88.38931
G0 F7500 X143.149 Y157.857
G1 F1500 X150.85 Y165.558 E88.73343
G0 F7500 X150.85 Y166.124
G1 F1500 X143.149 Y158.423 E89.07755
G0 F7500 X143.149 Y158.988
G1 F1500 X150.85 Y166.689 E89.42167
G0 F7500 X150.85 Y167.255
G1 F1500 X143.149 Y159.554 E89.76579
G0 F7500 X143.149 Y160.12
G1 F1500 X150.85 Y167.821 E90.10991
G0 F7500 X150.85 Y168.386
G1 F1500 X143.149 Y160.685 E90.45403
G0 F7500 X143.149 Y161.251
G1 F1500 X150.747 Y168.849 E90.79355
G0 F7500 X150.181 Y168.849
