;FLAVOR:Marlin
;TIME:643
;Filament used: 0.205901m
;Layer height: 0.2
;MINX:1.5
;MINY:10.5
;MINZ:0.2
;MAXX:150.075
;MAXY:164.494
;MAXZ:34
;Generated with Cura_SteamEngine 4.7.1
M140 S60
M105
M190 S60
M104 S200
M105
M109 S200
M82 ;absolute extrusion mode
; Ender 3 Custom Start G-code
G92 E0 ; Reset Extruder
G28 ; Home all axes
; ***SET NEW E STEP *** (93 is factory value - 95 mine - start)
G90                          ; Force coordinates to be absolute relative to the origin
M92 E95 ;					 ; ***SET NEW E STEP *** (93 is factory value - 95 mine - end)
G90                          ; Force coordinates to be absolute relative to the origin
G28                          ; Home X/Y/Z axis
G92 E0 ; Reset Extruder								
G28 ; Home all axes		
G1 Z2.0 F3000 ; Move Z Axis up little to prevent scratching of Heat Bed
G1 X0.1 Y20 Z0.3 F5000.0 ; Move to start position
G92 E0 ; Reset Extruder
G1 Z2.0 F3000 ; Move Z Axis up little to prevent scratching of Heat Bed
G1 X5 Y20 Z0.3 F5000.0 ; Move over to prevent blob squish
G92 E0
G92 E0
G1 F2700 E-6
;LAYER_COUNT:170
;LAYER:0
M107
M204 S500
M205 X8 Y8
G0 F7500 X6.912 Y12.039 Z0.2
;TYPE:SKIRT
G1 F2700 E0
G1 F1500 X7.739 Y11.597 E0.02963
G1 X8.601 Y11.227 E0.05927
G1 X9.491 Y10.931 E0.0889
G1 X10.403 Y10.713 E0.11853
G1 X11.33 Y10.572 E0.14816
G1 X12.201 Y10.513 E0.17574
G1 X12.522 Y10.504 E0.18589
G1 X12.83 Y10.5 E0.19562
G1 X131.793 Y10.5 E3.95451
G1 X131.951 Y10.501 E3.95951
G1 X132.649 Y10.511 E3.98156
G1 X133.585 Y10.565 E4.01119
G1 X134.513 Y10.697 E4.0408
G1 X135.427 Y10.909 E4.07045
G1 X136.319 Y11.198 E4.10008
G1 X137.184 Y11.561 E4.12972
G1 X138.014 Y11.997 E4.15934
G1 X138.805 Y12.502 E4.18899
G1 X139.549 Y13.073 E4.21863
G1 X140.242 Y13.705 E4.24826
G1 X140.879 Y14.393 E4.27789
G1 X141.454 Y15.134 E4.30752
G1 X141.965 Y15.92 E4.33715
G1 X142.407 Y16.748 E4.3668
G1 X142.776 Y17.61 E4.39643
G1 X143.071 Y18.5 E4.42606
G1 X143.289 Y19.412 E4.45569
G1 X143.429 Y20.34 E4.48534
G1 X143.487 Y21.201 E4.51261
G1 X143.496 Y21.521 E4.52272
G1 X143.5 Y21.83 E4.53249
G1 X143.499 Y22.897 E4.5662
G1 X143.49 Y23.627 E4.58927
G1 X143.439 Y24.563 E4.61889
G1 X143.308 Y25.492 E4.64853
G1 X143.098 Y26.406 E4.67816
G1 X142.811 Y27.299 E4.7078
G1 X142.449 Y28.164 E4.73743
G1 X142.015 Y28.995 E4.76705
G1 X141.511 Y29.787 E4.79671
G1 X140.942 Y30.532 E4.82633
G1 X140.312 Y31.226 E4.85595
G1 X139.624 Y31.864 E4.8856
G1 X138.885 Y32.442 E4.91524
G1 X138.1 Y32.954 E4.94485
G1 X137.273 Y33.397 E4.9745
G1 X136.412 Y33.769 E5.00413
G1 X135.522 Y34.065 E5.03377
G1 X134.61 Y34.285 E5.06341
G1 X133.683 Y34.426 E5.09304
G1 X132.799 Y34.487 E5.12104
G1 X132.478 Y34.496 E5.13119
G1 X132.17 Y34.5 E5.14092
G1 X13.207 Y34.5 E8.89981
G1 X12.367 Y34.49 E8.92635
G1 X11.431 Y34.438 E8.95597
G1 X10.502 Y34.306 E8.98562
G1 X9.588 Y34.096 E9.01525
G1 X8.695 Y33.809 E9.04489
G1 X7.83 Y33.446 E9.07453
G1 X6.999 Y33.012 E9.10415
G1 X6.208 Y32.508 E9.13379
G1 X5.463 Y31.938 E9.16343
G1 X4.769 Y31.307 E9.19307
G1 X4.132 Y30.62 E9.22267
G1 X3.555 Y29.88 E9.25232
G1 X3.043 Y29.094 E9.28196
G1 X2.6 Y28.267 E9.3116
G1 X2.229 Y27.406 E9.34122
G1 X1.933 Y26.516 E9.37086
G1 X1.714 Y25.604 E9.4005
G1 X1.573 Y24.677 E9.43012
G1 X1.513 Y23.788 E9.45828
G1 X1.504 Y23.455 E9.4688
G1 X1.5 Y23.158 E9.47819
G1 X1.501 Y22.025 E9.51399
G1 X1.51 Y21.36 E9.535
G1 X1.563 Y20.424 E9.56462
G1 X1.695 Y19.495 E9.59427
G1 X1.906 Y18.581 E9.62391
G1 X2.194 Y17.689 E9.65353
G1 X2.557 Y16.824 E9.68317
G1 X2.992 Y15.993 E9.71281
G1 X3.496 Y15.203 E9.74242
G1 X4.066 Y14.458 E9.77206
G1 X4.698 Y13.764 E9.80171
G1 X5.386 Y13.127 E9.83134
G1 X6.126 Y12.551 E9.86097
G1 X6.912 Y12.039 E9.89061
G0 F7500 X7.291 Y12.282
G1 F1500 X8.111 Y11.864 E9.91969
G1 X8.965 Y11.519 E9.94879
G1 X9.845 Y11.249 E9.97788
G1 X10.745 Y11.057 E10.00696
G1 X11.659 Y10.943 E10.03606
G1 X12.212 Y10.913 E10.05356
G1 X12.533 Y10.904 E10.06371
G1 X12.83 Y10.9 E10.07309
G1 X131.793 Y10.9 E13.83198
G1 X132.643 Y10.911 E13.85884
G1 X133.562 Y10.964 E13.88793
G1 X134.473 Y11.097 E13.91702
G1 X135.369 Y11.308 E13.9461
G1 X136.243 Y11.596 E13.97518
G1 X137.09 Y11.959 E14.0043
G1 X137.901 Y12.394 E14.03337
G1 X138.671 Y12.898 E14.06245
G1 X139.395 Y13.467 E14.09155
G1 X140.067 Y14.097 E14.12065
G1 X140.682 Y14.782 E14.14974
G1 X141.235 Y15.518 E14.17883
G1 X141.722 Y16.299 E14.20791
G1 X142.139 Y17.12 E14.23701
G1 X142.484 Y17.974 E14.26611
G1 X142.753 Y18.854 E14.29518
G1 X142.945 Y19.755 E14.32429
G1 X143.058 Y20.668 E14.35336
G1 X143.087 Y21.212 E14.37057
G1 X143.096 Y21.532 E14.38069
G1 X143.1 Y21.83 E14.39011
G1 X143.099 Y22.892 E14.42366
G1 X143.09 Y23.622 E14.44673
G1 X143.039 Y24.541 E14.47581
G1 X142.908 Y25.452 E14.50489
G1 X142.699 Y26.349 E14.534
G1 X142.412 Y27.224 E14.56309
G1 X142.051 Y28.07 E14.59216
G1 X141.617 Y28.883 E14.62127
G1 X141.115 Y29.654 E14.65034
G1 X140.548 Y30.379 E14.67943
G1 X139.92 Y31.052 E14.70851
G1 X139.235 Y31.669 E14.73764
G1 X138.5 Y32.223 E14.76672
G1 X137.72 Y32.711 E14.79579
G1 X136.9 Y33.13 E14.82489
G1 X136.047 Y33.477 E14.85399
G1 X135.167 Y33.748 E14.88308
G1 X134.267 Y33.941 E14.91217
G1 X133.354 Y34.056 E14.94124
G1 X132.788 Y34.087 E14.95915
G1 X132.467 Y34.096 E14.9693
G1 X132.17 Y34.1 E14.97868
G1 X13.207 Y34.1 E18.73757
G1 X12.372 Y34.09 E18.76396
G1 X11.453 Y34.038 E18.79304
G1 X10.542 Y33.907 E18.82212
G1 X9.646 Y33.697 E18.8512
G1 X8.771 Y33.41 E18.8803
G1 X7.924 Y33.048 E18.9094
G1 X7.112 Y32.614 E18.9385
G1 X6.341 Y32.112 E18.96757
G1 X5.616 Y31.544 E18.99667
G1 X4.943 Y30.915 E19.02577
G1 X4.328 Y30.231 E19.05484
G1 X3.774 Y29.496 E19.08392
G1 X3.286 Y28.715 E19.11302
G1 X2.867 Y27.895 E19.14211
G1 X2.521 Y27.042 E19.1712
G1 X2.251 Y26.162 E19.20028
G1 X2.058 Y25.261 E19.2294
G1 X1.944 Y24.348 E19.25847
G1 X1.913 Y23.777 E19.27654
G1 X1.904 Y23.444 E19.28707
G1 X1.9 Y23.158 E19.2961
G1 X1.901 Y22.031 E19.33171
G1 X1.91 Y21.366 E19.35273
G1 X1.962 Y20.446 E19.38184
G1 X2.094 Y19.535 E19.41093
G1 X2.305 Y18.639 E19.44001
G1 X2.592 Y17.764 E19.46911
G1 X2.955 Y16.918 E19.4982
G1 X3.389 Y16.106 E19.52729
G1 X3.892 Y15.335 E19.55638
G1 X4.461 Y14.611 E19.58547
G1 X5.089 Y13.939 E19.61454
G1 X5.774 Y13.323 E19.64364
G1 X6.51 Y12.77 E19.67273
G1 X7.291 Y12.282 E19.70183
G0 F7500 X7.669 Y12.531
G1 F1500 X8.482 Y12.138 E19.73036
G1 X9.327 Y11.818 E19.75891
G1 X10.196 Y11.575 E19.78742
G1 X11.084 Y11.409 E19.81597
G1 X12.223 Y11.313 E19.85209
G1 X12.544 Y11.304 E19.86223
G1 X12.83 Y11.3 E19.87127
G1 X131.793 Y11.3 E23.63016
G1 X132.637 Y11.311 E23.65683
G1 X133.539 Y11.364 E23.68538
G1 X134.432 Y11.496 E23.7139
G1 X135.31 Y11.707 E23.74243
G1 X136.166 Y11.995 E23.77097
G1 X136.993 Y12.357 E23.7995
G1 X137.785 Y12.792 E23.82805
G1 X138.536 Y13.294 E23.85659
G1 X139.239 Y13.861 E23.88513
G1 X139.889 Y14.488 E23.91366
G1 X140.481 Y15.17 E23.9422
G1 X141.011 Y15.901 E23.97073
G1 X141.473 Y16.677 E23.99926
G1 X141.866 Y17.49 E24.0278
G1 X142.184 Y18.335 E24.05632
G1 X142.427 Y19.205 E24.08487
G1 X142.592 Y20.093 E24.1134
G1 X142.687 Y21.223 E24.14923
G1 X142.696 Y21.543 E24.15935
G1 X142.7 Y21.83 E24.16842
G1 X142.699 Y22.887 E24.20182
G1 X142.69 Y23.617 E24.22488
G1 X142.639 Y24.518 E24.2534
G1 X142.508 Y25.412 E24.28195
G1 X142.299 Y26.291 E24.3105
G1 X142.013 Y27.147 E24.33901
G1 X141.652 Y27.975 E24.36755
G1 X141.22 Y28.768 E24.39609
G1 X140.719 Y29.519 E24.42461
G1 X140.154 Y30.223 E24.45314
G1 X139.528 Y30.875 E24.4817
G1 X138.847 Y31.468 E24.51023
G1 X138.117 Y31.999 E24.53875
G1 X137.342 Y32.464 E24.56731
G1 X136.529 Y32.857 E24.59584
G1 X135.685 Y33.178 E24.62437
G1 X134.816 Y33.423 E24.6529
G1 X133.928 Y33.589 E24.68144
G1 X132.777 Y33.687 E24.71794
G1 X132.456 Y33.696 E24.72809
G1 X132.17 Y33.7 E24.73713
G1 X13.207 Y33.7 E28.49602
G1 X12.377 Y33.69 E28.52224
G1 X11.476 Y33.639 E28.55076
G1 X10.582 Y33.507 E28.57931
G1 X9.704 Y33.298 E28.60783
G1 X8.847 Y33.011 E28.63639
G1 X8.02 Y32.65 E28.6649
G1 X7.227 Y32.217 E28.69345
G1 X6.476 Y31.716 E28.72197
G1 X5.772 Y31.15 E28.75052
G1 X5.121 Y30.524 E28.77905
G1 X4.528 Y29.843 E28.80758
G1 X3.998 Y29.112 E28.83611
G1 X3.534 Y28.337 E28.86466
G1 X3.14 Y27.524 E28.8932
G1 X2.82 Y26.68 E28.92172
G1 X2.576 Y25.81 E28.95027
G1 X2.41 Y24.922 E28.97882
G1 X2.313 Y23.767 E29.01544
G1 X2.304 Y23.434 E29.02597
G1 X2.3 Y23.158 E29.03469
G1 X2.301 Y22.036 E29.07014
G1 X2.31 Y21.371 E29.09115
G1 X2.362 Y20.469 E29.1197
G1 X2.494 Y19.576 E29.14822
G1 X2.704 Y18.698 E29.17675
G1 X2.991 Y17.841 E29.20531
G1 X3.353 Y17.014 E29.23383
G1 X3.786 Y16.222 E29.26235
G1 X4.288 Y15.471 E29.29089
G1 X4.855 Y14.767 E29.31946
G1 X5.481 Y14.117 E29.34797
G1 X6.162 Y13.524 E29.3765
G1 X6.894 Y12.994 E29.40506
G1 X7.669 Y12.531 E29.43358
G1 F2700 E23.43358
;MESH:z_mini_cube_2x3_33.stl
G0 F7500 X12.914 Y20.835
G0 X12.914 Y21.914
G0 X13.1 Y22.1
;TYPE:WALL-INNER
G1 F2700 E29.43358
G1 F1500 X131.9 Y22.1 E33.18732
G1 X131.9 Y22.9 E33.2126
G1 X13.1 Y22.9 E36.96634
G1 X13.1 Y22.1 E36.99161
G0 F7500 X12.7 Y21.7
;TYPE:WALL-OUTER
G1 F1500 X132.3 Y21.7 E40.58168
G1 X132.3 Y23.3 E40.62971
G1 X12.7 Y23.3 E44.21977
G1 X12.7 Y21.7 E44.2678
G0 F7500 X13.1 Y21.7
G0 X13.14 Y22.14
G0 X13.49 Y22.49
;TYPE:SKIN
G1 F1500 X131.51 Y22.49 E47.99689
G1 X131.51 Y22.51 E47.99753
G1 X13.49 Y22.51 E51.72662
G1 X13.49 Y22.49 E51.72725
G0 F7500 X13.49 Y22.3
;MESH:NONMESH
G0 F300 X13.49 Y22.3 Z0.4
G0 F7500 X13.1 Y22.1
;TIME_ELAPSED:71.902071
;LAYER:1
M106 S85
;TYPE:WALL-INNER
;MESH:z_mini_cube_2x3_33.stl
G1 F2250 X131.9 Y22.1 E55.67856
G1 X131.9 Y22.9 E55.70516
G1 X13.1 Y22.9 E59.65647
G1 X13.1 Y22.1 E59.68308
G0 F8250 X12.7 Y21.7
;TYPE:WALL-OUTER
G1 F1125 X132.3 Y21.7 E63.46209
G1 X132.3 Y23.3 E63.51265
G1 X12.7 Y23.3 E67.29166
G1 X12.7 Y21.7 E67.34222
G0 F8250 X13.1 Y21.7
G0 X13.14 Y22.14
G0 X13.49 Y22.49
;TYPE:SKIN
G1 F1125 X131.51 Y22.49 E71.26758
G1 X131.51 Y22.51 E71.26825
G1 X13.49 Y22.51 E75.19361
G1 X13.49 Y22.49 E75.19427
G0 F8250 X13.49 Y22.3
;MESH:NONMESH
G0 F300 X13.49 Y22.3 Z0.6
G0 F8250 X13.1 Y22.1
;TIME_ELAPSED:104.418907
;LAYER:2
M106 S170
;TYPE:WALL-INNER
;MESH:z_mini_cube_2x3_33.stl
G1 F2400 X14.9 Y22.1 E75.25414
G1 X14.9 Y22.9 E75.28075
G1 X13.1 Y22.9 E75.34062
G1 X13.1 Y22.1 E75.36723
G0 F9000 X12.7 Y21.7
;TYPE:WALL-OUTER
G1 F600 X15.3 Y21.7 E75.44938
G1 X15.3 Y23.3 E75.49993
G1 X12.7 Y23.3 E75.58209
G1 X12.7 Y21.7 E75.63264
G0 F9000 X13.1 Y21.7
G0 X13.14 Y22.14
G0 X13.49 Y22.49
;TYPE:SKIN
G1 F600 X14.51 Y22.49 E75.66657
G1 X14.51 Y22.51 E75.66723
G1 X13.49 Y22.51 E75.70116
G1 X13.49 Y22.49 E75.70182
G0 F9000 X13.49 Y22.3
;MESH:NONMESH
G0 F300 X13.49 Y22.3 Z0.8
G0 F9000 X13.1 Y22.1
;TIME_ELAPSED:106.133625
;LAYER:3
M106 S255
;TYPE:WALL-INNER
;MESH:z_mini_cube_2x3_33.stl
G1 F2400 X14.9 Y22.1 E75.76169
G1 X14.9 Y22.9 E75.7883
G1 X13.1 Y22.9 E75.84817
G1 X13.1 Y22.1 E75.87477
G0 F9000 X12.7 Y21.7
;TYPE:WALL-OUTER
G1 F600 X15.3 Y21.7 E75.95693
G1 X15.3 Y23.3 E76.00748
G1 X12.7 Y23.3 E76.08964
G1 X12.7 Y21.7 E76.14019
G0 F9000 X13.1 Y21.7
G0 X13.14 Y22.14
G0 X13.49 Y22.49
;TYPE:SKIN
G1 F600 X14.51 Y22.49 E76.17412
G1 X14.51 Y22.51 E76.17478
G1 X13.49 Y22.51 E76.20871
G1 X13.49 Y22.49 E76.20937
G0 F9000 X13.49 Y22.3
;MESH:NONMESH
G0 F300 X13.49 Y22.3 Z1
G0 F9000 X13.1 Y22.1
;TIME_ELAPSED:107.848344
;LAYER:4
;TYPE:WALL-INNER
;MESH:z_mini_cube_2x3_33.stl
G1 F2400 X14.9 Y22.1 E76.26924
G1 X14.9 Y22.9 E76.29585
G1 X13.1 Y22.9 E76.35572
G1 X13.1 Y22.1 E76.38232
G0 F9000 X12.7 Y21.7
;TYPE:WALL-OUTER
G1 F600 X15.3 Y21.7 E76.46448
G1 X15.3 Y23.3 E76.51503
G1 X12.7 Y23.3 E76.59718
G1 X12.7 Y21.7 E76.64774
G0 F9000 X13.1 Y21.7
G0 X13.14 Y22.14
G0 X13.473 Y22.524
;TYPE:SKIN
G1 F600 X13.73 Y22.498 E76.65977
G1 X14.539 Y22.459 E76.69751
G1 X14.681 Y22.317 E76.70686
G0 F9000 X14.637 Y22.273
G0 X13.39 Y22.724
G1 F600 X13.274 Y22.608 E76.70959
G0 F9000 X13.3 Y22.608
;MESH:NONMESH
G0 F300 X13.3 Y22.608 Z1.2
G0 F9000 X13.1 Y22.1
;TIME_ELAPSED:109.584902
;LAYER:5
;TYPE:WALL-INNER
;MESH:z_mini_cube_2x3_33.stl
G1 F2400 X14.9 Y22.1 E76.76946
G1 X14.9 Y22.9 E76.79607
G1 X13.1 Y22.9 E76.85594
G1 X13.1 Y22.1 E76.88255
G0 F9000 X12.7 Y21.7
;TYPE:WALL-OUTER
G1 F600 X15.3 Y21.7 E76.9647
G1 X15.3 Y23.3 E77.01525
G1 X12.7 Y23.3 E77.09741
G1 X12.7 Y21.7 E77.14796
G0 F9000 X13.1 Y21.7
G0 X13.14 Y22.14
G0 X13.319 Y22.317
;TYPE:SKIN
G1 F600 X13.461 Y22.459 E77.15545
G1 X14.526 Y22.525 E77.19526
G1 X14.667 Y22.667 E77.20272
G0 F9000 X14.7 Y22.61
;MESH:NONMESH
G0 F300 X14.7 Y22.61 Z1.4
G0 F9000 X13.1 Y22.1
;TIME_ELAPSED:111.258091
;LAYER:6
;TYPE:WALL-INNER
;MESH:z_mini_cube_2x3_33.stl
G1 F2400 X14.9 Y22.1 E77.26259
G1 X14.9 Y22.9 E77.2892
G1 X13.1 Y22.9 E77.34907
G1 X13.1 Y22.1 E77.37568
G0 F9000 X12.7 Y21.7
;TYPE:WALL-OUTER
G1 F600 X15.3 Y21.7 E77.45783
G1 X15.3 Y23.3 E77.50838
G1 X12.7 Y23.3 E77.59054
G1 X12.7 Y21.7 E77.64109
G0 F9000 X13.1 Y21.7
G0 X13.14 Y22.14
G0 X13.473 Y22.524
;TYPE:SKIN
G1 F600 X13.73 Y22.498 E77.65313
G1 X14.539 Y22.459 E77.69086
G1 X14.681 Y22.317 E77.70022
G0 F9000 X14.637 Y22.273
G0 X13.39 Y22.724
G1 F600 X13.274 Y22.608 E77.70294
G0 F9000 X13.3 Y22.608
;MESH:NONMESH
G0 F300 X13.3 Y22.608 Z1.6
G0 F9000 X13.1 Y22.1
;TIME_ELAPSED:112.994650
;LAYER:7
;TYPE:WALL-INNER
;MESH:z_mini_cube_2x3_33.stl
G1 F2400 X14.9 Y22.1 E77.76281
G1 X14.9 Y22.9 E77.78942
G1 X13.1 Y22.9 E77.84929
G1 X13.1 Y22.1 E77.8759
G0 F9000 X12.7 Y21.7
;TYPE:WALL-OUTER
G1 F600 X15.3 Y21.7 E77.95805
G1 X15.3 Y23.3 E78.00861
G1 X12.7 Y23.3 E78.09076
G1 X12.7 Y21.7 E78.14131
G0 F9000 X13.1 Y21.7
G0 X13.14 Y22.14
G0 X13.319 Y22.317
;TYPE:SKIN
G1 F600 X13.461 Y22.459 E78.1488
G1 X14.526 Y22.525 E78.18861
G1 X14.667 Y22.667 E78.19608
G0 F9000 X14.7 Y22.61
;MESH:NONMESH
G0 F300 X14.7 Y22.61 Z1.8
G0 F9000 X13.1 Y22.1
;TIME_ELAPSED:114.667839
;LAYER:8
;TYPE:WALL-INNER
;MESH:z_mini_cube_2x3_33.stl
G1 F2400 X14.9 Y22.1 E78.25594
G1 X14.9 Y22.9 E78.28255
G1 X13.1 Y22.9 E78.34242
G1 X13.1 Y22.1 E78.36903
G0 F9000 X12.7 Y21.7
;TYPE:WALL-OUTER
G1 F600 X15.3 Y21.7 E78.45118
G1 X15.3 Y23.3 E78.50174
G1 X12.7 Y23.3 E78.58389
G1 X12.7 Y21.7 E78.63444
G0 F9000 X13.1 Y21.7
G0 X13.14 Y22.14
G0 X13.473 Y22.524
;TYPE:SKIN
G1 F600 X13.73 Y22.498 E78.64648
G1 X14.539 Y22.459 E78.68421
G1 X14.681 Y22.317 E78.69357
G0 F9000 X14.637 Y22.273
G0 X13.39 Y22.724
G1 F600 X13.274 Y22.608 E78.6963
G0 F9000 X13.3 Y22.608
;MESH:NONMESH
G0 F300 X13.3 Y22.608 Z2
G0 F9000 X13.1 Y22.1
;TIME_ELAPSED:116.404398
;LAYER:9
;TYPE:WALL-INNER
;MESH:z_mini_cube_2x3_33.stl
G1 F2400 X14.9 Y22.1 E78.75617
G1 X14.9 Y22.9 E78.78277
G1 X13.1 Y22.9 E78.84264
G1 X13.1 Y22.1 E78.86925
G0 F9000 X12.7 Y21.7
;TYPE:WALL-OUTER
G1 F600 X15.3 Y21.7 E78.9514
G1 X15.3 Y23.3 E79.00196
G1 X12.7 Y23.3 E79.08411
G1 X12.7 Y21.7 E79.13467
G0 F9000 X13.1 Y21.7
G0 X13.14 Y22.14
G0 X13.319 Y22.317
;TYPE:SKIN
G1 F600 X13.461 Y22.459 E79.14216
G1 X14.526 Y22.525 E79.18196
G1 X14.667 Y22.667 E79.18943
G0 F9000 X14.7 Y22.61
;MESH:NONMESH
G0 F300 X14.7 Y22.61 Z2.2
G0 F9000 X13.1 Y22.1
;TIME_ELAPSED:118.077587
;LAYER:10
;TYPE:WALL-INNER
;MESH:z_mini_cube_2x3_33.stl
G1 F2400 X14.9 Y22.1 E79.2493
G1 X14.9 Y22.9 E79.2759
G1 X13.1 Y22.9 E79.33577
G1 X13.1 Y22.1 E79.36238
G0 F9000 X12.7 Y21.7
;TYPE:WALL-OUTER
G1 F600 X15.3 Y21.7 E79.44453
G1 X15.3 Y23.3 E79.49509
G1 X12.7 Y23.3 E79.57724
G1 X12.7 Y21.7 E79.6278
G0 F9000 X13.1 Y21.7
G0 X13.14 Y22.14
G0 X13.473 Y22.524
;TYPE:SKIN
G1 F600 X13.73 Y22.498 E79.63983
G1 X14.539 Y22.459 E79.67757
G1 X14.681 Y22.317 E79.68692
G0 F9000 X14.637 Y22.273
G0 X13.39 Y22.724
G1 F600 X13.274 Y22.608 E79.68965
G0 F9000 X13.3 Y22.608
;MESH:NONMESH
G0 F300 X13.3 Y22.608 Z2.4
G0 F9000 X13.1 Y22.1
;TIME_ELAPSED:119.814145
;LAYER:11
;TYPE:WALL-INNER
;MESH:z_mini_cube_2x3_33.stl
G1 F2400 X14.9 Y22.1 E79.74952
G1 X14.9 Y22.9 E79.77613
G1 X13.1 Y22.9 E79.83599
G1 X13.1 Y22.1 E79.8626
G0 F9000 X12.7 Y21.7
;TYPE:WALL-OUTER
G1 F600 X15.3 Y21.7 E79.94475
G1 X15.3 Y23.3 E79.99531
G1 X12.7 Y23.3 E80.07746
G1 X12.7 Y21.7 E80.12802
G0 F9000 X13.1 Y21.7
G0 X13.14 Y22.14
G0 X13.319 Y22.317
;TYPE:SKIN
G1 F600 X13.461 Y22.459 E80.13551
G1 X14.526 Y22.525 E80.17532
G1 X14.667 Y22.667 E80.18278
G0 F9000 X14.7 Y22.61
;MESH:NONMESH
G0 F300 X14.7 Y22.61 Z2.6
G0 F9000 X13.1 Y22.1
;TIME_ELAPSED:121.487334
;LAYER:12
;TYPE:WALL-INNER
