;FLAVOR:Marlin
M117 Time Left 0h15m53s
;TIME:953
;Filament used: 0.258992m
;Layer height: 0.2
;MINX:11.5
;MINY:15.5
;MINZ:0.2
;MAXX:156.92
;MAXY:153.229
;MAXZ:34
;POSTPROCESSED
;Generated with Cura_SteamEngine 4.7.1
M140 S60
M105
M190 S60
M104 S200
M105
M109 S200
M82 ;absolute extrusion mode
; Ender 3 Custom Start G-code
G92 E0 ; Reset Extruder
G28 ; Home all axes
; ***SET NEW E STEP *** (93 is factory value - 95 mine - start)
G90                          ; Force coordinates to be absolute relative to the origin
M92 E95 ;					 ; ***SET NEW E STEP *** (93 is factory value - 95 mine - end)
G90                          ; Force coordinates to be absolute relative to the origin
G28                          ; Home X/Y/Z axis
G92 E0 ; Reset Extruder								
G28 ; Home all axes		
G1 Z2.0 F3000 ; Move Z Axis up little to prevent scratching of Heat Bed
G1 X0.1 Y20 Z0.3 F5000.0 ; Move to start position
G92 E0 ; Reset Extruder
G1 Z2.0 F3000 ; Move Z Axis up little to prevent scratching of Heat Bed
G1 X5 Y20 Z0.3 F5000.0 ; Move over to prevent blob squish
G92 E0
G92 E0
G1 F2700 E-6
;LAYER_COUNT:170
;LAYER:0
M107
M204 S500
M205 X8 Y8
G0 F7500 X15.386 Y18.127 Z0.2
;TYPE:SKIRT
G1 F2700 E0
G1 F1500 X16.126 Y17.551 E0.02963
G1 X16.912 Y17.039 E0.05927
G1 X17.739 Y16.597 E0.0889
G1 X18.601 Y16.227 E0.11854
G1 X19.491 Y15.931 E0.14817
G1 X20.403 Y15.713 E0.1778
G1 X21.33 Y15.572 E0.20743
G1 X22.201 Y15.513 E0.23501
G1 X22.522 Y15.504 E0.24516
G1 X22.83 Y15.5 E0.25489
G1 X141.793 Y15.5 E4.01378
G1 X141.951 Y15.501 E4.01878
G1 X142.649 Y15.511 E4.04083
G1 X143.585 Y15.565 E4.07046
G1 X144.513 Y15.697 E4.10007
G1 X145.427 Y15.909 E4.12972
G1 X146.319 Y16.198 E4.15935
G1 X147.184 Y16.561 E4.18899
G1 X148.014 Y16.997 E4.21861
G1 X148.805 Y17.502 E4.24826
G1 X149.549 Y18.073 E4.2779
G1 X150.242 Y18.705 E4.30753
G1 X150.879 Y19.393 E4.33716
G1 X151.454 Y20.134 E4.36679
G1 X151.965 Y20.92 E4.39642
G1 X152.407 Y21.748 E4.42607
G1 X152.776 Y22.61 E4.4557
G1 X153.071 Y23.5 E4.48533
G1 X153.289 Y24.412 E4.51496
G1 X153.429 Y25.34 E4.54461
G1 X153.487 Y26.201 E4.57188
G1 X153.496 Y26.521 E4.58199
G1 X153.5 Y26.83 E4.59176
G1 X153.499 Y27.897 E4.62547
G1 X153.49 Y28.627 E4.64854
G1 X153.439 Y29.563 E4.67816
G1 X153.308 Y30.492 E4.7078
G1 X153.098 Y31.406 E4.73743
G1 X152.811 Y32.299 E4.76707
G1 X152.449 Y33.164 E4.7967
G1 X152.015 Y33.995 E4.82632
G1 X151.511 Y34.787 E4.85598
G1 X150.942 Y35.532 E4.8856
G1 X150.312 Y36.226 E4.91522
G1 X149.624 Y36.864 E4.94487
G1 X148.885 Y37.442 E4.97451
G1 X148.1 Y37.954 E5.00412
G1 X147.273 Y38.397 E5.03377
G1 X146.412 Y38.769 E5.0634
G1 X145.522 Y39.065 E5.09304
G1 X144.61 Y39.285 E5.12268
G1 X143.683 Y39.426 E5.15231
G1 X142.799 Y39.487 E5.18031
G1 X142.478 Y39.496 E5.19046
G1 X142.17 Y39.5 E5.20019
G1 X23.207 Y39.5 E8.95908
G1 X22.367 Y39.49 E8.98562
G1 X21.431 Y39.438 E9.01524
G1 X20.502 Y39.306 E9.04489
G1 X19.588 Y39.096 E9.07452
G1 X18.695 Y38.809 E9.10416
G1 X17.83 Y38.446 E9.1338
G1 X16.999 Y38.012 E9.16342
G1 X16.208 Y37.508 E9.19306
G1 X15.463 Y36.938 E9.2227
G1 X14.769 Y36.307 E9.25234
G1 X14.132 Y35.62 E9.28194
G1 X13.555 Y34.88 E9.31159
G1 X13.043 Y34.094 E9.34123
G1 X12.6 Y33.267 E9.37087
G1 X12.229 Y32.406 E9.40049
G1 X11.933 Y31.516 E9.43013
G1 X11.714 Y30.604 E9.45977
G1 X11.573 Y29.677 E9.48939
G1 X11.513 Y28.788 E9.51755
G1 X11.504 Y28.455 E9.52807
G1 X11.5 Y28.158 E9.53746
G1 X11.501 Y27.025 E9.57326
G1 X11.51 Y26.36 E9.59427
G1 X11.563 Y25.424 E9.62389
G1 X11.695 Y24.495 E9.65354
G1 X11.906 Y23.581 E9.68318
G1 X12.194 Y22.689 E9.7128
G1 X12.557 Y21.824 E9.74244
G1 X12.992 Y20.993 E9.77208
G1 X13.496 Y20.203 E9.80169
G1 X14.066 Y19.458 E9.83133
G1 X14.698 Y18.764 E9.86098
G1 X15.386 Y18.127 E9.89061
G0 F7500 X15.774 Y18.323
G1 F1500 X16.51 Y17.77 E9.9197
G1 X17.291 Y17.282 E9.9488
G1 X18.111 Y16.864 E9.97788
G1 X18.965 Y16.519 E10.00698
G1 X19.845 Y16.249 E10.03607
G1 X20.745 Y16.057 E10.06514
G1 X21.659 Y15.943 E10.09425
G1 X22.212 Y15.913 E10.11175
G1 X22.533 Y15.904 E10.12189
G1 X22.83 Y15.9 E10.13128
G1 X141.793 Y15.9 E13.89017
G1 X142.643 Y15.911 E13.91703
G1 X143.562 Y15.964 E13.94611
G1 X144.473 Y16.097 E13.9752
G1 X145.369 Y16.308 E14.00429
G1 X146.243 Y16.596 E14.03337
G1 X147.09 Y16.959 E14.06248
G1 X147.901 Y17.394 E14.09156
G1 X148.671 Y17.898 E14.12064
G1 X149.395 Y18.467 E14.14973
G1 X150.067 Y19.097 E14.17884
G1 X150.682 Y19.782 E14.20793
G1 X151.235 Y20.518 E14.23702
G1 X151.722 Y21.299 E14.2661
G1 X152.139 Y22.12 E14.29519
G1 X152.484 Y22.974 E14.3243
G1 X152.753 Y23.854 E14.35337
G1 X152.945 Y24.755 E14.38248
G1 X153.058 Y25.668 E14.41155
G1 X153.087 Y26.212 E14.42876
G1 X153.096 Y26.532 E14.43888
G1 X153.1 Y26.83 E14.44829
G1 X153.099 Y27.892 E14.48185
G1 X153.09 Y28.622 E14.50492
G1 X153.039 Y29.541 E14.534
G1 X152.908 Y30.452 E14.56308
G1 X152.699 Y31.349 E14.59218
G1 X152.412 Y32.224 E14.62128
G1 X152.051 Y33.07 E14.65034
G1 X151.617 Y33.883 E14.67946
G1 X151.115 Y34.654 E14.70853
G1 X150.548 Y35.379 E14.73761
G1 X149.92 Y36.052 E14.7667
G1 X149.235 Y36.669 E14.79583
G1 X148.5 Y37.223 E14.82491
G1 X147.72 Y37.711 E14.85398
G1 X146.9 Y38.13 E14.88308
G1 X146.047 Y38.477 E14.91218
G1 X145.167 Y38.748 E14.94127
G1 X144.267 Y38.941 E14.97035
G1 X143.354 Y39.056 E14.99943
G1 X142.788 Y39.087 E15.01734
G1 X142.467 Y39.096 E15.02749
G1 X142.17 Y39.1 E15.03687
G1 X23.207 Y39.1 E18.79576
G1 X22.372 Y39.09 E18.82215
G1 X21.453 Y39.038 E18.85123
G1 X20.542 Y38.907 E18.88031
G1 X19.646 Y38.697 E18.90939
G1 X18.771 Y38.41 E18.93849
G1 X17.924 Y38.048 E18.96759
G1 X17.112 Y37.614 E18.99668
G1 X16.341 Y37.112 E19.02575
G1 X15.616 Y36.544 E19.05485
G1 X14.943 Y35.915 E19.08396
G1 X14.328 Y35.231 E19.11302
G1 X13.774 Y34.496 E19.14211
G1 X13.286 Y33.715 E19.17121
G1 X12.867 Y32.895 E19.2003
G1 X12.521 Y32.042 E19.22939
G1 X12.251 Y31.162 E19.25847
G1 X12.058 Y30.261 E19.28759
G1 X11.944 Y29.348 E19.31666
G1 X11.913 Y28.777 E19.33473
G1 X11.904 Y28.444 E19.34525
G1 X11.9 Y28.158 E19.35429
G1 X11.901 Y27.031 E19.3899
G1 X11.91 Y26.366 E19.41091
G1 X11.962 Y25.446 E19.44003
G1 X12.094 Y24.535 E19.46912
G1 X12.305 Y23.639 E19.4982
G1 X12.592 Y22.764 E19.5273
G1 X12.955 Y21.918 E19.55639
G1 X13.389 Y21.106 E19.58548
G1 X13.892 Y20.335 E19.61457
G1 X14.461 Y19.611 E19.64366
G1 X15.089 Y18.939 E19.67272
G1 X15.774 Y18.323 E19.70183
G0 F7500 X16.162 Y18.524
G1 F1500 X16.894 Y17.994 E19.73039
G1 X17.669 Y17.531 E19.75891
G1 X18.482 Y17.138 E19.78744
G1 X19.327 Y16.818 E19.81599
G1 X20.196 Y16.575 E19.8445
G1 X21.084 Y16.409 E19.87305
G1 X22.223 Y16.313 E19.90917
G1 X22.544 Y16.304 E19.91931
G1 X22.83 Y16.3 E19.92835
G1 X141.793 Y16.3 E23.68724
G1 X142.637 Y16.311 E23.71391
G1 X143.539 Y16.364 E23.74246
G1 X144.432 Y16.496 E23.77098
G1 X145.31 Y16.707 E23.79951
G1 X146.166 Y16.995 E23.82805
G1 X146.993 Y17.357 E23.85658
G1 X147.785 Y17.792 E23.88513
G1 X148.536 Y18.294 E23.91367
G1 X149.239 Y18.861 E23.94221
G1 X149.889 Y19.488 E23.97074
G1 X150.481 Y20.17 E23.99928
G1 X151.011 Y20.901 E24.02781
G1 X151.473 Y21.677 E24.05634
G1 X151.866 Y22.49 E24.08488
G1 X152.184 Y23.335 E24.1134
G1 X152.427 Y24.205 E24.14195
G1 X152.592 Y25.093 E24.17048
G1 X152.687 Y26.223 E24.20631
G1 X152.696 Y26.543 E24.21643
G1 X152.7 Y26.83 E24.2255
G1 X152.699 Y27.887 E24.2589
G1 X152.69 Y28.617 E24.28196
G1 X152.639 Y29.518 E24.31048
G1 X152.508 Y30.412 E24.33903
G1 X152.299 Y31.291 E24.36758
G1 X152.013 Y32.147 E24.39609
G1 X151.652 Y32.975 E24.42463
G1 X151.22 Y33.768 E24.45317
G1 X150.719 Y34.519 E24.48169
G1 X150.154 Y35.223 E24.51022
G1 X149.528 Y35.875 E24.53878
G1 X148.847 Y36.468 E24.56731
G1 X148.117 Y36.999 E24.59583
G1 X147.342 Y37.464 E24.62439
G1 X146.529 Y37.857 E24.65292
G1 X145.685 Y38.178 E24.68145
G1 X144.816 Y38.423 E24.70998
G1 X143.928 Y38.589 E24.73852
G1 X142.777 Y38.687 E24.77502
G1 X142.456 Y38.696 E24.78517
G1 X142.17 Y38.7 E24.79421
G1 X23.207 Y38.7 E28.5531
G1 X22.377 Y38.69 E28.57933
G1 X21.476 Y38.639 E28.60784
G1 X20.582 Y38.507 E28.63639
G1 X19.704 Y38.298 E28.66491
G1 X18.847 Y38.011 E28.69347
G1 X18.02 Y37.65 E28.72198
G1 X17.227 Y37.217 E28.75053
G1 X16.476 Y36.716 E28.77905
G1 X15.772 Y36.15 E28.8076
G1 X15.121 Y35.524 E28.83613
G1 X14.528 Y34.843 E28.86466
G1 X13.998 Y34.112 E28.89319
G1 X13.534 Y33.337 E28.92174
G1 X13.14 Y32.524 E28.95028
G1 X12.82 Y31.68 E28.9788
G1 X12.576 Y30.81 E29.00735
G1 X12.41 Y29.922 E29.0359
G1 X12.313 Y28.767 E29.07252
G1 X12.304 Y28.434 E29.08305
G1 X12.3 Y28.158 E29.09177
G1 X12.301 Y27.036 E29.12722
G1 X12.31 Y26.371 E29.14823
G1 X12.362 Y25.469 E29.17678
G1 X12.494 Y24.576 E29.2053
G1 X12.704 Y23.698 E29.23383
G1 X12.991 Y22.841 E29.26239
G1 X13.353 Y22.014 E29.29091
G1 X13.786 Y21.222 E29.31943
G1 X14.288 Y20.471 E29.34797
G1 X14.855 Y19.767 E29.37654
G1 X15.481 Y19.117 E29.40505
G1 X16.162 Y18.524 E29.43358
G1 F2700 E23.43358
;MESH:z_mini_cube_2x3_33.stl
G0 F7500 X22.914 Y25.835
G0 X22.914 Y26.914
G0 X23.1 Y27.1
;TYPE:WALL-INNER
G1 F2700 E29.43358
G1 F1500 X141.9 Y27.1 E33.18732
G1 X141.9 Y27.9 E33.2126
G1 X23.1 Y27.9 E36.96634
G1 X23.1 Y27.1 E36.99161
G0 F7500 X22.7 Y26.7
;TYPE:WALL-OUTER
G1 F1500 X142.3 Y26.7 E40.58168
G1 X142.3 Y28.3 E40.62971
G1 X22.7 Y28.3 E44.21977
G1 X22.7 Y26.7 E44.2678
G0 F7500 X23.1 Y26.7
G0 X23.14 Y27.14
G0 X23.49 Y27.49
;TYPE:SKIN
G1 F1500 X141.51 Y27.49 E47.99689
G1 X141.51 Y27.51 E47.99753
G1 X23.49 Y27.51 E51.72662
G1 X23.49 Y27.49 E51.72725
G0 F7500 X23.49 Y27.3
;MESH:NONMESH
G0 F300 X23.49 Y27.3 Z0.4
G0 F7500 X23.1 Y27.1
M117 Time Left 0h14m41s
;TIME_ELAPSED:71.944299
;LAYER:1
M106 S85
;TYPE:WALL-INNER
;MESH:z_mini_cube_2x3_33.stl
G1 F2250 X141.9 Y27.1 E55.67856
G1 X141.9 Y27.9 E55.70516
G1 X23.1 Y27.9 E59.65647
G1 X23.1 Y27.1 E59.68308
G0 F8250 X22.7 Y26.7
;TYPE:WALL-OUTER
G1 F1125 X142.3 Y26.7 E63.46209
G1 X142.3 Y28.3 E63.51265
G1 X22.7 Y28.3 E67.29166
G1 X22.7 Y26.7 E67.34222
G0 F8250 X23.1 Y26.7
G0 X23.14 Y27.14
G0 X23.49 Y27.49
;TYPE:SKIN
G1 F1125 X141.51 Y27.49 E71.26758
G1 X141.51 Y27.51 E71.26825
G1 X23.49 Y27.51 E75.19361
G1 X23.49 Y27.49 E75.19427
G0 F8250 X23.49 Y27.3
;MESH:NONMESH
G0 F300 X23.49 Y27.3 Z0.6
G0 F8250 X23.1 Y27.1
M117 Time Left 0h14m08s
;TIME_ELAPSED:104.461135
;LAYER:2
M106 S170
;TYPE:WALL-INNER
;MESH:z_mini_cube_2x3_33.stl
G1 F2400 X24.9 Y27.1 E75.25414
G1 X24.9 Y27.9 E75.28075
G1 X23.1 Y27.9 E75.34062
G1 X23.1 Y27.1 E75.36723
G0 F9000 X22.7 Y26.7
;TYPE:WALL-OUTER
G1 F600 X25.3 Y26.7 E75.44938
G1 X25.3 Y28.3 E75.49993
G1 X22.7 Y28.3 E75.58209
G1 X22.7 Y26.7 E75.63264
G0 F9000 X23.1 Y26.7
G0 X23.14 Y27.14
G0 X23.49 Y27.49
;TYPE:SKIN
G1 F600 X24.51 Y27.49 E75.66657
G1 X24.51 Y27.51 E75.66723
G1 X23.49 Y27.51 E75.70116
G1 X23.49 Y27.49 E75.70182
G0 F9000 X23.49 Y27.3
;MESH:NONMESH
G0 F300 X23.49 Y27.3 Z0.8
G0 F9000 X23.1 Y27.1
M117 Time Left 0h14m06s
;TIME_ELAPSED:106.175853
;LAYER:3
M106 S255
;TYPE:WALL-INNER
;MESH:z_mini_cube_2x3_33.stl
G1 F2400 X24.9 Y27.1 E75.76169
G1 X24.9 Y27.9 E75.7883
G1 X23.1 Y27.9 E75.84817
G1 X23.1 Y27.1 E75.87477
G0 F9000 X22.7 Y26.7
;TYPE:WALL-OUTER
G1 F600 X25.3 Y26.7 E75.95693
G1 X25.3 Y28.3 E76.00748
G1 X22.7 Y28.3 E76.08964
G1 X22.7 Y26.7 E76.14019
G0 F9000 X23.1 Y26.7
G0 X23.14 Y27.14
G0 X23.49 Y27.49
;TYPE:SKIN
G1 F600 X24.51 Y27.49 E76.17412
G1 X24.51 Y27.51 E76.17478
G1 X23.49 Y27.51 E76.20871
G1 X23.49 Y27.49 E76.20937
G0 F9000 X23.49 Y27.3
;MESH:NONMESH
G0 F300 X23.49 Y27.3 Z1
G0 F9000 X23.1 Y27.1
M117 Time Left 0h14m05s
;TIME_ELAPSED:107.890572
;LAYER:4
;TYPE:WALL-INNER
;MESH:z_mini_cube_2x3_33.stl
G1 F2400 X24.9 Y27.1 E76.26924
G1 X24.9 Y27.9 E76.29585
G1 X23.1 Y27.9 E76.35572
G1 X23.1 Y27.1 E76.38232
G0 F9000 X22.7 Y26.7
;TYPE:WALL-OUTER
G1 F600 X25.3 Y26.7 E76.46448
G1 X25.3 Y28.3 E76.51503
G1 X22.7 Y28.3 E76.59718
G1 X22.7 Y26.7 E76.64774
G0 F9000 X23.1 Y26.7
G0 X23.14 Y27.14
G0 X23.539 Y27.499
;TYPE:SKIN
G1 F600 X23.822 Y27.499 E76.6624
G1 X24.585 Y27.413 E76.70217
G0 F9000 X24.724 Y27.553
G0 X23.481 Y27.724
G1 F600 X23.275 Y27.517 E76.70703
G0 F9000 X23.3 Y27.517
;MESH:NONMESH
G0 F300 X23.3 Y27.517 Z1.2
G0 F9000 X23.1 Y27.1
M117 Time Left 0h14m03s
;TIME_ELAPSED:109.633891
;LAYER:5
;TYPE:WALL-INNER
;MESH:z_mini_cube_2x3_33.stl
G1 F2400 X24.9 Y27.1 E76.76689
G1 X24.9 Y27.9 E76.7935
G1 X23.1 Y27.9 E76.85337
G1 X23.1 Y27.1 E76.87998
G0 F9000 X22.7 Y26.7
;TYPE:WALL-OUTER
G1 F600 X25.3 Y26.7 E76.96213
G1 X25.3 Y28.3 E77.01269
G1 X22.7 Y28.3 E77.09484
G1 X22.7 Y26.7 E77.14539
G0 F9000 X23.1 Y26.7
G0 X23.14 Y27.14
G0 X23.314 Y27.313
;TYPE:SKIN
G1 F600 X23.456 Y27.455 E77.15286
G1 X24.521 Y27.521 E77.1925
G1 X24.662 Y27.662 E77.19991
G0 F9000 X24.7 Y27.601
;MESH:NONMESH
G0 F300 X24.7 Y27.601 Z1.4
G0 F9000 X23.1 Y27.1
M117 Time Left 0h14m01s
;TIME_ELAPSED:111.307149
;LAYER:6
;TYPE:WALL-INNER
;MESH:z_mini_cube_2x3_33.stl
G1 F2400 X24.9 Y27.1 E77.25978
G1 X24.9 Y27.9 E77.28639
G1 X23.1 Y27.9 E77.34626
G1 X23.1 Y27.1 E77.37286
G0 F9000 X22.7 Y26.7
;TYPE:WALL-OUTER
G1 F600 X25.3 Y26.7 E77.45502
G1 X25.3 Y28.3 E77.50557
G1 X22.7 Y28.3 E77.58772
G1 X22.7 Y26.7 E77.63828
G0 F9000 X23.1 Y26.7
G0 X23.14 Y27.14
G0 X23.539 Y27.499
;TYPE:SKIN
G1 F600 X23.822 Y27.499 E77.65294
G1 X24.585 Y27.413 E77.69271
G0 F9000 X24.724 Y27.553
G0 X23.481 Y27.724
G1 F600 X23.275 Y27.517 E77.69756
G0 F9000 X23.3 Y27.517
;MESH:NONMESH
G0 F300 X23.3 Y27.517 Z1.6
G0 F9000 X23.1 Y27.1
M117 Time Left 0h13m59s
;TIME_ELAPSED:113.050468
;LAYER:7
;TYPE:WALL-INNER
;MESH:z_mini_cube_2x3_33.stl
G1 F2400 X24.9 Y27.1 E77.75743
G1 X24.9 Y27.9 E77.78404
G1 X23.1 Y27.9 E77.84391
G1 X23.1 Y27.1 E77.87052
G0 F9000 X22.7 Y26.7
;TYPE:WALL-OUTER
G1 F600 X25.3 Y26.7 E77.95267
G1 X25.3 Y28.3 E78.00323
G1 X22.7 Y28.3 E78.08538
G1 X22.7 Y26.7 E78.13593
G0 F9000 X23.1 Y26.7
G0 X23.14 Y27.14
G0 X23.314 Y27.313
;TYPE:SKIN
G1 F600 X23.456 Y27.455 E78.14339
G1 X24.521 Y27.521 E78.18304
G1 X24.662 Y27.662 E78.19045
G0 F9000 X24.7 Y27.601
;MESH:NONMESH
G0 F300 X24.7 Y27.601 Z1.8
G0 F9000 X23.1 Y27.1
M117 Time Left 0h13m58s
;TIME_ELAPSED:114.723725
;LAYER:8
;TYPE:WALL-INNER
;MESH:z_mini_cube_2x3_33.stl
G1 F2400 X24.9 Y27.1 E78.25032
G1 X24.9 Y27.9 E78.27693
G1 X23.1 Y27.9 E78.33679
G1 X23.1 Y27.1 E78.3634
G0 F9000 X22.7 Y26.7
;TYPE:WALL-OUTER
G1 F600 X25.3 Y26.7 E78.44556
G1 X25.3 Y28.3 E78.49611
G1 X22.7 Y28.3 E78.57826
G1 X22.7 Y26.7 E78.62882
G0 F9000 X23.1 Y26.7
G0 X23.14 Y27.14
G0 X23.539 Y27.499
;TYPE:SKIN
G1 F600 X23.822 Y27.499 E78.64348
G1 X24.585 Y27.413 E78.68325
G0 F9000 X24.724 Y27.553
G0 X23.481 Y27.724
G1 F600 X23.275 Y27.517 E78.6881
G0 F9000 X23.3 Y27.517
;MESH:NONMESH
G0 F300 X23.3 Y27.517 Z2
G0 F9000 X23.1 Y27.1
M117 Time Left 0h13m56s
;TIME_ELAPSED:116.467044
;LAYER:9
;TYPE:WALL-INNER
;MESH:z_mini_cube_2x3_33.stl
G1 F2400 X24.9 Y27.1 E78.74797
G1 X24.9 Y27.9 E78.77458
G1 X23.1 Y27.9 E78.83445
G1 X23.1 Y27.1 E78.86106
G0 F9000 X22.7 Y26.7
;TYPE:WALL-OUTER
G1 F600 X25.3 Y26.7 E78.94321
G1 X25.3 Y28.3 E78.99376
G1 X22.7 Y28.3 E79.07592
G1 X22.7 Y26.7 E79.12647
G0 F9000 X23.1 Y26.7
G0 X23.14 Y27.14
G0 X23.314 Y27.313
;TYPE:SKIN
G1 F600 X23.456 Y27.455 E79.13393
G1 X24.521 Y27.521 E79.17358
G1 X24.662 Y27.662 E79.18099
G0 F9000 X24.7 Y27.601
;MESH:NONMESH
G0 F300 X24.7 Y27.601 Z2.2
G0 F9000 X23.1 Y27.1
M117 Time Left 0h13m54s
;TIME_ELAPSED:118.140302
;LAYER:10
;TYPE:WALL-INNER
;MESH:z_mini_cube_2x3_33.stl
G1 F2400 X24.9 Y27.1 E79.24086
G1 X24.9 Y27.9 E79.26747
G1 X23.1 Y27.9 E79.32733
G1 X23.1 Y27.1 E79.35394
G0 F9000 X22.7 Y26.7
;TYPE:WALL-OUTER
G1 F600 X25.3 Y26.7 E79.43609
G1 X25.3 Y28.3 E79.48665
G1 X22.7 Y28.3 E79.5688
G1 X22.7 Y26.7 E79.61936
G0 F9000 X23.1 Y26.7
G0 X23.14 Y27.14
G0 X23.539 Y27.499
;TYPE:SKIN
G1 F600 X23.822 Y27.499 E79.63402
G1 X24.585 Y27.413 E79.67379
G0 F9000 X24.724 Y27.553
G0 X23.481 Y27.724
G1 F600 X23.275 Y27.517 E79.67864
G0 F9000 X23.3 Y27.517
;MESH:NONMESH
G0 F300 X23.3 Y27.517 Z2.4
G0 F9000 X23.1 Y27.1
M117 Time Left 0h13m53s
;TIME_ELAPSED:119.883621
;LAYER:11
;TYPE:WALL-INNER
;MESH:z_mini_cube_2x3_33.stl
G1 F2400 X24.9 Y27.1 E79.73851
G1 X24.9 Y27.9 E79.76512
G1 X23.1 Y27.9 E79.82499
G1 X23.1 Y27.1 E79.8516
G0 F9000 X22.7 Y26.7
;TYPE:WALL-OUTER
G1 F600 X25.3 Y26.7 E79.93375
G1 X25.3 Y28.3 E79.9843
G1 X22.7 Y28.3 E80.06646
