;FLAVOR:Marlin
M117 Time Left 3h58m24s
;TIME:14304
;Filament used: 10.5474m
;Layer height: 0.2
;MINX:66
;MINY:104
;MINZ:0.2
;MAXX:169
;MAXY:171
;MAXZ:33
;POSTPROCESSED
;Generated with Cura_SteamEngine 4.7.1
M140 S60
M105
M190 S60
M104 S200
M105
M109 S200
M82 ;absolute extrusion mode
; Ender 3 Custom Start G-code
G92 E0 ; Reset Extruder
G28 ; Home all axes
; ***SET NEW E STEP *** (93 is factory value - 95 mine - start)
G90                          ; Force coordinates to be absolute relative to the origin
M92 E95 ;					 ; ***SET NEW E STEP *** (93 is factory value - 95 mine - end)
G90                          ; Force coordinates to be absolute relative to the origin
G28                          ; Home X/Y/Z axis
G92 E0 ; Reset Extruder								
G28 ; Home all axes		
G1 Z2.0 F3000 ; Move Z Axis up little to prevent scratching of Heat Bed
G1 X0.1 Y20 Z0.3 F5000.0 ; Move to start position
G1 X0.1 Y200.0 Z0.3 F1500.0 E15 ; Draw the first line
G1 X0.4 Y200.0 Z0.3 F5000.0 ; Move to side a little
G1 X0.4 Y20 Z0.3 F1500.0 E30 ; Draw the second line
G92 E0 ; Reset Extruder
G1 Z2.0 F3000 ; Move Z Axis up little to prevent scratching of Heat Bed
G1 X5 Y20 Z0.3 F5000.0 ; Move over to prevent blob squish
G92 E0
G92 E0
G1 F2700 E-6
;LAYER_COUNT:165
;LAYER:0
M107
M204 S500
M205 X8 Y8
G0 F7500 X70.626 Y106.051 Z0.2
;TYPE:SKIRT
G1 F2700 E0
G1 F1500 X71.412 Y105.539 E0.02964
G1 X72.239 Y105.097 E0.05927
G1 X73.101 Y104.727 E0.08891
G1 X73.991 Y104.431 E0.11854
G1 X74.903 Y104.213 E0.14817
G1 X75.83 Y104.072 E0.1778
G1 X76.701 Y104.013 E0.20538
G1 X77.022 Y104.004 E0.21553
G1 X77.33 Y104 E0.22526
G1 X157.293 Y104 E2.75186
G1 X157.451 Y104.001 E2.75686
G1 X158.149 Y104.011 E2.77891
G1 X159.085 Y104.065 E2.80854
G1 X160.013 Y104.197 E2.83816
G1 X160.927 Y104.409 E2.8678
G1 X161.819 Y104.698 E2.89743
G1 X162.684 Y105.061 E2.92707
G1 X163.514 Y105.497 E2.95669
G1 X164.305 Y106.002 E2.98635
G1 X165.049 Y106.573 E3.01598
G1 X165.742 Y107.205 E3.04562
G1 X166.379 Y107.893 E3.07524
G1 X166.954 Y108.634 E3.10488
G1 X167.465 Y109.42 E3.1345
G1 X167.907 Y110.248 E3.16416
G1 X168.276 Y111.11 E3.19378
G1 X168.571 Y112 E3.22341
G1 X168.789 Y112.912 E3.25304
G1 X168.929 Y113.84 E3.28269
G1 X168.987 Y114.701 E3.30996
G1 X168.996 Y115.021 E3.32007
G1 X169 Y115.33 E3.32984
G1 X168.999 Y159.4 E4.72232
G1 X168.99 Y160.127 E4.7453
G1 X168.939 Y161.064 E4.77495
G1 X168.807 Y161.992 E4.80456
G1 X168.598 Y162.906 E4.83419
G1 X168.311 Y163.799 E4.86383
G1 X167.949 Y164.665 E4.89348
G1 X167.515 Y165.496 E4.92311
G1 X167.011 Y166.287 E4.95274
G1 X166.442 Y167.032 E4.98236
G1 X165.811 Y167.727 E5.01202
G1 X165.124 Y168.365 E5.04165
G1 X164.385 Y168.942 E5.07127
G1 X163.599 Y169.454 E5.10091
G1 X162.773 Y169.897 E5.13053
G1 X161.911 Y170.269 E5.16019
G1 X161.022 Y170.565 E5.1898
G1 X160.11 Y170.785 E5.21944
G1 X159.183 Y170.926 E5.24907
G1 X158.299 Y170.987 E5.27707
G1 X157.978 Y170.996 E5.28721
G1 X157.67 Y171 E5.29695
G1 X77.707 Y171 E7.82355
G1 X76.867 Y170.99 E7.85009
G1 X75.931 Y170.938 E7.87971
G1 X75.002 Y170.806 E7.90936
G1 X74.088 Y170.596 E7.93899
G1 X73.195 Y170.309 E7.96863
G1 X72.33 Y169.946 E7.99827
G1 X71.499 Y169.512 E8.02789
G1 X70.708 Y169.008 E8.05753
G1 X69.963 Y168.438 E8.08717
G1 X69.269 Y167.807 E8.11681
G1 X68.632 Y167.12 E8.14641
G1 X68.055 Y166.38 E8.17606
G1 X67.543 Y165.594 E8.2057
G1 X67.1 Y164.767 E8.23534
G1 X66.729 Y163.906 E8.26496
G1 X66.433 Y163.016 E8.2946
G1 X66.214 Y162.104 E8.32424
G1 X66.073 Y161.177 E8.35386
G1 X66.013 Y160.288 E8.38202
G1 X66.004 Y159.955 E8.39254
G1 X66 Y159.658 E8.40193
G1 X66.001 Y115.525 E9.7964
G1 X66.01 Y114.86 E9.81742
G1 X66.063 Y113.924 E9.84704
G1 X66.195 Y112.995 E9.87669
G1 X66.406 Y112.081 E9.90633
G1 X66.694 Y111.189 E9.93595
G1 X67.057 Y110.324 E9.96559
G1 X67.492 Y109.493 E9.99522
G1 X67.996 Y108.703 E10.02483
G1 X68.566 Y107.958 E10.05447
G1 X69.198 Y107.264 E10.08413
G1 X69.886 Y106.627 E10.11376
G1 X70.626 Y106.051 E10.14339
G0 F7500 X71.01 Y106.27
G1 F1500 X71.791 Y105.782 E10.17249
G1 X72.611 Y105.364 E10.20157
G1 X73.465 Y105.019 E10.23067
G1 X74.345 Y104.749 E10.25975
G1 X75.245 Y104.557 E10.28883
G1 X76.159 Y104.443 E10.31794
G1 X76.712 Y104.413 E10.33543
G1 X77.033 Y104.404 E10.34558
G1 X77.33 Y104.4 E10.35497
G1 X157.293 Y104.4 E12.88157
G1 X158.143 Y104.411 E12.90843
G1 X159.062 Y104.464 E12.93751
G1 X159.973 Y104.597 E12.9666
G1 X160.869 Y104.808 E12.99569
G1 X161.743 Y105.096 E13.02477
G1 X162.59 Y105.459 E13.05388
G1 X163.401 Y105.894 E13.08296
G1 X164.171 Y106.398 E13.11204
G1 X164.895 Y106.967 E13.14114
G1 X165.567 Y107.597 E13.17024
G1 X166.182 Y108.282 E13.19933
G1 X166.735 Y109.018 E13.22842
G1 X167.222 Y109.799 E13.2575
G1 X167.639 Y110.62 E13.28659
G1 X167.984 Y111.474 E13.3157
G1 X168.253 Y112.354 E13.34477
G1 X168.445 Y113.255 E13.37388
G1 X168.558 Y114.168 E13.40295
G1 X168.587 Y114.712 E13.42016
G1 X168.596 Y115.032 E13.43028
G1 X168.6 Y115.33 E13.43969
G1 X168.599 Y159.395 E14.83202
G1 X168.59 Y160.122 E14.85499
G1 X168.539 Y161.041 E14.88408
G1 X168.408 Y161.953 E14.91319
G1 X168.198 Y162.849 E14.94227
G1 X167.912 Y163.724 E14.97135
G1 X167.551 Y164.571 E15.00045
G1 X167.117 Y165.383 E15.02954
G1 X166.615 Y166.155 E15.05863
G1 X166.047 Y166.88 E15.08774
G1 X165.419 Y167.553 E15.11682
G1 X164.735 Y168.169 E15.14591
G1 X164 Y168.723 E15.17499
G1 X163.22 Y169.212 E15.20408
G1 X162.4 Y169.631 E15.23317
G1 X161.547 Y169.977 E15.26226
G1 X160.667 Y170.248 E15.29135
G1 X159.767 Y170.441 E15.32044
G1 X158.853 Y170.556 E15.34954
G1 X158.288 Y170.587 E15.36742
G1 X157.967 Y170.596 E15.37757
G1 X157.67 Y170.6 E15.38695
G1 X77.707 Y170.6 E17.91356
G1 X76.872 Y170.59 E17.93994
G1 X75.953 Y170.538 E17.96902
G1 X75.042 Y170.407 E17.99811
G1 X74.146 Y170.197 E18.02718
G1 X73.271 Y169.91 E18.05628
G1 X72.424 Y169.548 E18.08539
G1 X71.612 Y169.114 E18.11448
G1 X70.841 Y168.612 E18.14355
G1 X70.116 Y168.044 E18.17265
G1 X69.443 Y167.415 E18.20175
G1 X68.828 Y166.731 E18.23082
G1 X68.274 Y165.996 E18.2599
G1 X67.786 Y165.215 E18.289
G1 X67.367 Y164.395 E18.3181
G1 X67.021 Y163.542 E18.34718
G1 X66.751 Y162.662 E18.37627
G1 X66.558 Y161.761 E18.40538
G1 X66.444 Y160.848 E18.43445
G1 X66.413 Y160.277 E18.45252
G1 X66.404 Y159.944 E18.46305
G1 X66.4 Y159.658 E18.47208
G1 X66.401 Y115.531 E19.86637
G1 X66.41 Y114.866 E19.88739
G1 X66.462 Y113.946 E19.9165
G1 X66.594 Y113.035 E19.94559
G1 X66.805 Y112.139 E19.97467
G1 X67.092 Y111.264 E20.00377
G1 X67.455 Y110.418 E20.03286
G1 X67.889 Y109.606 E20.06195
G1 X68.392 Y108.835 E20.09104
G1 X68.961 Y108.111 E20.12013
G1 X69.589 Y107.439 E20.14919
G1 X70.274 Y106.823 E20.1783
G1 X71.01 Y106.27 E20.20739
G0 F7500 X71.394 Y106.494
G1 F1500 X72.169 Y106.031 E20.23592
G1 X72.982 Y105.638 E20.26445
G1 X73.827 Y105.318 E20.293
G1 X74.696 Y105.075 E20.32151
G1 X75.584 Y104.909 E20.35005
G1 X76.723 Y104.813 E20.38617
G1 X77.044 Y104.804 E20.39632
G1 X77.33 Y104.8 E20.40535
G1 X157.293 Y104.8 E22.93196
G1 X158.137 Y104.811 E22.95863
G1 X159.039 Y104.864 E22.98718
G1 X159.932 Y104.996 E23.0157
G1 X160.81 Y105.207 E23.04423
G1 X161.666 Y105.495 E23.07277
G1 X162.493 Y105.857 E23.10129
G1 X163.285 Y106.292 E23.12984
G1 X164.036 Y106.794 E23.15839
G1 X164.739 Y107.361 E23.18692
G1 X165.389 Y107.988 E23.21546
G1 X165.981 Y108.67 E23.24399
G1 X166.511 Y109.401 E23.27252
G1 X166.973 Y110.177 E23.30106
G1 X167.366 Y110.99 E23.32959
G1 X167.684 Y111.835 E23.35812
G1 X167.927 Y112.705 E23.38666
G1 X168.092 Y113.593 E23.4152
G1 X168.187 Y114.723 E23.45103
G1 X168.196 Y115.043 E23.46115
G1 X168.2 Y115.33 E23.47021
G1 X168.199 Y159.39 E24.86238
G1 X168.19 Y160.117 E24.88536
G1 X168.139 Y161.019 E24.9139
G1 X168.008 Y161.913 E24.94245
G1 X167.799 Y162.791 E24.97097
G1 X167.513 Y163.648 E24.99952
G1 X167.152 Y164.476 E25.02806
G1 X166.72 Y165.268 E25.05656
G1 X166.219 Y166.02 E25.08511
G1 X165.653 Y166.724 E25.11366
G1 X165.028 Y167.375 E25.14217
G1 X164.347 Y167.969 E25.17072
G1 X163.616 Y168.5 E25.19927
G1 X162.842 Y168.964 E25.22779
G1 X162.029 Y169.358 E25.25633
G1 X161.185 Y169.678 E25.28485
G1 X160.315 Y169.923 E25.31341
G1 X159.428 Y170.089 E25.34193
G1 X158.277 Y170.187 E25.37843
G1 X157.956 Y170.196 E25.38857
G1 X157.67 Y170.2 E25.39761
G1 X77.707 Y170.2 E27.92421
G1 X76.877 Y170.19 E27.95044
G1 X75.976 Y170.139 E27.97895
G1 X75.082 Y170.007 E28.00751
G1 X74.204 Y169.798 E28.03602
G1 X73.347 Y169.511 E28.06458
G1 X72.52 Y169.15 E28.09309
G1 X71.727 Y168.717 E28.12164
G1 X70.976 Y168.216 E28.15017
G1 X70.272 Y167.65 E28.17871
G1 X69.621 Y167.024 E28.20725
G1 X69.028 Y166.343 E28.23578
G1 X68.498 Y165.612 E28.26431
G1 X68.034 Y164.837 E28.29285
G1 X67.64 Y164.024 E28.3214
G1 X67.32 Y163.18 E28.34992
G1 X67.076 Y162.31 E28.37847
G1 X66.91 Y161.422 E28.40701
G1 X66.813 Y160.267 E28.44363
G1 X66.804 Y159.934 E28.45416
G1 X66.8 Y159.658 E28.46288
G1 X66.801 Y115.536 E29.85701
G1 X66.81 Y114.871 E29.87802
G1 X66.862 Y113.969 E29.90657
G1 X66.994 Y113.076 E29.93509
G1 X67.204 Y112.198 E29.96362
G1 X67.491 Y111.341 E29.99218
G1 X67.853 Y110.514 E30.0207
G1 X68.286 Y109.722 E30.04922
G1 X68.788 Y108.971 E30.07776
G1 X69.355 Y108.267 E30.10633
G1 X69.981 Y107.617 E30.13484
G1 X70.662 Y107.024 E30.16337
G1 X71.394 Y106.494 E30.19193
G1 F2700 E24.19193
;MESH:cataclysm_box.stl
G0 F7500 X144.327 Y124.665
G0 X144.327 Y123.23
G0 X142.4 Y123.4
;TYPE:WALL-INNER
G1 F2700 E30.19193
G1 F1500 X142.4 Y151.6 E31.08297
G1 X148.6 Y151.6 E31.27887
G1 X148.6 Y123.4 E32.16991
G1 X142.4 Y123.4 E32.36581
G0 F7500 X142.8 Y123.8
;TYPE:WALL-OUTER
G1 F1500 X142.8 Y151.2 E33.18828
G1 X148.2 Y151.2 E33.35038
G1 X148.2 Y123.8 E34.17285
G1 X142.8 Y123.8 E34.33494
G0 F7500 X142.8 Y124.2
G0 X142.36 Y124.2
G1 F2700 E28.33494
G0 F7500 X142.21 Y123.4
G0 X143.653 Y124.653
G0 X132.347 Y124.653
G0 X133.79 Y123.4
G0 X123.4 Y123.4
;TYPE:WALL-INNER
G1 F2700 E34.33494
G1 F1500 X123.4 Y151.6 E35.22598
G1 X133.6 Y151.6 E35.54827
G1 X133.6 Y123.4 E36.43931
G1 X123.4 Y123.4 E36.7616
G0 F7500 X123.8 Y123.8
;TYPE:WALL-OUTER
G1 F1500 X123.8 Y151.2 E37.58407
G1 X133.2 Y151.2 E37.86624
G1 X133.2 Y123.8 E38.68871
G1 X123.8 Y123.8 E38.97087
G0 F7500 X123.8 Y124.2
G0 X123.36 Y124.2
G1 F2700 E32.97087
G0 F7500 X123.21 Y123.4
G0 X124.653 Y124.653
G0 X113.347 Y124.653
G0 X114.79 Y123.4
G0 X97.4 Y123.4
;TYPE:WALL-INNER
G1 F2700 E38.97087
G1 F1500 X97.4 Y151.6 E39.86191
G1 X114.6 Y151.6 E40.40538
G1 X114.6 Y123.4 E41.29642
G1 X97.4 Y123.4 E41.83989
G0 F7500 X97.8 Y123.8
;TYPE:WALL-OUTER
G1 F1500 X97.8 Y151.2 E42.66237
G1 X114.2 Y151.2 E43.15465
G1 X114.2 Y123.8 E43.97712
G1 X97.8 Y123.8 E44.46941
G0 F7500 X97.8 Y124.2
G0 X97.36 Y124.2
G1 F2700 E38.46941
G0 F7500 X97.21 Y123.4
G0 X98.653 Y124.653
G0 X87.347 Y124.653
G0 X88.81 Y123.4
G0 X77.6 Y123.4
;TYPE:WALL-INNER
G1 F2700 E44.46941
G1 F1500 X77.6 Y115.6 E44.71586
G1 X157.4 Y115.6 E47.23731
G1 X157.4 Y159.4 E48.62127
G1 X77.6 Y159.4 E51.14272
G1 X77.6 Y151.6 E51.38918
G1 X88.6 Y151.6 E51.73674
G1 X88.6 Y123.4 E52.62778
G1 X77.6 Y123.4 E52.97535
G0 F7500 X77.8 Y123.8
;TYPE:WALL-OUTER
G1 F1500 X77.8 Y151.2 E53.79783
G1 X88.2 Y151.2 E54.11
G1 X88.2 Y123.8 E54.93248
G1 X77.8 Y123.8 E55.24466
G0 F7500 X77.8 Y124.2
G1 F2700 E49.24466
G0 F7500 X77.6 Y124.2
G0 X77.37 Y115.37
G0 X77.2 Y115.2
G1 F2700 E55.24466
G1 F1500 X157.8 Y115.2 E57.66405
G1 X157.8 Y159.8 E59.00282
G1 X77.2 Y159.8 E61.42221
G1 X77.2 Y115.2 E62.76098
G0 F7500 X77.6 Y115.2
G0 X77.64 Y115.64
G0 X77.99 Y115.99
;TYPE:SKIN
G1 F1500 X157.01 Y115.99 E65.25779
G1 X157.01 Y159.01 E66.6171
G1 X77.99 Y159.01 E69.1139
G1 X77.99 Y151.99 E69.33571
G1 X88.99 Y151.99 E69.68328
G1 X88.99 Y123.01 E70.59897
G1 X77.99 Y123.01 E70.94653
G1 X77.99 Y115.99 E71.16835
G1 F2700 E65.16835
G0 F7500 X77.99 Y115.71
G0 X97.26 Y115.81
G0 X97.26 Y114.335
G0 X98.653 Y124.653
G0 X97.26 Y123.21
G0 X97.26 Y123.29
G0 X97.01 Y123.01
G1 F2700 E71.16835
G1 F1500 X97.01 Y151.99 E72.08403
G1 X114.99 Y151.99 E72.65215
G1 X114.99 Y123.01 E73.56783
G1 X97.01 Y123.01 E74.13595
G1 F2700 E68.13595
G0 F7500 X97.26 Y123.29
G0 X114.79 Y123.29
G0 X113.347 Y124.653
G0 X124.653 Y124.653
G0 X123.21 Y123.29
G0 X123.01 Y123.01
G1 F2700 E74.13595
G1 F1500 X123.01 Y151.99 E75.05163
G1 X133.99 Y151.99 E75.39857
G1 X133.99 Y123.01 E76.31425
G1 X123.01 Y123.01 E76.66119
G1 F2700 E70.66119
G0 F7500 X123.26 Y123.29
G0 X133.79 Y123.29
G0 X132.347 Y124.653
G0 X143.653 Y124.653
G0 X142.21 Y123.29
G0 X142.01 Y123.01
G1 F2700 E76.66119
G1 F1500 X142.01 Y151.99 E77.57688
G1 X148.99 Y151.99 E77.79742
G1 X148.99 Y123.01 E78.71311
G1 X142.01 Y123.01 E78.93366
G1 F2700 E72.93366
G0 F7500 X142.26 Y123.29
G0 X146.464 Y123.23
G0 X146.464 Y124.665
G0 X158.665 Y123.204
G0 X157.19 Y123.204
G0 X157.29 Y116.686
G0 X156.849 Y116.686
G1 F2700 E78.93366
G1 F1500 X156.313 Y116.15 E78.95761
G0 F7500 X155.748 Y116.15
G1 F1500 X156.849 Y117.251 E79.00681
G0 F7500 X156.849 Y117.817
G1 F1500 X155.182 Y116.15 E79.0813
G0 F7500 X154.616 Y116.15
G1 F1500 X156.849 Y118.383 E79.18108
G0 F7500 X156.849 Y118.948
G1 F1500 X154.05 Y116.15 E79.30613
G0 F7500 X153.485 Y116.15
G1 F1500 X156.849 Y119.514 E79.45645
G0 F7500 X156.849 Y120.08
G1 F1500 X152.919 Y116.15 E79.63206
G0 F7500 X152.353 Y116.15
G1 F1500 X156.849 Y120.645 E79.83294
G0 F7500 X156.849 Y121.211
G1 F1500 X151.788 Y116.15 E80.0591
G0 F7500 X151.222 Y116.15
G1 F1500 X156.849 Y121.777 E80.31054
G0 F7500 X156.849 Y122.342
G1 F1500 X150.656 Y116.15 E80.58725
G0 F7500 X150.091 Y116.15
G1 F1500 X156.849 Y122.908 E80.88923
G0 F7500 X156.849 Y123.474
G1 F1500 X149.525 Y116.15 E81.21651
G0 F7500 X148.959 Y116.15
G1 F1500 X156.849 Y124.039 E81.56905
G0 F7500 X156.849 Y124.605
G1 F1500 X148.394 Y116.15 E81.94686
G0 F7500 X147.828 Y116.15
G1 F1500 X156.849 Y125.171 E82.34997
G0 F7500 X156.849 Y125.737
G1 F1500 X147.262 Y116.15 E82.77836
G0 F7500 X146.697 Y116.15
G1 F1500 X156.849 Y126.302 E83.232
G0 F7500 X156.849 Y126.868
G1 F1500 X146.131 Y116.15 E83.71094
G0 F7500 X145.565 Y116.15
G1 F1500 X156.849 Y127.434 E84.21517
G0 F7500 X156.849 Y127.999
G1 F1500 X145 Y116.15 E84.74464
G0 F7500 X144.434 Y116.15
G1 F1500 X156.849 Y128.565 E85.29941
G0 F7500 X156.849 Y129.131
G1 F1500 X143.868 Y116.15 E85.87946
G0 F7500 X143.302 Y116.15
G1 F1500 X156.849 Y129.696 E86.48479
G0 F7500 X156.849 Y130.262
G1 F1500 X142.737 Y116.15 E87.11538
G0 F7500 X142.171 Y116.15
G1 F1500 X148.871 Y122.849 E87.41475
G0 F7500 X149.149 Y123.127
G1 F1500 X156.849 Y130.828 E87.75885
G0 F7500 X156.849 Y131.393
G1 F1500 X149.149 Y123.693 E88.10293
G0 F7500 X149.149 Y124.259
G1 F1500 X156.849 Y131.959 E88.447
G0 F7500 X156.849 Y132.525
G1 F1500 X149.149 Y124.824 E88.7911
G0 F7500 X149.149 Y125.39
G1 F1500 X156.849 Y133.09 E89.13517
G0 F7500 X156.849 Y133.656
G1 F1500 X149.149 Y125.956 E89.47925
G0 F7500 X149.149 Y126.521
G1 F1500 X156.849 Y134.222 E89.82335
G0 F7500 X156.849 Y134.787
G1 F1500 X149.149 Y127.087 E90.16742
G0 F7500 X149.149 Y127.653
G1 F1500 X156.849 Y135.353 E90.5115
G0 F7500 X156.849 Y135.919
G1 F1500 X149.149 Y128.218 E90.85559
G0 F7500 X149.149 Y128.784
G1 F1500 X156.849 Y136.485 E91.19969
G0 F7500 X156.849 Y137.05
G1 F1500 X149.149 Y129.35 E91.54377
G0 F7500 X149.149 Y129.916
G1 F1500 X156.849 Y137.616 E91.88784
G0 F7500 X156.849 Y138.182
G1 F1500 X149.149 Y130.481 E92.23194
G0 F7500 X149.149 Y131.047
G1 F1500 X156.849 Y138.747 E92.57601
G0 F7500 X156.849 Y139.313
G1 F1500 X149.149 Y131.613 E92.92009
G0 F7500 X149.149 Y132.178
G1 F1500 X156.849 Y139.879 E93.26419
G0 F7500 X156.849 Y140.444
G1 F1500 X149.149 Y132.744 E93.60826
G0 F7500 X149.149 Y133.31
G1 F1500 X156.849 Y141.01 E93.95234
G0 F7500 X156.849 Y141.576
G1 F1500 X149.149 Y133.875 E94.29643
G0 F7500 X149.149 Y134.441
G1 F1500 X156.849 Y142.141 E94.64051
G0 F7500 X156.849 Y142.707
G1 F1500 X149.149 Y135.007 E94.98458
G0 F7500 X149.149 Y135.572
G1 F1500 X156.849 Y143.273 E95.32868
G0 F7500 X156.849 Y143.838
G1 F1500 X149.149 Y136.138 E95.67276
G0 F7500 X149.149 Y136.704
G1 F1500 X156.849 Y144.404 E96.01683
G0 F7500 X156.849 Y144.97
G1 F1500 X149.149 Y137.269 E96.36093
G0 F7500 X149.149 Y137.835
G1 F1500 X156.849 Y145.536 E96.70503
G0 F7500 X156.849 Y146.101
G1 F1500 X149.149 Y138.401 E97.0491
