;FLAVOR:Marlin
M117 Time Left 1h56m40s
;TIME:7000
;Filament used: 6.97889m
;Layer height: 0.28
;MINX:72.5
;MINY:104
;MINZ:0.285
;MAXX:162.5
;MAXY:171
;MAXZ:32.765
;POSTPROCESSED
;Generated with Cura_SteamEngine 4.7.1
M140 S60
M105
M190 S60
M104 S200
M105
M109 S200
M82 ;absolute extrusion mode
; Ender 3 Custom Start G-code
G92 E0 ; Reset Extruder
G28 ; Home all axes
; ***SET NEW E STEP *** (93 is factory value - 95 mine - start)
G90                          ; Force coordinates to be absolute relative to the origin
M92 E95 ;					 ; ***SET NEW E STEP *** (93 is factory value - 95 mine - end)
G90                          ; Force coordinates to be absolute relative to the origin
G28                          ; Home X/Y/Z axis
G92 E0 ; Reset Extruder								
G28 ; Home all axes		
G1 Z2.0 F3000 ; Move Z Axis up little to prevent scratching of Heat Bed
G1 X0.1 Y20 Z0.3 F5000.0 ; Move to start position
G1 X0.1 Y200.0 Z0.3 F1500.0 E15 ; Draw the first line
G1 X0.4 Y200.0 Z0.3 F5000.0 ; Move to side a little
G1 X0.4 Y20 Z0.3 F1500.0 E30 ; Draw the second line
G92 E0 ; Reset Extruder
G1 Z2.0 F3000 ; Move Z Axis up little to prevent scratching of Heat Bed
G1 X5 Y20 Z0.3 F5000.0 ; Move over to prevent blob squish
G92 E0
G92 E0
G1 F2700 E-6
;LAYER_COUNT:117
;LAYER:0
M107
M204 S500
M205 X8 Y8
G0 F7500 X77.126 Y106.051 Z0.285
;TYPE:SKIRT
G1 F2700 E0
G1 F1500 X77.912 Y105.539 E0.04224
G1 X78.739 Y105.097 E0.08446
G1 X79.601 Y104.727 E0.12669
G1 X80.491 Y104.431 E0.16893
G1 X81.403 Y104.213 E0.21115
G1 X82.33 Y104.072 E0.25337
G1 X83.201 Y104.013 E0.29267
G1 X83.522 Y104.004 E0.30713
G1 X83.83 Y104 E0.321
G1 X150.793 Y104 E3.33607
G1 X150.951 Y104.001 E3.34318
G1 X151.649 Y104.011 E3.37462
G1 X152.585 Y104.065 E3.41683
G1 X153.513 Y104.197 E3.45904
G1 X154.427 Y104.409 E3.50128
G1 X155.319 Y104.698 E3.5435
G1 X156.184 Y105.061 E3.58574
G1 X157.014 Y105.497 E3.62795
G1 X157.805 Y106.002 E3.67021
G1 X158.549 Y106.573 E3.71243
G1 X159.242 Y107.205 E3.75466
G1 X159.879 Y107.893 E3.79688
G1 X160.454 Y108.634 E3.83911
G1 X160.965 Y109.42 E3.88132
G1 X161.407 Y110.248 E3.92359
G1 X161.776 Y111.11 E3.9658
G1 X162.071 Y112 E4.00802
G1 X162.289 Y112.912 E4.05024
G1 X162.429 Y113.84 E4.0925
G1 X162.487 Y114.701 E4.13135
G1 X162.496 Y115.021 E4.14577
G1 X162.5 Y115.33 E4.15968
G1 X162.499 Y159.4 E6.14397
G1 X162.49 Y160.127 E6.17671
G1 X162.439 Y161.064 E6.21896
G1 X162.307 Y161.992 E6.26117
G1 X162.098 Y162.906 E6.30338
G1 X161.811 Y163.799 E6.34562
G1 X161.449 Y164.665 E6.38788
G1 X161.015 Y165.496 E6.43009
G1 X160.511 Y166.287 E6.47232
G1 X159.942 Y167.032 E6.51453
G1 X159.311 Y167.727 E6.5568
G1 X158.624 Y168.365 E6.59901
G1 X157.885 Y168.942 E6.64123
G1 X157.099 Y169.454 E6.68346
G1 X156.273 Y169.897 E6.72567
G1 X155.411 Y170.269 E6.76794
G1 X154.522 Y170.565 E6.81013
G1 X153.61 Y170.785 E6.85237
G1 X152.683 Y170.926 E6.89459
G1 X151.799 Y170.987 E6.93448
G1 X151.478 Y170.996 E6.94894
G1 X151.17 Y171 E6.96281
G1 X84.207 Y171 E9.97788
G1 X83.367 Y170.99 E10.01571
G1 X82.431 Y170.938 E10.05792
G1 X81.502 Y170.806 E10.10016
G1 X80.588 Y170.596 E10.14239
G1 X79.695 Y170.309 E10.18462
G1 X78.83 Y169.946 E10.22686
G1 X77.999 Y169.512 E10.26907
G1 X77.208 Y169.008 E10.31131
G1 X76.463 Y168.438 E10.35354
G1 X75.769 Y167.807 E10.39577
G1 X75.132 Y167.12 E10.43796
G1 X74.555 Y166.38 E10.48021
G1 X74.043 Y165.594 E10.52245
G1 X73.6 Y164.767 E10.56469
G1 X73.229 Y163.906 E10.6069
G1 X72.933 Y163.016 E10.64913
G1 X72.714 Y162.104 E10.69136
G1 X72.573 Y161.177 E10.73358
G1 X72.513 Y160.288 E10.7737
G1 X72.504 Y159.955 E10.7887
G1 X72.5 Y159.658 E10.80207
G1 X72.501 Y115.525 E12.7892
G1 X72.51 Y114.86 E12.81915
G1 X72.563 Y113.924 E12.86136
G1 X72.695 Y112.995 E12.90361
G1 X72.906 Y112.081 E12.94584
G1 X73.194 Y111.189 E12.98805
G1 X73.557 Y110.324 E13.03029
G1 X73.992 Y109.493 E13.07252
G1 X74.496 Y108.703 E13.11471
G1 X75.066 Y107.958 E13.15695
G1 X75.698 Y107.264 E13.19921
G1 X76.386 Y106.627 E13.24143
G1 X77.126 Y106.051 E13.28365
G0 F7500 X77.51 Y106.27
G1 F1500 X78.291 Y105.782 E13.32512
G1 X79.111 Y105.364 E13.36656
G1 X79.965 Y105.019 E13.40803
G1 X80.845 Y104.749 E13.44948
G1 X81.745 Y104.557 E13.49091
G1 X82.659 Y104.443 E13.53238
G1 X83.212 Y104.413 E13.55732
G1 X83.533 Y104.404 E13.57178
G1 X83.83 Y104.4 E13.58515
G1 X150.793 Y104.4 E16.60022
G1 X151.643 Y104.411 E16.6385
G1 X152.562 Y104.464 E16.67995
G1 X153.473 Y104.597 E16.7214
G1 X154.369 Y104.808 E16.76285
G1 X155.243 Y105.096 E16.80428
G1 X156.09 Y105.459 E16.84577
G1 X156.901 Y105.894 E16.88721
G1 X157.671 Y106.398 E16.92865
G1 X158.395 Y106.967 E16.97011
G1 X159.067 Y107.597 E17.01158
G1 X159.682 Y108.282 E17.05303
G1 X160.235 Y109.018 E17.09448
G1 X160.722 Y109.799 E17.13592
G1 X161.139 Y110.62 E17.17739
G1 X161.484 Y111.474 E17.21886
G1 X161.753 Y112.354 E17.26029
G1 X161.945 Y113.255 E17.30177
G1 X162.058 Y114.168 E17.34319
G1 X162.087 Y114.712 E17.36772
G1 X162.096 Y115.032 E17.38213
G1 X162.1 Y115.33 E17.39555
G1 X162.099 Y159.395 E19.37962
G1 X162.09 Y160.122 E19.41236
G1 X162.039 Y161.041 E19.4538
G1 X161.908 Y161.953 E19.49528
G1 X161.698 Y162.849 E19.53672
G1 X161.412 Y163.724 E19.57817
G1 X161.051 Y164.571 E19.61962
G1 X160.617 Y165.383 E19.66108
G1 X160.115 Y166.155 E19.70254
G1 X159.547 Y166.88 E19.74401
G1 X158.919 Y167.553 E19.78546
G1 X158.235 Y168.169 E19.8269
G1 X157.5 Y168.723 E19.86835
G1 X156.72 Y169.212 E19.9098
G1 X155.9 Y169.631 E19.95126
G1 X155.047 Y169.977 E19.99271
G1 X154.167 Y170.248 E20.03417
G1 X153.267 Y170.441 E20.07561
G1 X152.353 Y170.556 E20.11709
G1 X151.788 Y170.587 E20.14257
G1 X151.467 Y170.596 E20.15703
G1 X151.17 Y170.6 E20.1704
G1 X84.207 Y170.6 E23.18547
G1 X83.372 Y170.59 E23.22307
G1 X82.453 Y170.538 E23.26451
G1 X81.542 Y170.407 E23.30595
G1 X80.646 Y170.197 E23.34739
G1 X79.771 Y169.91 E23.38885
G1 X78.924 Y169.548 E23.43033
G1 X78.112 Y169.114 E23.47178
G1 X77.341 Y168.612 E23.51321
G1 X76.616 Y168.044 E23.55468
G1 X75.943 Y167.415 E23.59615
G1 X75.328 Y166.731 E23.63757
G1 X74.774 Y165.996 E23.67901
G1 X74.286 Y165.215 E23.72048
G1 X73.867 Y164.395 E23.76194
G1 X73.521 Y163.542 E23.80339
G1 X73.251 Y162.662 E23.84483
G1 X73.058 Y161.761 E23.88632
G1 X72.944 Y160.848 E23.92775
G1 X72.913 Y160.277 E23.9535
G1 X72.904 Y159.944 E23.96849
G1 X72.9 Y159.658 E23.98137
G1 X72.901 Y115.531 E25.96823
G1 X72.91 Y114.866 E25.99818
G1 X72.962 Y113.946 E26.03967
G1 X73.094 Y113.035 E26.08111
G1 X73.305 Y112.139 E26.12256
G1 X73.592 Y111.264 E26.16402
G1 X73.955 Y110.418 E26.20547
G1 X74.389 Y109.606 E26.24693
G1 X74.892 Y108.835 E26.28838
G1 X75.461 Y108.111 E26.32984
G1 X76.089 Y107.439 E26.37125
G1 X76.774 Y106.823 E26.41273
G1 X77.51 Y106.27 E26.45418
G0 F7500 X77.894 Y106.494
G1 F1500 X78.669 Y106.031 E26.49483
G1 X79.482 Y105.638 E26.53549
G1 X80.327 Y105.318 E26.57617
G1 X81.196 Y105.075 E26.6168
G1 X82.084 Y104.909 E26.65748
G1 X83.223 Y104.813 E26.70894
G1 X83.544 Y104.804 E26.7234
G1 X83.83 Y104.8 E26.73628
G1 X150.793 Y104.8 E29.75135
G1 X151.637 Y104.811 E29.78936
G1 X152.539 Y104.864 E29.83004
G1 X153.432 Y104.996 E29.87069
G1 X154.31 Y105.207 E29.91134
G1 X155.166 Y105.495 E29.95201
G1 X155.993 Y105.857 E29.99266
G1 X156.785 Y106.292 E30.03334
G1 X157.536 Y106.794 E30.07402
G1 X158.239 Y107.361 E30.11468
G1 X158.889 Y107.988 E30.15534
G1 X159.481 Y108.67 E30.19601
G1 X160.011 Y109.401 E30.23666
G1 X160.473 Y110.177 E30.27733
G1 X160.866 Y110.99 E30.31798
G1 X161.184 Y111.835 E30.35864
G1 X161.427 Y112.705 E30.39931
G1 X161.592 Y113.593 E30.43998
G1 X161.687 Y114.723 E30.49103
G1 X161.696 Y115.043 E30.50545
G1 X161.7 Y115.33 E30.51837
G1 X161.699 Y159.39 E32.50221
G1 X161.69 Y160.117 E32.53495
G1 X161.639 Y161.019 E32.57563
G1 X161.508 Y161.913 E32.61631
G1 X161.299 Y162.791 E32.65695
G1 X161.013 Y163.648 E32.69763
G1 X160.652 Y164.476 E32.7383
G1 X160.22 Y165.268 E32.77892
G1 X159.719 Y166.02 E32.8196
G1 X159.153 Y166.724 E32.86028
G1 X158.528 Y167.375 E32.90091
G1 X157.847 Y167.969 E32.9416
G1 X157.116 Y168.5 E32.98228
G1 X156.342 Y168.964 E33.02291
G1 X155.529 Y169.358 E33.06359
G1 X154.685 Y169.678 E33.10423
G1 X153.815 Y169.923 E33.14493
G1 X152.928 Y170.089 E33.18556
G1 X151.777 Y170.187 E33.23757
G1 X151.456 Y170.196 E33.25203
G1 X151.17 Y170.2 E33.26491
G1 X84.207 Y170.2 E36.27998
G1 X83.377 Y170.19 E36.31735
G1 X82.476 Y170.139 E36.35799
G1 X81.582 Y170.007 E36.39868
G1 X80.704 Y169.798 E36.43931
G1 X79.847 Y169.511 E36.48001
G1 X79.02 Y169.15 E36.52064
G1 X78.227 Y168.717 E36.56132
G1 X77.476 Y168.216 E36.60197
G1 X76.772 Y167.65 E36.64264
G1 X76.121 Y167.024 E36.6833
G1 X75.528 Y166.343 E36.72396
G1 X74.998 Y165.612 E36.76462
G1 X74.534 Y164.837 E36.80529
G1 X74.14 Y164.024 E36.84597
G1 X73.82 Y163.18 E36.88661
G1 X73.576 Y162.31 E36.92729
G1 X73.41 Y161.422 E36.96797
G1 X73.313 Y160.267 E37.02016
G1 X73.304 Y159.934 E37.03516
G1 X73.3 Y159.658 E37.04758
G1 X73.301 Y115.536 E39.03422
G1 X73.31 Y114.871 E39.06416
G1 X73.362 Y113.969 E39.10484
G1 X73.494 Y113.076 E39.14549
G1 X73.704 Y112.198 E39.18614
G1 X73.991 Y111.341 E39.22683
G1 X74.353 Y110.514 E39.26748
G1 X74.786 Y109.722 E39.30812
G1 X75.288 Y108.971 E39.34879
G1 X75.855 Y108.267 E39.38949
G1 X76.481 Y107.617 E39.43013
G1 X77.162 Y107.024 E39.47078
G1 X77.894 Y106.494 E39.51147
G1 F2700 E33.51147
;MESH:fireland_box.stl
G0 F7500 X83.814 Y114.335
G0 X83.814 Y115.314
G0 X84.1 Y123.4
;TYPE:WALL-INNER
G1 F2700 E39.51147
G1 F1800 X84.1 Y115.6 E39.86268
G1 X150.9 Y115.6 E42.87041
G1 X150.9 Y159.4 E44.84254
G1 X84.1 Y159.4 E47.85027
G1 X84.1 Y151.6 E48.20148
G1 X92.1 Y151.6 E48.56168
G1 X92.1 Y123.4 E49.83141
G1 X84.1 Y123.4 E50.19162
G0 F7500 X84.3 Y123.8
;TYPE:WALL-OUTER
G1 F1800 X84.3 Y151.2 E51.36364
G1 X91.7 Y151.2 E51.68018
G1 X91.7 Y123.8 E52.8522
G1 X84.3 Y123.8 E53.16873
G0 F7500 X84.3 Y124.2
G1 F2700 E47.16873
G0 F7500 X84.1 Y124.2
G0 X83.87 Y115.37
G0 X83.7 Y115.2
G1 F2700 E53.16873
G1 F1800 X151.3 Y115.2 E56.0603
G1 X151.3 Y159.8 E57.96804
G1 X83.7 Y159.8 E60.85961
G1 X83.7 Y115.2 E62.76736
G0 F7500 X84.1 Y115.2
G0 X84.14 Y115.64
G0 X84.49 Y115.99
;TYPE:SKIN
G1 F1800 X150.51 Y115.99 E65.73997
G1 X150.51 Y159.01 E67.67698
G1 X84.49 Y159.01 E70.64959
G1 X84.49 Y151.99 E70.96567
G1 X92.49 Y151.99 E71.32588
G1 X92.49 Y123.01 E72.63073
G1 X84.49 Y123.01 E72.99094
G1 X84.49 Y115.99 E73.30702
G1 F2700 E67.30702
G0 F7500 X84.49 Y115.71
G0 X84.282 Y115.782
G0 X84.172 Y123.672
G0 X84.172 Y151.328
G0 X84.282 Y159.218
G0 X84.744 Y159.29
G0 X84.744 Y158.849
G1 F2700 E73.30702
G1 F1800 X84.649 Y158.754 E73.31307
G0 F7500 X84.649 Y158.188
G1 F1800 X85.31 Y158.849 E73.35516
G0 F7500 X85.875 Y158.849
G1 F1800 X84.649 Y157.623 E73.43323
G0 F7500 X84.649 Y157.057
G1 F1800 X86.441 Y158.849 E73.54733
G0 F7500 X87.007 Y158.849
G1 F1800 X84.649 Y156.491 E73.69748
G0 F7500 X84.649 Y155.926
G1 F1800 X87.573 Y158.849 E73.88364
G0 F7500 X88.138 Y158.849
G1 F1800 X84.649 Y155.36 E74.10581
G0 F7500 X84.649 Y154.794
G1 F1800 X88.704 Y158.849 E74.36401
G0 F7500 X89.27 Y158.849
G1 F1800 X84.649 Y154.229 E74.65823
G0 F7500 X84.649 Y153.663
G1 F1800 X89.835 Y158.849 E74.98846
G0 F7500 X90.401 Y158.849
G1 F1800 X84.649 Y153.097 E75.35472
G0 F7500 X84.649 Y152.532
G1 F1800 X90.967 Y158.849 E75.757
G0 F7500 X91.532 Y158.849
G1 F1800 X84.832 Y152.148 E76.18366
G0 F7500 X85.397 Y152.148
G1 F1800 X92.098 Y158.849 E76.61035
G0 F7500 X92.664 Y158.849
G1 F1800 X85.963 Y152.148 E77.03705
G0 F7500 X86.529 Y152.148
G1 F1800 X93.229 Y158.849 E77.46371
G0 F7500 X93.795 Y158.849
G1 F1800 X87.095 Y152.148 E77.89037
G0 F7500 X87.66 Y152.148
G1 F1800 X94.361 Y158.849 E78.31707
G0 F7500 X94.926 Y158.849
G1 F1800 X88.226 Y152.148 E78.74373
G0 F7500 X88.792 Y152.148
G1 F1800 X95.492 Y158.849 E79.17039
G0 F7500 X96.058 Y158.849
G1 F1800 X89.357 Y152.148 E79.59709
G0 F7500 X89.923 Y152.148
G1 F1800 X96.624 Y158.849 E80.02378
G0 F7500 X97.189 Y158.849
G1 F1800 X90.489 Y152.148 E80.45045
G0 F7500 X91.054 Y152.148
G1 F1800 X97.755 Y158.849 E80.87714
G0 F7500 X98.321 Y158.849
G1 F1800 X91.62 Y152.148 E81.30383
G0 F7500 X92.186 Y152.148
G1 F1800 X98.886 Y158.849 E81.7305
G0 F7500 X99.452 Y158.849
G1 F1800 X92.65 Y152.047 E82.16362
G0 F7500 X92.65 Y151.481
G1 F1800 X100.018 Y158.849 E82.63279
G0 F7500 X100.583 Y158.849
G1 F1800 X92.65 Y150.915 E83.13797
G0 F7500 X92.65 Y150.349
G1 F1800 X101.149 Y158.849 E83.67918
G0 F7500 X101.715 Y158.849
G1 F1800 X92.65 Y149.784 E84.25641
G0 F7500 X92.65 Y149.218
G1 F1800 X102.28 Y158.849 E84.86964
G0 F7500 X102.846 Y158.849
G1 F1800 X92.65 Y148.652 E85.51892
G0 F7500 X92.65 Y148.087
G1 F1800 X103.412 Y158.849 E86.2042
G0 F7500 X103.977 Y158.849
G1 F1800 X92.65 Y147.521 E86.92549
G0 F7500 X92.65 Y146.955
G1 F1800 X104.543 Y158.849 E87.68283
G0 F7500 X105.109 Y158.849
G1 F1800 X92.65 Y146.39 E88.47617
G0 F7500 X92.65 Y145.824
G1 F1800 X105.674 Y158.849 E89.30552
G0 F7500 X106.24 Y158.849
G1 F1800 X92.65 Y145.258 E90.17091
G0 F7500 X92.65 Y144.693
G1 F1800 X106.806 Y158.849 E91.07231
G0 F7500 X107.372 Y158.849
G1 F1800 X92.65 Y144.127 E92.00975
G0 F7500 X92.65 Y143.561
G1 F1800 X107.937 Y158.849 E92.9832
G0 F7500 X108.503 Y158.849
G1 F1800 X92.65 Y142.996 E93.99266
G0 F7500 X92.65 Y142.43
G1 F1800 X109.069 Y158.849 E95.03816
G0 F7500 X109.634 Y158.849
G1 F1800 X92.65 Y141.864 E96.11967
G0 F7500 X92.65 Y141.299
G1 F1800 X110.2 Y158.849 E97.23719
G0 F7500 X110.766 Y158.849
G1 F1800 X92.65 Y140.733 E98.39075
G0 F7500 X92.65 Y140.167
G1 F1800 X111.331 Y158.849 E99.58032
G0 F7500 X111.897 Y158.849
G1 F1800 X92.65 Y139.601 E100.80593
G0 F7500 X92.65 Y139.036
G1 F1800 X112.463 Y158.849 E102.06755
G0 F7500 X113.028 Y158.849
G1 F1800 X92.65 Y138.47 E103.36517
G0 F7500 X92.65 Y137.904
G1 F1800 X113.594 Y158.849 E104.69884
G0 F7500 X114.16 Y158.849
G1 F1800 X92.65 Y137.339 E106.06851
G0 F7500 X92.65 Y136.773
G1 F1800 X114.725 Y158.849 E107.4742
G0 F7500 X115.291 Y158.849
G1 F1800 X92.65 Y136.207 E108.91593
G0 F7500 X92.65 Y135.642
G1 F1800 X115.857 Y158.849 E110.39366
G0 F7500 X116.423 Y158.849
G1 F1800 X92.65 Y135.076 E111.90744
G0 F7500 X92.65 Y134.51
G1 F1800 X116.988 Y158.849 E113.45722
G0 F7500 X117.554 Y158.849
G1 F1800 X92.65 Y133.945 E115.04301
G0 F7500 X92.65 Y133.379
G1 F1800 X118.12 Y158.849 E116.66485
G0 F7500 X118.685 Y158.849
G1 F1800 X92.65 Y132.813 E118.32269
G0 F7500 X92.65 Y132.248
G1 F1800 X119.251 Y158.849 E120.01654
G0 F7500 X119.817 Y158.849
G1 F1800 X92.65 Y131.682 E121.74644
G0 F7500 X92.65 Y131.116
G1 F1800 X120.382 Y158.849 E123.51234
G0 F7500 X120.948 Y158.849
G1 F1800 X92.65 Y130.551 E125.31425
G0 F7500 X92.65 Y129.985
G1 F1800 X121.514 Y158.849 E127.1522
G0 F7500 X122.079 Y158.849
G1 F1800 X92.65 Y129.419 E129.02616
G0 F7500 X92.65 Y128.853
G1 F1800 X122.645 Y158.849 E130.93616
G0 F7500 X123.211 Y158.849
G1 F1800 X92.65 Y128.288 E132.88217
G0 F7500 X92.65 Y127.722
G1 F1800 X123.776 Y158.849 E134.86419
G0 F7500 X124.342 Y158.849
G1 F1800 X92.65 Y127.156 E136.88225
G0 F7500 X92.65 Y126.591
G1 F1800 X124.908 Y158.849 E138.93632
G0 F7500 X125.473 Y158.849
G1 F1800 X92.65 Y126.025 E141.02639
G0 F7500 X92.65 Y125.459
G1 F1800 X126.039 Y158.849 E143.15251
G0 F7500 X126.605 Y158.849
G1 F1800 X92.65 Y124.894 E145.31464
G0 F7500 X92.65 Y124.328
G1 F1800 X127.171 Y158.849 E147.51281
G0 F7500 X127.736 Y158.849
G1 F1800 X92.65 Y123.762 E149.74698
G0 F7500 X92.65 Y123.197
G1 F1800 X128.302 Y158.849 E152.01717
G0 F7500 X128.868 Y158.849
G1 F1800 X86.168 Y116.149 E154.73614
G0 F7500 X86.733 Y116.149
G1 F1800 X129.433 Y158.849 E157.45512
G0 F7500 X129.999 Y158.849
G1 F1800 X87.299 Y116.149 E160.1741
G0 F7500 X87.865 Y116.149
G1 F1800 X130.565 Y158.849 E162.89307
G0 F7500 X131.13 Y158.849
G1 F1800 X88.43 Y116.149 E165.61205
G0 F7500 X88.996 Y116.149
G1 F1800 X131.696 Y158.849 E168.33102
G0 F7500 X132.262 Y158.849
G1 F1800 X89.562 Y116.149 E171.05
G0 F7500 X90.127 Y116.149
G1 F1800 X132.827 Y158.849 E173.76898
G0 F7500 X133.393 Y158.849
G1 F1800 X90.693 Y116.149 E176.48795
G0 F7500 X91.259 Y116.149
G1 F1800 X133.959 Y158.849 E179.20693
G0 F7500 X134.524 Y158.849
G1 F1800 X91.824 Y116.149 E181.9259
G0 F7500 X92.39 Y116.149
G1 F1800 X135.09 Y158.849 E184.64488
