;FLAVOR:Marlin
M117 Time Left 8h01m50s
;TIME:28910
;Filament used: 21.3174m
;Layer height: 0.2
;MINX:23
;MINY:124
;MINZ:0.2
;MAXX:232
;MAXY:191
;MAXZ:33
;POSTPROCESSED
;Generated with Cura_SteamEngine 4.7.1
M140 S60
M105
M190 S60
M104 S200
M105
M109 S200
M82 ;absolute extrusion mode
; Ender 3 Custom Start G-code
G92 E0 ; Reset Extruder
G28 ; Home all axes
; ***SET NEW E STEP *** (93 is factory value - 95 mine - start)
G90                          ; Force coordinates to be absolute relative to the origin
M92 E95 ;					 ; ***SET NEW E STEP *** (93 is factory value - 95 mine - end)
G90                          ; Force coordinates to be absolute relative to the origin
G28                          ; Home X/Y/Z axis
G92 E0 ; Reset Extruder								
G28 ; Home all axes		
G1 Z2.0 F3000 ; Move Z Axis up little to prevent scratching of Heat Bed
G1 X0.1 Y20 Z0.3 F5000.0 ; Move to start position
G1 X0.1 Y200.0 Z0.3 F1500.0 E15 ; Draw the first line
G1 X0.4 Y200.0 Z0.3 F5000.0 ; Move to side a little
G1 X0.4 Y20 Z0.3 F1500.0 E30 ; Draw the second line
G92 E0 ; Reset Extruder
G1 Z2.0 F3000 ; Move Z Axis up little to prevent scratching of Heat Bed
G1 X5 Y20 Z0.3 F5000.0 ; Move over to prevent blob squish
G92 E0
G92 E0
G1 F2700 E-6
;LAYER_COUNT:165
;LAYER:0
M107
M204 S500
M205 X8 Y8
G0 F7500 X30.991 Y124.431 Z0.2
;TYPE:SKIRT
G1 F2700 E0
G1 F1500 X31.903 Y124.213 E0.02963
G1 X32.83 Y124.072 E0.05926
G1 X33.701 Y124.013 E0.08684
G1 X34.022 Y124.004 E0.09699
G1 X34.33 Y124 E0.10672
G1 X220.293 Y124 E5.98262
G1 X220.451 Y124.001 E5.98761
G1 X221.149 Y124.011 E6.00967
G1 X222.085 Y124.065 E6.03929
G1 X223.013 Y124.197 E6.06891
G1 X223.927 Y124.409 E6.09855
G1 X224.819 Y124.698 E6.12818
G1 X225.684 Y125.061 E6.15782
G1 X226.514 Y125.497 E6.18744
G1 X227.305 Y126.002 E6.2171
G1 X228.049 Y126.573 E6.24673
G1 X228.742 Y127.205 E6.27637
G1 X229.379 Y127.893 E6.30599
G1 X229.954 Y128.634 E6.33563
G1 X230.465 Y129.42 E6.36525
G1 X230.907 Y130.248 E6.39491
G1 X231.276 Y131.11 E6.42453
G1 X231.571 Y132 E6.45416
G1 X231.789 Y132.912 E6.48379
G1 X231.929 Y133.84 E6.51344
G1 X231.987 Y134.701 E6.54071
G1 X231.996 Y135.021 E6.55082
G1 X232 Y135.33 E6.56059
G1 X231.999 Y179.4 E7.95307
G1 X231.99 Y180.127 E7.97605
G1 X231.939 Y181.064 E8.0057
G1 X231.807 Y181.992 E8.03531
G1 X231.598 Y182.906 E8.06494
G1 X231.311 Y183.799 E8.09458
G1 X230.949 Y184.665 E8.12424
G1 X230.515 Y185.496 E8.15386
G1 X230.011 Y186.287 E8.18349
G1 X229.442 Y187.032 E8.21311
G1 X228.811 Y187.727 E8.24277
G1 X228.124 Y188.365 E8.2724
G1 X227.385 Y188.942 E8.30202
G1 X226.599 Y189.454 E8.33166
G1 X225.773 Y189.897 E8.36128
G1 X224.911 Y190.269 E8.39094
G1 X224.022 Y190.565 E8.42055
G1 X223.11 Y190.785 E8.45019
G1 X222.183 Y190.926 E8.47982
G1 X221.299 Y190.987 E8.50782
G1 X220.978 Y190.996 E8.51797
G1 X220.67 Y191 E8.5277
G1 X34.707 Y191 E14.40359
G1 X33.867 Y190.99 E14.43014
G1 X32.931 Y190.938 E14.45976
G1 X32.002 Y190.806 E14.48941
G1 X31.088 Y190.596 E14.51904
G1 X30.195 Y190.309 E14.54868
G1 X29.33 Y189.946 E14.57832
G1 X28.499 Y189.512 E14.60794
G1 X27.708 Y189.008 E14.63758
G1 X26.963 Y188.438 E14.66722
G1 X26.269 Y187.807 E14.69685
G1 X25.632 Y187.12 E14.72646
G1 X25.055 Y186.38 E14.7561
G1 X24.543 Y185.594 E14.78574
G1 X24.1 Y184.767 E14.81539
G1 X23.729 Y183.906 E14.84501
G1 X23.433 Y183.016 E14.87465
G1 X23.214 Y182.104 E14.90428
G1 X23.073 Y181.177 E14.93391
G1 X23.013 Y180.288 E14.96206
G1 X23.004 Y179.955 E14.97259
G1 X23 Y179.658 E14.98198
G1 X23.001 Y135.525 E16.37645
G1 X23.01 Y134.86 E16.39747
G1 X23.063 Y133.924 E16.42709
G1 X23.195 Y132.995 E16.45674
G1 X23.406 Y132.081 E16.48638
G1 X23.694 Y131.189 E16.51599
G1 X24.057 Y130.324 E16.54563
G1 X24.492 Y129.493 E16.57527
G1 X24.996 Y128.703 E16.60488
G1 X25.566 Y127.958 E16.63452
G1 X26.198 Y127.264 E16.66418
G1 X26.886 Y126.627 E16.6938
G1 X27.626 Y126.051 E16.72343
G1 X28.412 Y125.539 E16.75307
G1 X29.239 Y125.097 E16.7827
G1 X30.101 Y124.727 E16.81234
G1 X30.991 Y124.431 E16.84198
G0 F7500 X31.345 Y124.749
G1 F1500 X32.245 Y124.557 E16.87106
G1 X33.159 Y124.443 E16.90016
G1 X33.712 Y124.413 E16.91766
G1 X34.033 Y124.404 E16.9278
G1 X34.33 Y124.4 E16.93719
G1 X220.293 Y124.4 E22.81309
G1 X221.143 Y124.411 E22.83995
G1 X222.062 Y124.464 E22.86903
G1 X222.973 Y124.597 E22.89812
G1 X223.869 Y124.808 E22.92721
G1 X224.743 Y125.096 E22.95628
G1 X225.59 Y125.459 E22.9854
G1 X226.401 Y125.894 E23.01448
G1 X227.171 Y126.398 E23.04356
G1 X227.895 Y126.967 E23.07265
G1 X228.567 Y127.597 E23.10176
G1 X229.182 Y128.282 E23.13085
G1 X229.735 Y129.018 E23.15994
G1 X230.222 Y129.799 E23.18902
G1 X230.639 Y130.62 E23.21811
G1 X230.984 Y131.474 E23.24722
G1 X231.253 Y132.354 E23.27629
G1 X231.445 Y133.255 E23.3054
G1 X231.558 Y134.168 E23.33447
G1 X231.587 Y134.712 E23.35168
G1 X231.596 Y135.032 E23.3618
G1 X231.6 Y135.33 E23.37121
G1 X231.599 Y179.395 E24.76354
G1 X231.59 Y180.122 E24.78651
G1 X231.539 Y181.041 E24.8156
G1 X231.408 Y181.953 E24.84471
G1 X231.198 Y182.849 E24.87379
G1 X230.912 Y183.724 E24.90287
G1 X230.551 Y184.571 E24.93196
G1 X230.117 Y185.383 E24.96106
G1 X229.615 Y186.155 E24.99015
G1 X229.047 Y186.88 E25.01925
G1 X228.419 Y187.553 E25.04834
G1 X227.735 Y188.169 E25.07742
G1 X227 Y188.723 E25.10651
G1 X226.22 Y189.212 E25.13559
G1 X225.4 Y189.631 E25.16469
G1 X224.547 Y189.977 E25.19378
G1 X223.667 Y190.248 E25.22287
G1 X222.767 Y190.441 E25.25195
G1 X221.853 Y190.556 E25.28106
G1 X221.288 Y190.587 E25.29894
G1 X220.967 Y190.596 E25.30909
G1 X220.67 Y190.6 E25.31847
G1 X34.707 Y190.6 E31.19437
G1 X33.872 Y190.59 E31.22076
G1 X32.953 Y190.538 E31.24984
G1 X32.042 Y190.407 E31.27892
G1 X31.146 Y190.197 E31.308
G1 X30.271 Y189.91 E31.3371
G1 X29.424 Y189.548 E31.3662
G1 X28.612 Y189.114 E31.39529
G1 X27.841 Y188.612 E31.42436
G1 X27.116 Y188.044 E31.45346
G1 X26.443 Y187.415 E31.48257
G1 X25.828 Y186.731 E31.51163
G1 X25.274 Y185.996 E31.54072
G1 X24.786 Y185.215 E31.56981
G1 X24.367 Y184.395 E31.59891
G1 X24.021 Y183.542 E31.628
G1 X23.751 Y182.662 E31.65708
G1 X23.558 Y181.761 E31.6862
G1 X23.444 Y180.848 E31.71527
G1 X23.413 Y180.277 E31.73334
G1 X23.404 Y179.944 E31.74386
G1 X23.4 Y179.658 E31.7529
G1 X23.401 Y135.531 E33.14719
G1 X23.41 Y134.866 E33.1682
G1 X23.462 Y133.946 E33.19732
G1 X23.594 Y133.035 E33.2264
G1 X23.805 Y132.139 E33.25549
G1 X24.092 Y131.264 E33.28458
G1 X24.455 Y130.418 E33.31367
G1 X24.889 Y129.606 E33.34276
G1 X25.392 Y128.835 E33.37185
G1 X25.961 Y128.111 E33.40095
G1 X26.589 Y127.439 E33.43001
G1 X27.274 Y126.823 E33.45912
G1 X28.01 Y126.27 E33.4882
G1 X28.791 Y125.782 E33.5173
G1 X29.611 Y125.364 E33.54639
G1 X30.465 Y125.019 E33.57549
G1 X31.345 Y124.749 E33.60457
G0 F7500 X30.827 Y125.318
G1 F1500 X31.696 Y125.075 E33.63308
G1 X32.584 Y124.909 E33.66163
G1 X33.723 Y124.813 E33.69774
G1 X34.044 Y124.804 E33.70789
G1 X34.33 Y124.8 E33.71693
G1 X220.293 Y124.8 E39.59283
G1 X221.137 Y124.811 E39.6195
G1 X222.039 Y124.864 E39.64805
G1 X222.932 Y124.996 E39.67657
G1 X223.81 Y125.207 E39.7051
G1 X224.666 Y125.495 E39.73364
G1 X225.493 Y125.857 E39.76216
G1 X226.285 Y126.292 E39.79071
G1 X227.036 Y126.794 E39.81926
G1 X227.739 Y127.361 E39.84779
G1 X228.389 Y127.988 E39.87633
G1 X228.981 Y128.67 E39.90486
G1 X229.511 Y129.401 E39.93339
G1 X229.973 Y130.177 E39.96193
G1 X230.366 Y130.99 E39.99046
G1 X230.684 Y131.835 E40.01899
G1 X230.927 Y132.705 E40.04753
G1 X231.092 Y133.593 E40.07607
G1 X231.187 Y134.723 E40.1119
G1 X231.196 Y135.043 E40.12202
G1 X231.2 Y135.33 E40.13109
G1 X231.199 Y179.39 E41.52325
G1 X231.19 Y180.117 E41.54623
G1 X231.139 Y181.019 E41.57477
G1 X231.008 Y181.913 E41.60332
G1 X230.799 Y182.791 E41.63184
G1 X230.513 Y183.648 E41.66039
G1 X230.152 Y184.476 E41.68893
G1 X229.72 Y185.268 E41.71743
G1 X229.219 Y186.02 E41.74599
G1 X228.653 Y186.724 E41.77453
G1 X228.028 Y187.375 E41.80304
G1 X227.347 Y187.969 E41.8316
G1 X226.616 Y188.5 E41.86014
G1 X225.842 Y188.964 E41.88866
G1 X225.029 Y189.358 E41.9172
G1 X224.185 Y189.678 E41.94572
G1 X223.315 Y189.923 E41.97428
G1 X222.428 Y190.089 E42.0028
G1 X221.277 Y190.187 E42.0393
G1 X220.956 Y190.196 E42.04944
G1 X220.67 Y190.2 E42.05848
G1 X34.707 Y190.2 E47.93438
G1 X33.877 Y190.19 E47.9606
G1 X32.976 Y190.139 E47.98912
G1 X32.082 Y190.007 E48.01767
G1 X31.204 Y189.798 E48.04619
G1 X30.347 Y189.511 E48.07475
G1 X29.52 Y189.15 E48.10326
G1 X28.727 Y188.717 E48.13181
G1 X27.976 Y188.216 E48.16033
G1 X27.272 Y187.65 E48.18888
G1 X26.621 Y187.024 E48.21741
G1 X26.028 Y186.343 E48.24594
G1 X25.498 Y185.612 E48.27447
G1 X25.034 Y184.837 E48.30302
G1 X24.64 Y184.024 E48.33156
G1 X24.32 Y183.18 E48.36008
G1 X24.076 Y182.31 E48.38863
G1 X23.91 Y181.422 E48.41718
G1 X23.813 Y180.267 E48.4538
G1 X23.804 Y179.934 E48.46433
G1 X23.8 Y179.658 E48.47305
G1 X23.801 Y135.536 E49.86718
G1 X23.81 Y134.871 E49.88819
G1 X23.862 Y133.969 E49.91674
G1 X23.994 Y133.076 E49.94526
G1 X24.204 Y132.198 E49.97378
G1 X24.491 Y131.341 E50.00234
G1 X24.853 Y130.514 E50.03087
G1 X25.286 Y129.722 E50.05939
G1 X25.788 Y128.971 E50.08793
G1 X26.355 Y128.267 E50.11649
G1 X26.981 Y127.617 E50.14501
G1 X27.662 Y127.024 E50.17354
G1 X28.394 Y126.494 E50.20209
G1 X29.169 Y126.031 E50.23062
G1 X29.982 Y125.638 E50.25915
G1 X30.827 Y125.318 E50.2877
G1 F2700 E44.2877
;MESH:common_box.stl
G0 F7500 X209.327 Y144.665
G0 X209.327 Y143.23
G0 X207.4 Y143.4
;TYPE:WALL-INNER
G1 F2700 E50.2877
G1 F1500 X207.4 Y171.6 E51.17874
G1 X211.6 Y171.6 E51.31145
G1 X211.6 Y143.4 E52.20249
G1 X207.4 Y143.4 E52.33519
G0 F7500 X207.8 Y143.8
;TYPE:WALL-OUTER
G1 F1500 X207.8 Y171.2 E53.15767
G1 X211.2 Y171.2 E53.25973
G1 X211.2 Y143.8 E54.0822
G1 X207.8 Y143.8 E54.18426
G0 F7500 X207.8 Y144.2
G0 X207.36 Y144.2
G1 F2700 E48.18426
G0 F7500 X207.21 Y143.4
G0 X208.653 Y144.653
G0 X197.347 Y144.653
G0 X198.79 Y143.4
G0 X192.4 Y143.4
;TYPE:WALL-INNER
G1 F2700 E54.18426
G1 F1500 X192.4 Y171.6 E55.0753
G1 X198.6 Y171.6 E55.2712
G1 X198.6 Y143.4 E56.16224
G1 X192.4 Y143.4 E56.35814
G0 F7500 X192.8 Y143.8
;TYPE:WALL-OUTER
G1 F1500 X192.8 Y171.2 E57.18061
G1 X198.2 Y171.2 E57.34271
G1 X198.2 Y143.8 E58.16518
G1 X192.8 Y143.8 E58.32727
G0 F7500 X192.8 Y144.2
G0 X192.36 Y144.2
G1 F2700 E52.32727
G0 F7500 X192.21 Y143.4
G0 X193.653 Y144.653
G0 X182.347 Y144.653
G0 X183.79 Y143.4
G0 X172.4 Y143.4
;TYPE:WALL-INNER
G1 F2700 E58.32727
G1 F1500 X172.4 Y171.6 E59.21831
G1 X183.6 Y171.6 E59.5722
G1 X183.6 Y143.4 E60.46324
G1 X172.4 Y143.4 E60.81713
G0 F7500 X172.8 Y143.8
;TYPE:WALL-OUTER
G1 F1500 X172.8 Y171.2 E61.6396
G1 X183.2 Y171.2 E61.95178
G1 X183.2 Y143.8 E62.77425
G1 X172.8 Y143.8 E63.08643
G0 F7500 X172.8 Y144.2
G0 X172.36 Y144.2
G1 F2700 E57.08643
G0 F7500 X172.21 Y143.4
G0 X173.653 Y144.653
G0 X162.347 Y144.653
G0 X163.79 Y143.4
G0 X158.4 Y143.4
;TYPE:WALL-INNER
G1 F2700 E63.08643
G1 F1500 X158.4 Y171.6 E63.97747
G1 X163.6 Y171.6 E64.14178
G1 X163.6 Y143.4 E65.03282
G1 X158.4 Y143.4 E65.19712
G0 F7500 X158.8 Y143.8
;TYPE:WALL-OUTER
G1 F1500 X158.8 Y171.2 E66.01959
G1 X163.2 Y171.2 E66.15167
G1 X163.2 Y143.8 E66.97414
G1 X158.8 Y143.8 E67.10622
G0 F7500 X158.8 Y144.2
G0 X158.36 Y144.2
G1 F2700 E61.10622
G0 F7500 X158.21 Y143.4
G0 X159.653 Y144.653
G0 X148.347 Y144.653
G0 X149.79 Y143.4
G0 X143.4 Y143.4
;TYPE:WALL-INNER
G1 F2700 E67.10622
G1 F1500 X143.4 Y171.6 E67.99726
G1 X149.6 Y171.6 E68.19316
G1 X149.6 Y143.4 E69.0842
G1 X143.4 Y143.4 E69.2801
G0 F7500 X143.8 Y143.8
;TYPE:WALL-OUTER
G1 F1500 X143.8 Y171.2 E70.10258
G1 X149.2 Y171.2 E70.26467
G1 X149.2 Y143.8 E71.08714
G1 X143.8 Y143.8 E71.24924
G0 F7500 X143.8 Y144.2
G0 X143.36 Y144.2
G1 F2700 E65.24924
G0 F7500 X143.21 Y143.4
G0 X144.653 Y144.653
G0 X133.347 Y144.653
G0 X134.79 Y143.4
G0 X124.4 Y143.4
;TYPE:WALL-INNER
G1 F2700 E71.24924
G1 F1500 X124.4 Y171.6 E72.14027
G1 X134.6 Y171.6 E72.46257
G1 X134.6 Y143.4 E73.3536
G1 X124.4 Y143.4 E73.67589
G0 F7500 X124.8 Y143.8
;TYPE:WALL-OUTER
G1 F1500 X124.8 Y171.2 E74.49837
G1 X134.2 Y171.2 E74.78053
G1 X134.2 Y143.8 E75.603
G1 X124.8 Y143.8 E75.88517
G0 F7500 X124.8 Y144.2
G0 X124.36 Y144.2
G1 F2700 E69.88517
G0 F7500 X124.21 Y143.4
G0 X125.653 Y144.653
G0 X114.347 Y144.653
G0 X115.79 Y143.4
G0 X99.4 Y143.4
;TYPE:WALL-INNER
G1 F2700 E75.88517
G1 F1500 X99.4 Y171.6 E76.7762
G1 X115.6 Y171.6 E77.28808
G1 X115.6 Y143.4 E78.17912
G1 X99.4 Y143.4 E78.69099
G0 F7500 X99.8 Y143.8
;TYPE:WALL-OUTER
G1 F1500 X99.8 Y171.2 E79.51346
G1 X115.2 Y171.2 E79.97573
G1 X115.2 Y143.8 E80.7982
G1 X99.8 Y143.8 E81.26047
G0 F7500 X99.8 Y144.2
G0 X99.36 Y144.2
G1 F2700 E75.26047
G0 F7500 X99.21 Y143.4
G0 X100.653 Y144.653
G0 X89.347 Y144.653
G0 X90.81 Y143.4
G0 X34.6 Y143.4
;TYPE:WALL-INNER
G1 F2700 E81.26047
G1 F1500 X34.6 Y135.6 E81.50693
G1 X220.4 Y135.6 E87.37767
G1 X220.4 Y179.4 E88.76163
G1 X34.6 Y179.4 E94.63237
G1 X34.6 Y171.6 E94.87883
G1 X90.6 Y171.6 E96.64827
G1 X90.6 Y143.4 E97.53931
G1 X34.6 Y143.4 E99.30875
G0 F7500 X34.8 Y143.8
;TYPE:WALL-OUTER
G1 F1500 X34.8 Y171.2 E100.13122
G1 X90.2 Y171.2 E101.79418
G1 X90.2 Y143.8 E102.61665
G1 X34.8 Y143.8 E104.27961
G0 F7500 X34.8 Y144.2
G1 F2700 E98.27961
G0 F7500 X34.6 Y144.2
G0 X34.37 Y135.37
G0 X34.2 Y135.2
G1 F2700 E104.27961
G1 F1500 X220.8 Y135.2 E109.88083
G1 X220.8 Y179.8 E111.2196
G1 X34.2 Y179.8 E116.82083
G1 X34.2 Y135.2 E118.1596
G0 F7500 X34.6 Y135.2
G0 X34.64 Y135.64
G0 X34.99 Y135.99
;TYPE:SKIN
G1 F1500 X220.01 Y135.99 E124.0057
G1 X220.01 Y179.01 E125.365
G1 X34.99 Y179.01 E131.21111
G1 X34.99 Y171.99 E131.43292
G1 X90.99 Y171.99 E133.20236
G1 X90.99 Y143.01 E134.11804
G1 X34.99 Y143.01 E135.88748
G1 X34.99 Y135.99 E136.10929
G1 F2700 E130.10929
G0 F7500 X34.99 Y135.71
G0 X99.26 Y135.81
G0 X99.26 Y134.335
G0 X100.653 Y144.653
G0 X99.26 Y143.21
G0 X99.26 Y143.29
G0 X99.01 Y143.01
G1 F2700 E136.10929
G1 F1500 X99.01 Y171.99 E137.02498
G1 X115.99 Y171.99 E137.5615
G1 X115.99 Y143.01 E138.47718
G1 X99.01 Y143.01 E139.0137
G1 F2700 E133.0137
G0 F7500 X99.26 Y143.29
G0 X115.79 Y143.29
G0 X114.347 Y144.653
G0 X125.653 Y144.653
G0 X124.21 Y143.29
G0 X124.01 Y143.01
G1 F2700 E139.0137
G1 F1500 X124.01 Y171.99 E139.92939
G1 X134.99 Y171.99 E140.27632
G1 X134.99 Y143.01 E141.19201
G1 X124.01 Y143.01 E141.53894
G1 F2700 E135.53894
G0 F7500 X124.26 Y143.29
G0 X134.79 Y143.29
G0 X133.347 Y144.653
G0 X144.653 Y144.653
G0 X143.21 Y143.29
G0 X143.01 Y143.01
G1 F2700 E141.53894
G1 F1500 X143.01 Y171.99 E142.45463
G1 X149.99 Y171.99 E142.67518
G1 X149.99 Y143.01 E143.59086
G1 X143.01 Y143.01 E143.81141
G1 F2700 E137.81141
G0 F7500 X143.26 Y143.29
G0 X149.79 Y143.29
G0 X148.347 Y144.653
G0 X159.653 Y144.653
G0 X158.21 Y143.29
G0 X158.01 Y143.01
G1 F2700 E143.81141
G1 F1500 X158.01 Y171.99 E144.72709
G1 X163.99 Y171.99 E144.91604
G1 X163.99 Y143.01 E145.83173
G1 X158.01 Y143.01 E146.02068
G1 F2700 E140.02068
G0 F7500 X158.26 Y143.29
G0 X163.79 Y143.29
G0 X162.347 Y144.653
G0 X173.653 Y144.653
G0 X172.21 Y143.29
G0 X172.01 Y143.01
G1 F2700 E146.02068
G1 F1500 X172.01 Y171.99 E146.93636
G1 X183.99 Y171.99 E147.3149
G1 X183.99 Y143.01 E148.23058
G1 X172.01 Y143.01 E148.60912
G1 F2700 E142.60912
G0 F7500 X172.26 Y143.29
G0 X183.79 Y143.29
G0 X182.347 Y144.653
G0 X193.653 Y144.653
G0 X192.21 Y143.29
G0 X192.01 Y143.01
G1 F2700 E148.60912
G1 F1500 X192.01 Y171.99 E149.5248
G1 X198.99 Y171.99 E149.74535
G1 X198.99 Y143.01 E150.66103
G1 X192.01 Y143.01 E150.88158
G1 F2700 E144.88158
G0 F7500 X192.26 Y143.29
G0 X198.79 Y143.29
G0 X197.347 Y144.653
G0 X208.653 Y144.653
G0 X207.21 Y143.29
G0 X207.01 Y143.01
G1 F2700 E150.88158
G1 F1500 X207.01 Y171.99 E151.79727
G1 X211.99 Y171.99 E151.95462
G1 X211.99 Y143.01 E152.87031
G1 X207.01 Y143.01 E153.02766
G1 F2700 E147.02766
G0 F7500 X207.26 Y143.29
G0 X209.327 Y143.23
G0 X209.327 Y144.665
G0 X221.665 Y143.204
G0 X220.19 Y143.204
G0 X220.29 Y136.693
G0 X219.849 Y136.693
G1 F2700 E153.02766
G1 F1500 X219.306 Y136.15 E153.05192
G0 F7500 X218.74 Y136.15
G1 F1500 X219.849 Y137.259 E153.10148
G0 F7500 X219.849 Y137.825
G1 F1500 X218.174 Y136.15 E153.17633
G0 F7500 X217.609 Y136.15
G1 F1500 X219.849 Y138.39 E153.27642
G0 F7500 X219.849 Y138.956
G1 F1500 X217.043 Y136.15 E153.40181
G0 F7500 X216.477 Y136.15
