;FLAVOR:Marlin
M117 Time Left 4h59m59s
;TIME:17999
;Filament used: 12.9413m
;Layer height: 0.2
;MINX:37.5
;MINY:124
;MINZ:0.2
;MAXX:197.5
;MAXY:191
;MAXZ:33
;POSTPROCESSED
;Generated with Cura_SteamEngine 4.7.1
M140 S60
M105
M190 S60
M104 S200
M105
M109 S200
M82 ;absolute extrusion mode
; Ender 3 Custom Start G-code
G92 E0 ; Reset Extruder
G28 ; Home all axes
; ***SET NEW E STEP *** (93 is factory value - 95 mine - start)
G90                          ; Force coordinates to be absolute relative to the origin
M92 E95 ;					 ; ***SET NEW E STEP *** (93 is factory value - 95 mine - end)
G90                          ; Force coordinates to be absolute relative to the origin
G28                          ; Home X/Y/Z axis
G92 E0 ; Reset Extruder								
G28 ; Home all axes		
G1 Z2.0 F3000 ; Move Z Axis up little to prevent scratching of Heat Bed
G1 X0.1 Y20 Z0.3 F5000.0 ; Move to start position
G1 X0.1 Y200.0 Z0.3 F1500.0 E15 ; Draw the first line
G1 X0.4 Y200.0 Z0.3 F5000.0 ; Move to side a little
G1 X0.4 Y20 Z0.3 F1500.0 E30 ; Draw the second line
G92 E0 ; Reset Extruder
G1 Z2.0 F3000 ; Move Z Axis up little to prevent scratching of Heat Bed
G1 X5 Y20 Z0.3 F5000.0 ; Move over to prevent blob squish
G92 E0
G92 E0
G1 F2700 E-6
;LAYER_COUNT:165
;LAYER:0
M107
M204 S500
M205 X8 Y8
G0 F7500 X44.601 Y124.727 Z0.2
;TYPE:SKIRT
G1 F2700 E0
G1 F1500 X45.491 Y124.431 E0.02964
G1 X46.403 Y124.213 E0.05926
G1 X47.33 Y124.072 E0.08889
G1 X48.201 Y124.013 E0.11648
G1 X48.522 Y124.004 E0.12662
G1 X48.83 Y124 E0.13636
G1 X185.793 Y124 E4.46399
G1 X185.951 Y124.001 E4.46899
G1 X186.649 Y124.011 E4.49104
G1 X187.585 Y124.065 E4.52067
G1 X188.513 Y124.197 E4.55028
G1 X189.427 Y124.409 E4.57993
G1 X190.319 Y124.698 E4.60956
G1 X191.184 Y125.061 E4.6392
G1 X192.014 Y125.497 E4.66882
G1 X192.805 Y126.002 E4.69847
G1 X193.549 Y126.573 E4.72811
G1 X194.242 Y127.205 E4.75774
G1 X194.879 Y127.893 E4.78737
G1 X195.454 Y128.634 E4.817
G1 X195.965 Y129.42 E4.84663
G1 X196.407 Y130.248 E4.87628
G1 X196.776 Y131.11 E4.90591
G1 X197.071 Y132 E4.93554
G1 X197.289 Y132.912 E4.96517
G1 X197.429 Y133.84 E4.99482
G1 X197.487 Y134.701 E5.02209
G1 X197.496 Y135.021 E5.0322
G1 X197.5 Y135.33 E5.04197
G1 X197.499 Y179.4 E6.43445
G1 X197.49 Y180.127 E6.45742
G1 X197.439 Y181.064 E6.48707
G1 X197.307 Y181.992 E6.51669
G1 X197.098 Y182.906 E6.54632
G1 X196.811 Y183.799 E6.57595
G1 X196.449 Y184.665 E6.60561
G1 X196.015 Y185.496 E6.63523
G1 X195.511 Y186.287 E6.66487
G1 X194.942 Y187.032 E6.69449
G1 X194.311 Y187.727 E6.72415
G1 X193.624 Y188.365 E6.75378
G1 X192.885 Y188.942 E6.7834
G1 X192.099 Y189.454 E6.81304
G1 X191.273 Y189.897 E6.84266
G1 X190.411 Y190.269 E6.87232
G1 X189.522 Y190.565 E6.90193
G1 X188.61 Y190.785 E6.93157
G1 X187.683 Y190.926 E6.9612
G1 X186.799 Y190.987 E6.9892
G1 X186.478 Y190.996 E6.99934
G1 X186.17 Y191 E7.00907
G1 X49.207 Y191 E11.33671
G1 X48.367 Y190.99 E11.36326
G1 X47.431 Y190.938 E11.39288
G1 X46.502 Y190.806 E11.42252
G1 X45.588 Y190.596 E11.45216
G1 X44.695 Y190.309 E11.48179
G1 X43.83 Y189.946 E11.51144
G1 X42.999 Y189.512 E11.54106
G1 X42.208 Y189.008 E11.57069
G1 X41.463 Y188.438 E11.60033
G1 X40.769 Y187.807 E11.62997
G1 X40.132 Y187.12 E11.65957
G1 X39.555 Y186.38 E11.68922
G1 X39.043 Y185.594 E11.71886
G1 X38.6 Y184.767 E11.74851
G1 X38.229 Y183.906 E11.77813
G1 X37.933 Y183.016 E11.80777
G1 X37.714 Y182.104 E11.8374
G1 X37.573 Y181.177 E11.86703
G1 X37.513 Y180.288 E11.89518
G1 X37.504 Y179.955 E11.90571
G1 X37.5 Y179.658 E11.91509
G1 X37.501 Y135.525 E13.30957
G1 X37.51 Y134.86 E13.33058
G1 X37.563 Y133.924 E13.36021
G1 X37.695 Y132.995 E13.38985
G1 X37.906 Y132.081 E13.41949
G1 X38.194 Y131.189 E13.44911
G1 X38.557 Y130.324 E13.47875
G1 X38.992 Y129.493 E13.50839
G1 X39.496 Y128.703 E13.538
G1 X40.066 Y127.958 E13.56764
G1 X40.698 Y127.264 E13.5973
G1 X41.386 Y126.627 E13.62692
G1 X42.126 Y126.051 E13.65655
G1 X42.912 Y125.539 E13.68619
G1 X43.739 Y125.097 E13.71582
G1 X44.601 Y124.727 E13.74546
G0 F7500 X44.965 Y125.019
G1 F1500 X45.845 Y124.749 E13.77454
G1 X46.745 Y124.557 E13.80362
G1 X47.659 Y124.443 E13.83273
G1 X48.212 Y124.413 E13.85022
G1 X48.533 Y124.404 E13.86037
G1 X48.83 Y124.4 E13.86976
G1 X185.793 Y124.4 E18.19739
G1 X186.643 Y124.411 E18.22425
G1 X187.562 Y124.464 E18.25334
G1 X188.473 Y124.597 E18.28243
G1 X189.369 Y124.808 E18.31151
G1 X190.243 Y125.096 E18.34059
G1 X191.09 Y125.459 E18.36971
G1 X191.901 Y125.894 E18.39879
G1 X192.671 Y126.398 E18.42787
G1 X193.395 Y126.967 E18.45696
G1 X194.067 Y127.597 E18.48607
G1 X194.682 Y128.282 E18.51515
G1 X195.235 Y129.018 E18.54424
G1 X195.722 Y129.799 E18.57332
G1 X196.139 Y130.62 E18.60242
G1 X196.484 Y131.474 E18.63152
G1 X196.753 Y132.354 E18.6606
G1 X196.945 Y133.255 E18.68971
G1 X197.058 Y134.168 E18.71877
G1 X197.087 Y134.712 E18.73599
G1 X197.096 Y135.032 E18.7461
G1 X197.1 Y135.33 E18.75552
G1 X197.099 Y179.395 E20.14785
G1 X197.09 Y180.122 E20.17082
G1 X197.039 Y181.041 E20.1999
G1 X196.908 Y181.953 E20.22901
G1 X196.698 Y182.849 E20.25809
G1 X196.412 Y183.724 E20.28718
G1 X196.051 Y184.571 E20.31627
G1 X195.617 Y185.383 E20.34536
G1 X195.115 Y186.155 E20.37446
G1 X194.547 Y186.88 E20.40356
G1 X193.919 Y187.553 E20.43265
G1 X193.235 Y188.169 E20.46173
G1 X192.5 Y188.723 E20.49081
G1 X191.72 Y189.212 E20.5199
G1 X190.9 Y189.631 E20.549
G1 X190.047 Y189.977 E20.57808
G1 X189.167 Y190.248 E20.60718
G1 X188.267 Y190.441 E20.63626
G1 X187.353 Y190.556 E20.66537
G1 X186.788 Y190.587 E20.68325
G1 X186.467 Y190.596 E20.69339
G1 X186.17 Y190.6 E20.70278
G1 X49.207 Y190.6 E25.03042
G1 X48.372 Y190.59 E25.0568
G1 X47.453 Y190.538 E25.08589
G1 X46.542 Y190.407 E25.11497
G1 X45.646 Y190.197 E25.14405
G1 X44.771 Y189.91 E25.17314
G1 X43.924 Y189.548 E25.20225
G1 X43.112 Y189.114 E25.23134
G1 X42.341 Y188.612 E25.26041
G1 X41.616 Y188.044 E25.28951
G1 X40.943 Y187.415 E25.31862
G1 X40.328 Y186.731 E25.34768
G1 X39.774 Y185.996 E25.37676
G1 X39.286 Y185.215 E25.40586
G1 X38.867 Y184.395 E25.43496
G1 X38.521 Y183.542 E25.46404
G1 X38.251 Y182.662 E25.49313
G1 X38.058 Y181.761 E25.52224
G1 X37.944 Y180.848 E25.55131
G1 X37.913 Y180.277 E25.56938
G1 X37.904 Y179.944 E25.57991
G1 X37.9 Y179.658 E25.58895
G1 X37.901 Y135.531 E26.98323
G1 X37.91 Y134.866 E27.00425
G1 X37.962 Y133.946 E27.03336
G1 X38.094 Y133.035 E27.06245
G1 X38.305 Y132.139 E27.09153
G1 X38.592 Y131.264 E27.12063
G1 X38.955 Y130.418 E27.14972
G1 X39.389 Y129.606 E27.17881
G1 X39.892 Y128.835 E27.2079
G1 X40.461 Y128.111 E27.23699
G1 X41.089 Y127.439 E27.26606
G1 X41.774 Y126.823 E27.29516
G1 X42.51 Y126.27 E27.32425
G1 X43.291 Y125.782 E27.35335
G1 X44.111 Y125.364 E27.38243
G1 X44.965 Y125.019 E27.41154
G0 F7500 X44.482 Y125.638
G1 F1500 X45.327 Y125.318 E27.44009
G1 X46.196 Y125.075 E27.4686
G1 X47.084 Y124.909 E27.49714
G1 X48.223 Y124.813 E27.53326
G1 X48.544 Y124.804 E27.5434
G1 X48.83 Y124.8 E27.55244
G1 X185.793 Y124.8 E31.88008
G1 X186.637 Y124.811 E31.90675
G1 X187.539 Y124.864 E31.9353
G1 X188.432 Y124.996 E31.96382
G1 X189.31 Y125.207 E31.99235
G1 X190.166 Y125.495 E32.02089
G1 X190.993 Y125.857 E32.04942
G1 X191.785 Y126.292 E32.07797
G1 X192.536 Y126.794 E32.10651
G1 X193.239 Y127.361 E32.13505
G1 X193.889 Y127.988 E32.16358
G1 X194.481 Y128.67 E32.19212
G1 X195.011 Y129.401 E32.22065
G1 X195.473 Y130.177 E32.24918
G1 X195.866 Y130.99 E32.27772
G1 X196.184 Y131.835 E32.30624
G1 X196.427 Y132.705 E32.33479
G1 X196.592 Y133.593 E32.36332
G1 X196.687 Y134.723 E32.39915
G1 X196.696 Y135.043 E32.40927
G1 X196.7 Y135.33 E32.41834
G1 X196.699 Y179.39 E33.81051
G1 X196.69 Y180.117 E33.83348
G1 X196.639 Y181.019 E33.86203
G1 X196.508 Y181.913 E33.89058
G1 X196.299 Y182.791 E33.91909
G1 X196.013 Y183.648 E33.94764
G1 X195.652 Y184.476 E33.97618
G1 X195.22 Y185.268 E34.00469
G1 X194.719 Y186.02 E34.03324
G1 X194.153 Y186.724 E34.06178
G1 X193.528 Y187.375 E34.0903
G1 X192.847 Y187.969 E34.11885
G1 X192.116 Y188.5 E34.1474
G1 X191.342 Y188.964 E34.17591
G1 X190.529 Y189.358 E34.20446
G1 X189.685 Y189.678 E34.23298
G1 X188.815 Y189.923 E34.26154
G1 X187.928 Y190.089 E34.29005
G1 X186.777 Y190.187 E34.32655
G1 X186.456 Y190.196 E34.3367
G1 X186.17 Y190.2 E34.34573
G1 X49.207 Y190.2 E38.67337
G1 X48.377 Y190.19 E38.6996
G1 X47.476 Y190.139 E38.72811
G1 X46.582 Y190.007 E38.75667
G1 X45.704 Y189.798 E38.78519
G1 X44.847 Y189.511 E38.81374
G1 X44.02 Y189.15 E38.84225
G1 X43.227 Y188.717 E38.8708
G1 X42.476 Y188.216 E38.89933
G1 X41.772 Y187.65 E38.92787
G1 X41.121 Y187.024 E38.95641
G1 X40.528 Y186.343 E38.98494
G1 X39.998 Y185.612 E39.01347
G1 X39.534 Y184.837 E39.04201
G1 X39.14 Y184.024 E39.07056
G1 X38.82 Y183.18 E39.09908
G1 X38.576 Y182.31 E39.12763
G1 X38.41 Y181.422 E39.15617
G1 X38.313 Y180.267 E39.19279
G1 X38.304 Y179.934 E39.20332
G1 X38.3 Y179.658 E39.21204
G1 X38.301 Y135.536 E40.60617
G1 X38.31 Y134.871 E40.62718
G1 X38.362 Y133.969 E40.65573
G1 X38.494 Y133.076 E40.68425
G1 X38.704 Y132.198 E40.71278
G1 X38.991 Y131.341 E40.74134
G1 X39.353 Y130.514 E40.76986
G1 X39.786 Y129.722 E40.79838
G1 X40.288 Y128.971 E40.82692
G1 X40.855 Y128.267 E40.85549
G1 X41.481 Y127.617 E40.884
G1 X42.162 Y127.024 E40.91253
G1 X42.894 Y126.494 E40.94109
G1 X43.669 Y126.031 E40.96961
G1 X44.482 Y125.638 E40.99814
G1 F2700 E34.99814
;MESH:dragons_box.stl
G0 F7500 X108.827 Y144.665
G0 X108.827 Y143.23
G0 X106.9 Y143.4
;TYPE:WALL-INNER
G1 F2700 E40.99814
G1 F1500 X106.9 Y171.6 E41.88918
G1 X127.1 Y171.6 E42.52745
G1 X127.1 Y143.4 E43.41848
G1 X106.9 Y143.4 E44.05675
G0 F7500 X107.3 Y143.8
;TYPE:WALL-OUTER
G1 F1500 X107.3 Y171.2 E44.87922
G1 X126.7 Y171.2 E45.46155
G1 X126.7 Y143.8 E46.28403
G1 X107.3 Y143.8 E46.86636
G0 F7500 X107.3 Y144.2
G0 X106.86 Y144.2
G1 F2700 E40.86636
G0 F7500 X106.71 Y143.4
G0 X108.153 Y144.653
G0 X96.847 Y144.653
G0 X98.29 Y143.4
G0 X77.9 Y143.4
;TYPE:WALL-INNER
G1 F2700 E46.86636
G1 F1500 X77.9 Y171.6 E47.7574
G1 X98.1 Y171.6 E48.39566
G1 X98.1 Y143.4 E49.2867
G1 X77.9 Y143.4 E49.92497
G0 F7500 X78.3 Y143.8
;TYPE:WALL-OUTER
G1 F1500 X78.3 Y171.2 E50.74744
G1 X97.7 Y171.2 E51.32977
G1 X97.7 Y143.8 E52.15225
G1 X78.3 Y143.8 E52.73458
G0 F7500 X78.3 Y144.2
G0 X77.86 Y144.2
G1 F2700 E46.73458
G0 F7500 X77.71 Y143.4
G0 X79.153 Y144.653
G0 X67.847 Y144.653
G0 X69.31 Y143.4
G0 X49.1 Y143.4
;TYPE:WALL-INNER
G1 F2700 E52.73458
G1 F1500 X49.1 Y135.6 E52.98104
G1 X185.9 Y135.6 E57.30353
G1 X185.9 Y179.4 E58.68748
G1 X49.1 Y179.4 E63.00997
G1 X49.1 Y171.6 E63.25643
G1 X69.1 Y171.6 E63.88837
G1 X69.1 Y143.4 E64.77941
G1 X49.1 Y143.4 E65.41135
G0 F7500 X49.3 Y143.8
;TYPE:WALL-OUTER
G1 F1500 X49.3 Y171.2 E66.23382
G1 X68.7 Y171.2 E66.81616
G1 X68.7 Y143.8 E67.63863
G1 X49.3 Y143.8 E68.22097
G0 F7500 X49.3 Y144.2
G1 F2700 E62.22097
G0 F7500 X49.1 Y144.2
G0 X48.87 Y135.37
G0 X48.7 Y135.2
G1 F2700 E68.22097
G1 F1500 X186.3 Y135.2 E72.35134
G1 X186.3 Y179.8 E73.69011
G1 X48.7 Y179.8 E77.82049
G1 X48.7 Y135.2 E79.15926
G0 F7500 X49.1 Y135.2
G0 X49.14 Y135.64
G0 X49.49 Y135.99
;TYPE:SKIN
G1 F1500 X185.51 Y135.99 E83.4571
G1 X185.51 Y179.01 E84.81641
G1 X49.49 Y179.01 E89.11425
G1 X49.49 Y171.99 E89.33606
G1 X69.49 Y171.99 E89.96801
G1 X69.49 Y143.01 E90.88369
G1 X49.49 Y143.01 E91.51563
G1 X49.49 Y135.99 E91.73745
G1 F2700 E85.73745
G0 F7500 X49.49 Y135.71
G0 X77.76 Y135.81
G0 X77.76 Y134.335
G0 X79.153 Y144.653
G0 X77.76 Y143.21
G0 X77.76 Y143.29
G0 X77.51 Y143.01
G1 F2700 E91.73745
G1 F1500 X77.51 Y171.99 E92.65313
G1 X98.49 Y171.99 E93.31604
G1 X98.49 Y143.01 E94.23172
G1 X77.51 Y143.01 E94.89463
G1 F2700 E88.89463
G0 F7500 X77.76 Y143.29
G0 X98.29 Y143.29
G0 X96.847 Y144.653
G0 X108.153 Y144.653
G0 X106.71 Y143.29
G0 X106.51 Y143.01
G1 F2700 E94.89463
G1 F1500 X106.51 Y171.99 E95.81032
G1 X127.49 Y171.99 E96.47322
G1 X127.49 Y143.01 E97.38891
G1 X106.51 Y143.01 E98.05182
G1 F2700 E92.05182
G0 F7500 X106.76 Y143.29
G0 X106.73 Y161.125
G0 X108.165 Y161.125
G0 X106.704 Y180.665
G0 X106.704 Y179.19
G0 X49.872 Y179.29
G0 X49.872 Y178.849
G1 F2700 E98.05182
G1 F1500 X49.649 Y178.625 E98.0618
G0 F7500 X49.649 Y178.06
G1 F1500 X50.438 Y178.849 E98.09706
G0 F7500 X51.004 Y178.849
G1 F1500 X49.649 Y177.494 E98.15761
G0 F7500 X49.649 Y176.928
G1 F1500 X51.57 Y178.849 E98.24345
G0 F7500 X52.135 Y178.849
G1 F1500 X49.649 Y176.363 E98.35453
G0 F7500 X49.649 Y175.797
G1 F1500 X52.701 Y178.849 E98.49091
G0 F7500 X53.267 Y178.849
G1 F1500 X49.649 Y175.231 E98.65258
G0 F7500 X49.649 Y174.665
G1 F1500 X53.832 Y178.849 E98.83952
G0 F7500 X54.398 Y178.849
G1 F1500 X49.649 Y174.1 E99.05173
G0 F7500 X49.649 Y173.534
G1 F1500 X54.964 Y178.849 E99.28923
G0 F7500 X55.529 Y178.849
G1 F1500 X49.649 Y172.968 E99.55201
G0 F7500 X49.649 Y172.403
G1 F1500 X56.095 Y178.849 E99.84005
G0 F7500 X56.661 Y178.849
G1 F1500 X49.961 Y172.149 E100.13944
G0 F7500 X50.527 Y172.149
G1 F1500 X57.226 Y178.849 E100.4388
G0 F7500 X57.792 Y178.849
G1 F1500 X51.092 Y172.149 E100.73819
G0 F7500 X51.658 Y172.149
G1 F1500 X58.358 Y178.849 E101.03758
G0 F7500 X58.923 Y178.849
G1 F1500 X52.224 Y172.149 E101.33695
G0 F7500 X52.789 Y172.149
G1 F1500 X59.489 Y178.849 E101.63634
G0 F7500 X60.055 Y178.849
G1 F1500 X53.355 Y172.149 E101.93573
G0 F7500 X53.921 Y172.149
G1 F1500 X60.62 Y178.849 E102.2351
G0 F7500 X61.186 Y178.849
G1 F1500 X54.486 Y172.149 E102.53449
G0 F7500 X55.052 Y172.149
G1 F1500 X61.752 Y178.849 E102.83388
G0 F7500 X62.318 Y178.849
G1 F1500 X55.618 Y172.149 E103.13327
G0 F7500 X56.183 Y172.149
G1 F1500 X62.883 Y178.849 E103.43266
G0 F7500 X63.449 Y178.849
G1 F1500 X56.749 Y172.149 E103.73205
G0 F7500 X57.315 Y172.149
G1 F1500 X64.015 Y178.849 E104.03144
G0 F7500 X64.58 Y178.849
G1 F1500 X57.88 Y172.149 E104.33083
G0 F7500 X58.446 Y172.149
G1 F1500 X65.146 Y178.849 E104.63022
G0 F7500 X65.712 Y178.849
G1 F1500 X59.012 Y172.149 E104.92961
G0 F7500 X59.577 Y172.149
G1 F1500 X66.277 Y178.849 E105.229
G0 F7500 X66.843 Y178.849
G1 F1500 X60.143 Y172.149 E105.52839
G0 F7500 X60.709 Y172.149
G1 F1500 X67.409 Y178.849 E105.82778
G0 F7500 X67.974 Y178.849
G1 F1500 X61.275 Y172.149 E106.12715
G0 F7500 X61.84 Y172.149
G1 F1500 X68.54 Y178.849 E106.42654
G0 F7500 X69.106 Y178.849
G1 F1500 X62.406 Y172.149 E106.72593
G0 F7500 X62.972 Y172.149
G1 F1500 X69.671 Y178.849 E107.0253
G0 F7500 X70.237 Y178.849
G1 F1500 X63.537 Y172.149 E107.32469
G0 F7500 X64.103 Y172.149
G1 F1500 X70.803 Y178.849 E107.62408
G0 F7500 X71.368 Y178.849
G1 F1500 X64.669 Y172.149 E107.92344
G0 F7500 X65.234 Y172.149
G1 F1500 X71.934 Y178.849 E108.22283
G0 F7500 X72.5 Y178.849
G1 F1500 X65.8 Y172.149 E108.52222
G0 F7500 X66.366 Y172.149
G1 F1500 X73.066 Y178.849 E108.82161
G0 F7500 X73.631 Y178.849
G1 F1500 X66.931 Y172.149 E109.121
G0 F7500 X67.497 Y172.149
G1 F1500 X74.197 Y178.849 E109.42039
G0 F7500 X74.763 Y178.849
G1 F1500 X68.063 Y172.149 E109.71978
G0 F7500 X68.628 Y172.149
G1 F1500 X75.328 Y178.849 E110.01917
G0 F7500 X75.894 Y178.849
G1 F1500 X69.194 Y172.149 E110.31856
G0 F7500 X69.65 Y172.039
G1 F1500 X76.46 Y178.849 E110.62287
G0 F7500 X77.025 Y178.849
G1 F1500 X69.65 Y171.473 E110.95244
G0 F7500 X69.65 Y170.907
G1 F1500 X77.591 Y178.849 E111.30731
G0 F7500 X78.157 Y178.849
G1 F1500 X69.65 Y170.342 E111.68745
G0 F7500 X69.65 Y169.776
G1 F1500 X78.722 Y178.849 E112.09285
G0 F7500 X79.288 Y178.849
G1 F1500 X69.65 Y169.21 E112.52355
G0 F7500 X69.65 Y168.644
G1 F1500 X79.854 Y178.849 E112.97954
G0 F7500 X80.419 Y178.849
G1 F1500 X69.65 Y168.079 E113.46078
G0 F7500 X69.65 Y167.513
G1 F1500 X80.985 Y178.849 E113.9673
G0 F7500 X81.551 Y178.849
G1 F1500 X69.65 Y166.947 E114.49912
G0 F7500 X69.65 Y166.382
G1 F1500 X82.117 Y178.849 E115.05621
G0 F7500 X82.682 Y178.849
G1 F1500 X69.65 Y165.816 E115.63857
G0 F7500 X69.65 Y165.25
G1 F1500 X83.248 Y178.849 E116.24622
G0 F7500 X83.814 Y178.849
G1 F1500 X69.65 Y164.685 E116.87914
G0 F7500 X69.65 Y164.119
G1 F1500 X77.35 Y171.819 E117.22321
G0 F7500 X77.679 Y172.149
G1 F1500 X84.379 Y178.849 E117.5226
G0 F7500 X84.945 Y178.849
G1 F1500 X78.245 Y172.149 E117.82199
G0 F7500 X78.811 Y172.149
G1 F1500 X85.511 Y178.849 E118.12139
G0 F7500 X86.076 Y178.849
G1 F1500 X79.376 Y172.149 E118.42078
G0 F7500 X79.942 Y172.149
