;FLAVOR:Marlin
M117 Time Left 5h40m27s
;TIME:20427
;Filament used: 21.0821m
;Layer height: 0.28
;MINX:13
;MINY:104
;MINZ:0.285
;MAXX:222
;MAXY:171
;MAXZ:32.765
;POSTPROCESSED
;Generated with Cura_SteamEngine 4.7.1
M140 S60
M105
M190 S60
M104 S200
M105
M109 S200
M82 ;absolute extrusion mode
; Ender 3 Custom Start G-code
G92 E0 ; Reset Extruder
G28 ; Home all axes
; ***SET NEW E STEP *** (93 is factory value - 95 mine - start)
G90                          ; Force coordinates to be absolute relative to the origin
M92 E95 ;					 ; ***SET NEW E STEP *** (93 is factory value - 95 mine - end)
G90                          ; Force coordinates to be absolute relative to the origin
G28                          ; Home X/Y/Z axis
G92 E0 ; Reset Extruder								
G28 ; Home all axes		
G1 Z2.0 F3000 ; Move Z Axis up little to prevent scratching of Heat Bed
G1 X0.1 Y20 Z0.3 F5000.0 ; Move to start position
G1 X0.1 Y200.0 Z0.3 F1500.0 E15 ; Draw the first line
G1 X0.4 Y200.0 Z0.3 F5000.0 ; Move to side a little
G1 X0.4 Y20 Z0.3 F1500.0 E30 ; Draw the second line
G92 E0 ; Reset Extruder
G1 Z2.0 F3000 ; Move Z Axis up little to prevent scratching of Heat Bed
G1 X5 Y20 Z0.3 F5000.0 ; Move over to prevent blob squish
G92 E0
G92 E0
G1 F2700 E-6
;LAYER_COUNT:117
;LAYER:0
M107
M204 S500
M205 X8 Y8
G0 F7500 X21.903 Y104.213 Z0.285
;TYPE:SKIRT
G1 F2700 E0
G1 F1500 X22.83 Y104.072 E0.04222
G1 X23.701 Y104.013 E0.08153
G1 X24.022 Y104.004 E0.09599
G1 X24.33 Y104 E0.10985
G1 X210.293 Y104 E8.48301
G1 X210.451 Y104.001 E8.49012
G1 X211.149 Y104.011 E8.52155
G1 X212.085 Y104.065 E8.56377
G1 X213.013 Y104.197 E8.60597
G1 X213.927 Y104.409 E8.64822
G1 X214.819 Y104.698 E8.69044
G1 X215.684 Y105.061 E8.73267
G1 X216.514 Y105.497 E8.77489
G1 X217.305 Y106.002 E8.81714
G1 X218.049 Y106.573 E8.85937
G1 X218.742 Y107.205 E8.9016
G1 X219.379 Y107.893 E8.94382
G1 X219.954 Y108.634 E8.98605
G1 X220.465 Y109.42 E9.02826
G1 X220.907 Y110.248 E9.07052
G1 X221.276 Y111.11 E9.11274
G1 X221.571 Y112 E9.15496
G1 X221.789 Y112.912 E9.19718
G1 X221.929 Y113.84 E9.23944
G1 X221.987 Y114.701 E9.27829
G1 X221.996 Y115.021 E9.2927
G1 X222 Y115.33 E9.30662
G1 X221.999 Y159.4 E11.29091
G1 X221.99 Y160.127 E11.32365
G1 X221.939 Y161.064 E11.3659
G1 X221.807 Y161.992 E11.4081
G1 X221.598 Y162.906 E11.45032
G1 X221.311 Y163.799 E11.49255
G1 X220.949 Y164.665 E11.53481
G1 X220.515 Y165.496 E11.57703
G1 X220.011 Y166.287 E11.61926
G1 X219.442 Y167.032 E11.66147
G1 X218.811 Y167.727 E11.70373
G1 X218.124 Y168.365 E11.74595
G1 X217.385 Y168.942 E11.78816
G1 X216.599 Y169.454 E11.8304
G1 X215.773 Y169.897 E11.8726
G1 X214.911 Y170.269 E11.91487
G1 X214.022 Y170.565 E11.95706
G1 X213.11 Y170.785 E11.9993
G1 X212.183 Y170.926 E12.04152
G1 X211.299 Y170.987 E12.08142
G1 X210.978 Y170.996 E12.09588
G1 X210.67 Y171 E12.10975
G1 X24.707 Y171 E20.4829
G1 X23.867 Y170.99 E20.52073
G1 X22.931 Y170.938 E20.56294
G1 X22.002 Y170.806 E20.60518
G1 X21.088 Y170.596 E20.64741
G1 X20.195 Y170.309 E20.68964
G1 X19.33 Y169.946 E20.73188
G1 X18.499 Y169.512 E20.77409
G1 X17.708 Y169.008 E20.81633
G1 X16.963 Y168.438 E20.85856
G1 X16.269 Y167.807 E20.90079
G1 X15.632 Y167.12 E20.94298
G1 X15.055 Y166.38 E20.98523
G1 X14.543 Y165.594 E21.02747
G1 X14.1 Y164.767 E21.06971
G1 X13.729 Y163.906 E21.11192
G1 X13.433 Y163.016 E21.15415
G1 X13.214 Y162.104 E21.19638
G1 X13.073 Y161.177 E21.2386
G1 X13.013 Y160.288 E21.27872
G1 X13.004 Y159.955 E21.29372
G1 X13 Y159.658 E21.30709
G1 X13.001 Y115.525 E23.29422
G1 X13.01 Y114.86 E23.32417
G1 X13.063 Y113.924 E23.36638
G1 X13.195 Y112.995 E23.40863
G1 X13.406 Y112.081 E23.45086
G1 X13.694 Y111.189 E23.49307
G1 X14.057 Y110.324 E23.53531
G1 X14.492 Y109.493 E23.57754
G1 X14.996 Y108.703 E23.61973
G1 X15.566 Y107.958 E23.66197
G1 X16.198 Y107.264 E23.70423
G1 X16.886 Y106.627 E23.74645
G1 X17.626 Y106.051 E23.78867
G1 X18.412 Y105.539 E23.83091
G1 X19.239 Y105.097 E23.87313
G1 X20.101 Y104.727 E23.91537
G1 X20.991 Y104.431 E23.9576
G1 X21.903 Y104.213 E23.99982
G0 F7500 X22.245 Y104.557
G1 F1500 X23.159 Y104.443 E24.04129
G1 X23.712 Y104.413 E24.06623
G1 X24.033 Y104.404 E24.08069
G1 X24.33 Y104.4 E24.09406
G1 X210.293 Y104.4 E32.46721
G1 X211.143 Y104.411 E32.50549
G1 X212.062 Y104.464 E32.54694
G1 X212.973 Y104.597 E32.58839
G1 X213.869 Y104.808 E32.62984
G1 X214.743 Y105.096 E32.67127
G1 X215.59 Y105.459 E32.71276
G1 X216.401 Y105.894 E32.7542
G1 X217.171 Y106.398 E32.79564
G1 X217.895 Y106.967 E32.8371
G1 X218.567 Y107.597 E32.87857
G1 X219.182 Y108.282 E32.92002
G1 X219.735 Y109.018 E32.96147
G1 X220.222 Y109.799 E33.00291
G1 X220.639 Y110.62 E33.04438
G1 X220.984 Y111.474 E33.08585
G1 X221.253 Y112.354 E33.12728
G1 X221.445 Y113.255 E33.16876
G1 X221.558 Y114.168 E33.21018
G1 X221.587 Y114.712 E33.23471
G1 X221.596 Y115.032 E33.24912
G1 X221.6 Y115.33 E33.26254
G1 X221.599 Y159.395 E35.24661
G1 X221.59 Y160.122 E35.27935
G1 X221.539 Y161.041 E35.32079
G1 X221.408 Y161.953 E35.36227
G1 X221.198 Y162.849 E35.40371
G1 X220.912 Y163.724 E35.44516
G1 X220.551 Y164.571 E35.48661
G1 X220.117 Y165.383 E35.52807
G1 X219.615 Y166.155 E35.56953
G1 X219.047 Y166.88 E35.611
G1 X218.419 Y167.553 E35.65245
G1 X217.735 Y168.169 E35.69389
G1 X217 Y168.723 E35.73534
G1 X216.22 Y169.212 E35.77679
G1 X215.4 Y169.631 E35.81825
G1 X214.547 Y169.977 E35.8597
G1 X213.667 Y170.248 E35.90116
G1 X212.767 Y170.441 E35.9426
G1 X211.853 Y170.556 E35.98408
G1 X211.288 Y170.587 E36.00956
G1 X210.967 Y170.596 E36.02401
G1 X210.67 Y170.6 E36.03739
G1 X24.707 Y170.6 E44.41054
G1 X23.872 Y170.59 E44.44814
G1 X22.953 Y170.538 E44.48959
G1 X22.042 Y170.407 E44.53103
G1 X21.146 Y170.197 E44.57246
G1 X20.271 Y169.91 E44.61393
G1 X19.424 Y169.548 E44.6554
G1 X18.612 Y169.114 E44.69686
G1 X17.841 Y168.612 E44.73828
G1 X17.116 Y168.044 E44.77975
G1 X16.443 Y167.415 E44.82123
G1 X15.828 Y166.731 E44.86264
G1 X15.274 Y165.996 E44.90408
G1 X14.786 Y165.215 E44.94555
G1 X14.367 Y164.395 E44.98701
G1 X14.021 Y163.542 E45.02846
G1 X13.751 Y162.662 E45.0699
G1 X13.558 Y161.761 E45.11139
G1 X13.444 Y160.848 E45.15282
G1 X13.413 Y160.277 E45.17857
G1 X13.404 Y159.944 E45.19357
G1 X13.4 Y159.658 E45.20645
G1 X13.401 Y115.531 E47.1933
G1 X13.41 Y114.866 E47.22325
G1 X13.462 Y113.946 E47.26474
G1 X13.594 Y113.035 E47.30619
G1 X13.805 Y112.139 E47.34763
G1 X14.092 Y111.264 E47.3891
G1 X14.455 Y110.418 E47.43055
G1 X14.889 Y109.606 E47.472
G1 X15.392 Y108.835 E47.51345
G1 X15.961 Y108.111 E47.55491
G1 X16.589 Y107.439 E47.59633
G1 X17.274 Y106.823 E47.63781
G1 X18.01 Y106.27 E47.67926
G1 X18.791 Y105.782 E47.72072
G1 X19.611 Y105.364 E47.76216
G1 X20.465 Y105.019 E47.80363
G1 X21.345 Y104.749 E47.84508
G1 X22.245 Y104.557 E47.88652
G0 F7500 X21.696 Y105.075
G1 F1500 X22.584 Y104.909 E47.92719
G1 X23.723 Y104.813 E47.97866
G1 X24.044 Y104.804 E47.99312
G1 X24.33 Y104.8 E48.006
G1 X210.293 Y104.8 E56.37915
G1 X211.137 Y104.811 E56.41715
G1 X212.039 Y104.864 E56.45784
G1 X212.932 Y104.996 E56.49848
G1 X213.81 Y105.207 E56.53914
G1 X214.666 Y105.495 E56.57981
G1 X215.493 Y105.857 E56.62045
G1 X216.285 Y106.292 E56.66114
G1 X217.036 Y106.794 E56.70181
G1 X217.739 Y107.361 E56.74248
G1 X218.389 Y107.988 E56.78314
G1 X218.981 Y108.67 E56.8238
G1 X219.511 Y109.401 E56.86446
G1 X219.973 Y110.177 E56.90512
G1 X220.366 Y110.99 E56.94578
G1 X220.684 Y111.835 E56.98643
G1 X220.927 Y112.705 E57.0271
G1 X221.092 Y113.593 E57.06777
G1 X221.187 Y114.723 E57.11883
G1 X221.196 Y115.043 E57.13324
G1 X221.2 Y115.33 E57.14617
G1 X221.199 Y159.39 E59.13001
G1 X221.19 Y160.117 E59.16275
G1 X221.139 Y161.019 E59.20342
G1 X221.008 Y161.913 E59.24411
G1 X220.799 Y162.791 E59.28474
G1 X220.513 Y163.648 E59.32542
G1 X220.152 Y164.476 E59.36609
G1 X219.72 Y165.268 E59.40672
G1 X219.219 Y166.02 E59.4474
G1 X218.653 Y166.724 E59.48807
G1 X218.028 Y167.375 E59.52871
G1 X217.347 Y167.969 E59.5694
G1 X216.616 Y168.5 E59.61008
G1 X215.842 Y168.964 E59.65071
G1 X215.029 Y169.358 E59.69139
G1 X214.185 Y169.678 E59.73203
G1 X213.315 Y169.923 E59.77273
G1 X212.428 Y170.089 E59.81336
G1 X211.277 Y170.187 E59.86537
G1 X210.956 Y170.196 E59.87983
G1 X210.67 Y170.2 E59.89271
G1 X24.707 Y170.2 E68.26586
G1 X23.877 Y170.19 E68.30323
G1 X22.976 Y170.139 E68.34387
G1 X22.082 Y170.007 E68.38456
G1 X21.204 Y169.798 E68.42519
G1 X20.347 Y169.511 E68.46589
G1 X19.52 Y169.15 E68.50652
G1 X18.727 Y168.717 E68.5472
G1 X17.976 Y168.216 E68.58785
G1 X17.272 Y167.65 E68.62852
G1 X16.621 Y167.024 E68.66918
G1 X16.028 Y166.343 E68.70984
G1 X15.498 Y165.612 E68.7505
G1 X15.034 Y164.837 E68.79117
G1 X14.64 Y164.024 E68.83185
G1 X14.32 Y163.18 E68.87249
G1 X14.076 Y162.31 E68.91317
G1 X13.91 Y161.422 E68.95385
G1 X13.813 Y160.267 E69.00604
G1 X13.804 Y159.934 E69.02103
G1 X13.8 Y159.658 E69.03346
G1 X13.801 Y115.536 E71.0201
G1 X13.81 Y114.871 E71.05004
G1 X13.862 Y113.969 E71.09072
G1 X13.994 Y113.076 E71.13137
G1 X14.204 Y112.198 E71.17201
G1 X14.491 Y111.341 E71.21271
G1 X14.853 Y110.514 E71.25336
G1 X15.286 Y109.722 E71.294
G1 X15.788 Y108.971 E71.33467
G1 X16.355 Y108.267 E71.37537
G1 X16.981 Y107.617 E71.416
G1 X17.662 Y107.024 E71.45666
G1 X18.394 Y106.494 E71.49735
G1 X19.169 Y106.031 E71.538
G1 X19.982 Y105.638 E71.57866
G1 X20.827 Y105.318 E71.61934
G1 X21.696 Y105.075 E71.65997
G1 F2700 E65.65997
;MESH:common_box.stl
G0 F7500 X199.327 Y124.665
G0 X199.327 Y123.23
G0 X197.4 Y123.4
;TYPE:WALL-INNER
G1 F2700 E71.65997
G1 F1800 X197.4 Y151.6 E72.9297
G1 X201.6 Y151.6 E73.11881
G1 X201.6 Y123.4 E74.38854
G1 X197.4 Y123.4 E74.57765
G0 F7500 X197.8 Y123.8
;TYPE:WALL-OUTER
G1 F1800 X197.8 Y151.2 E75.74968
G1 X201.2 Y151.2 E75.89511
G1 X201.2 Y123.8 E77.06713
G1 X197.8 Y123.8 E77.21257
G0 F7500 X197.8 Y124.2
G0 X197.36 Y124.2
G1 F2700 E71.21257
G0 F7500 X197.21 Y123.4
G0 X198.653 Y124.653
G0 X187.347 Y124.653
G0 X188.79 Y123.4
G0 X182.4 Y123.4
;TYPE:WALL-INNER
G1 F2700 E77.21257
G1 F1800 X182.4 Y151.6 E78.4823
G1 X188.6 Y151.6 E78.76146
G1 X188.6 Y123.4 E80.03119
G1 X182.4 Y123.4 E80.31035
G0 F7500 X182.8 Y123.8
;TYPE:WALL-OUTER
G1 F1800 X182.8 Y151.2 E81.48237
G1 X188.2 Y151.2 E81.71336
G1 X188.2 Y123.8 E82.88538
G1 X182.8 Y123.8 E83.11637
G0 F7500 X182.8 Y124.2
G0 X182.36 Y124.2
G1 F2700 E77.11637
G0 F7500 X182.21 Y123.4
G0 X183.653 Y124.653
G0 X172.347 Y124.653
G0 X173.79 Y123.4
G0 X162.4 Y123.4
;TYPE:WALL-INNER
G1 F2700 E83.11637
G1 F1800 X162.4 Y151.6 E84.3861
G1 X173.6 Y151.6 E84.89039
G1 X173.6 Y123.4 E86.16012
G1 X162.4 Y123.4 E86.66441
G0 F7500 X162.8 Y123.8
;TYPE:WALL-OUTER
G1 F1800 X162.8 Y151.2 E87.83643
G1 X173.2 Y151.2 E88.28129
G1 X173.2 Y123.8 E89.45331
G1 X162.8 Y123.8 E89.89817
G0 F7500 X162.8 Y124.2
G0 X162.36 Y124.2
G1 F2700 E83.89817
G0 F7500 X162.21 Y123.4
G0 X163.653 Y124.653
G0 X152.347 Y124.653
G0 X153.79 Y123.4
G0 X148.4 Y123.4
;TYPE:WALL-INNER
G1 F2700 E89.89817
G1 F1800 X148.4 Y151.6 E91.1679
G1 X153.6 Y151.6 E91.40203
G1 X153.6 Y123.4 E92.67176
G1 X148.4 Y123.4 E92.9059
G0 F7500 X148.8 Y123.8
;TYPE:WALL-OUTER
G1 F1800 X148.8 Y151.2 E94.07792
G1 X153.2 Y151.2 E94.26613
G1 X153.2 Y123.8 E95.43815
G1 X148.8 Y123.8 E95.62636
G0 F7500 X148.8 Y124.2
G0 X148.36 Y124.2
G1 F2700 E89.62636
G0 F7500 X148.21 Y123.4
G0 X149.653 Y124.653
G0 X138.347 Y124.653
G0 X139.79 Y123.4
G0 X133.4 Y123.4
;TYPE:WALL-INNER
G1 F2700 E95.62636
G1 F1800 X133.4 Y151.6 E96.89609
G1 X139.6 Y151.6 E97.17525
G1 X139.6 Y123.4 E98.44499
G1 X133.4 Y123.4 E98.72415
G0 F7500 X133.8 Y123.8
;TYPE:WALL-OUTER
G1 F1800 X133.8 Y151.2 E99.89617
G1 X139.2 Y151.2 E100.12715
G1 X139.2 Y123.8 E101.29918
G1 X133.8 Y123.8 E101.53016
G0 F7500 X133.8 Y124.2
G0 X133.36 Y124.2
G1 F2700 E95.53016
G0 F7500 X133.21 Y123.4
G0 X134.653 Y124.653
G0 X123.347 Y124.653
G0 X124.79 Y123.4
G0 X114.4 Y123.4
;TYPE:WALL-INNER
G1 F2700 E101.53016
G1 F1800 X114.4 Y151.6 E102.79989
G1 X124.6 Y151.6 E103.25916
G1 X124.6 Y123.4 E104.52889
G1 X114.4 Y123.4 E104.98815
G0 F7500 X114.8 Y123.8
;TYPE:WALL-OUTER
G1 F1800 X114.8 Y151.2 E106.16017
G1 X124.2 Y151.2 E106.56226
G1 X124.2 Y123.8 E107.73428
G1 X114.8 Y123.8 E108.13636
G0 F7500 X114.8 Y124.2
G0 X114.36 Y124.2
G1 F2700 E102.13636
G0 F7500 X114.21 Y123.4
G0 X115.653 Y124.653
G0 X104.347 Y124.653
G0 X105.79 Y123.4
G0 X89.4 Y123.4
;TYPE:WALL-INNER
G1 F2700 E108.13636
G1 F1800 X89.4 Y151.6 E109.40609
G1 X105.6 Y151.6 E110.13551
G1 X105.6 Y123.4 E111.40524
G1 X89.4 Y123.4 E112.13466
G0 F7500 X89.8 Y123.8
;TYPE:WALL-OUTER
G1 F1800 X89.8 Y151.2 E113.30669
G1 X105.2 Y151.2 E113.96542
G1 X105.2 Y123.8 E115.13744
G1 X89.8 Y123.8 E115.79617
G0 F7500 X89.8 Y124.2
G0 X89.36 Y124.2
G1 F2700 E109.79617
G0 F7500 X89.21 Y123.4
G0 X90.653 Y124.653
G0 X79.347 Y124.653
G0 X80.81 Y123.4
G0 X24.6 Y123.4
;TYPE:WALL-INNER
G1 F2700 E115.79617
G1 F1800 X24.6 Y115.6 E116.14737
G1 X210.4 Y115.6 E124.51318
G1 X210.4 Y159.4 E126.48532
G1 X24.6 Y159.4 E134.85113
G1 X24.6 Y151.6 E135.20234
G1 X80.6 Y151.6 E137.72379
G1 X80.6 Y123.4 E138.99352
G1 X24.6 Y123.4 E141.51497
G0 F7500 X24.8 Y123.8
;TYPE:WALL-OUTER
G1 F1800 X24.8 Y151.2 E142.68699
G1 X80.2 Y151.2 E145.05671
G1 X80.2 Y123.8 E146.22873
G1 X24.8 Y123.8 E148.59844
G0 F7500 X24.8 Y124.2
G1 F2700 E142.59844
G0 F7500 X24.6 Y124.2
G0 X24.37 Y115.37
G0 X24.2 Y115.2
G1 F2700 E148.59844
G1 F1800 X210.8 Y115.2 E156.58019
G1 X210.8 Y159.8 E158.48793
G1 X24.2 Y159.8 E166.46968
G1 X24.2 Y115.2 E168.37742
G0 F7500 X24.6 Y115.2
G0 X24.64 Y115.64
G0 X24.99 Y115.99
;TYPE:SKIN
G1 F1800 X210.01 Y115.99 E176.70812
G1 X210.01 Y159.01 E178.64513
G1 X24.99 Y159.01 E186.97583
G1 X24.99 Y151.99 E187.29191
G1 X80.99 Y151.99 E189.81336
G1 X80.99 Y123.01 E191.11821
G1 X24.99 Y123.01 E193.63966
G1 X24.99 Y115.99 E193.95574
G1 F2700 E187.95574
G0 F7500 X24.99 Y115.71
G0 X89.26 Y115.81
G0 X89.26 Y114.335
G0 X90.653 Y124.653
G0 X89.26 Y123.21
G0 X89.26 Y123.29
G0 X89.01 Y123.01
G1 F2700 E193.95574
G1 F1800 X89.01 Y151.99 E195.26059
G1 X105.99 Y151.99 E196.02513
G1 X105.99 Y123.01 E197.32998
G1 X89.01 Y123.01 E198.09452
G1 F2700 E192.09452
G0 F7500 X89.26 Y123.29
G0 X105.79 Y123.29
G0 X104.347 Y124.653
G0 X115.653 Y124.653
G0 X114.21 Y123.29
G0 X114.01 Y123.01
G1 F2700 E198.09452
G1 F1800 X114.01 Y151.99 E199.39937
G1 X124.99 Y151.99 E199.89376
G1 X124.99 Y123.01 E201.19861
G1 X114.01 Y123.01 E201.69299
G1 F2700 E195.69299
G0 F7500 X114.26 Y123.29
G0 X124.79 Y123.29
G0 X123.347 Y124.653
G0 X134.653 Y124.653
G0 X133.21 Y123.29
G0 X133.01 Y123.01
G1 F2700 E201.69299
G1 F1800 X133.01 Y151.99 E202.99784
G1 X139.99 Y151.99 E203.31213
G1 X139.99 Y123.01 E204.61698
G1 X133.01 Y123.01 E204.93126
G1 F2700 E198.93126
G0 F7500 X133.26 Y123.29
G0 X139.79 Y123.29
G0 X138.347 Y124.653
G0 X149.653 Y124.653
G0 X148.21 Y123.29
G0 X148.01 Y123.01
G1 F2700 E204.93126
G1 F1800 X148.01 Y151.99 E206.23611
G1 X153.99 Y151.99 E206.50536
G1 X153.99 Y123.01 E207.81021
G1 X148.01 Y123.01 E208.07947
G1 F2700 E202.07947
G0 F7500 X148.26 Y123.29
G0 X153.79 Y123.29
G0 X152.347 Y124.653
G0 X163.653 Y124.653
G0 X162.21 Y123.29
G0 X162.01 Y123.01
G1 F2700 E208.07947
G1 F1800 X162.01 Y151.99 E209.38432
G1 X173.99 Y151.99 E209.92373
G1 X173.99 Y123.01 E211.22858
G1 X162.01 Y123.01 E211.76799
G1 F2700 E205.76799
G0 F7500 X162.26 Y123.29
G0 X173.79 Y123.29
G0 X172.347 Y124.653
G0 X183.653 Y124.653
G0 X182.21 Y123.29
G0 X182.01 Y123.01
G1 F2700 E211.76799
G1 F1800 X182.01 Y151.99 E213.07284
G1 X188.99 Y151.99 E213.38712
G1 X188.99 Y123.01 E214.69197
G1 X182.01 Y123.01 E215.00625
G1 F2700 E209.00625
G0 F7500 X182.26 Y123.29
G0 X188.79 Y123.29
G0 X187.347 Y124.653
G0 X198.653 Y124.653
G0 X197.21 Y123.29
G0 X197.01 Y123.01
G1 F2700 E215.00625
G1 F1800 X197.01 Y151.99 E216.31111
G1 X201.99 Y151.99 E216.53533
G1 X201.99 Y123.01 E217.84018
G1 X197.01 Y123.01 E218.06441
G1 F2700 E212.06441
G0 F7500 X197.26 Y123.29
G0 X199.327 Y123.23
G0 X199.327 Y124.665
G0 X211.665 Y123.204
G0 X210.19 Y123.204
G0 X210.29 Y116.511
G0 X209.849 Y116.511
G1 F2700 E218.06441
G1 F1800 X209.488 Y116.15 E218.0874
G0 F7500 X208.922 Y116.15
G1 F1800 X209.849 Y117.077 E218.14643
G0 F7500 X209.849 Y117.642
G1 F1800 X208.356 Y116.15 E218.24147
G0 F7500 X207.791 Y116.15
G1 F1800 X209.849 Y118.208 E218.37251
