;FLAVOR:Marlin
M117 Time Left 2h30m22s
;TIME:9022
;Filament used: 6.45523m
;Layer height: 0.2
;MINX:73.5
;MINY:114
;MINZ:0.2
;MAXX:161.5
;MAXY:181
;MAXZ:33
;POSTPROCESSED
;Generated with Cura_SteamEngine 4.7.1
M140 S60
M105
M190 S60
M104 S200
M105
M109 S200
M82 ;absolute extrusion mode
; Ender 3 Custom Start G-code
G92 E0 ; Reset Extruder
G28 ; Home all axes
; ***SET NEW E STEP *** (93 is factory value - 95 mine - start)
G90                          ; Force coordinates to be absolute relative to the origin
M92 E95 ;					 ; ***SET NEW E STEP *** (93 is factory value - 95 mine - end)
G90                          ; Force coordinates to be absolute relative to the origin
G28                          ; Home X/Y/Z axis
G92 E0 ; Reset Extruder								
G28 ; Home all axes		
G1 Z2.0 F3000 ; Move Z Axis up little to prevent scratching of Heat Bed
G1 X0.1 Y20 Z0.3 F5000.0 ; Move to start position
G1 X0.1 Y200.0 Z0.3 F1500.0 E15 ; Draw the first line
G1 X0.4 Y200.0 Z0.3 F5000.0 ; Move to side a little
G1 X0.4 Y20 Z0.3 F1500.0 E30 ; Draw the second line
G92 E0 ; Reset Extruder
G1 Z2.0 F3000 ; Move Z Axis up little to prevent scratching of Heat Bed
G1 X5 Y20 Z0.3 F5000.0 ; Move over to prevent blob squish
G92 E0
G92 E0
G1 F2700 E-6
;LAYER_COUNT:165
;LAYER:0
M107
M204 S500
M205 X8 Y8
G0 F7500 X78.126 Y116.051 Z0.2
;TYPE:SKIRT
G1 F2700 E0
G1 F1500 X78.912 Y115.539 E0.02964
G1 X79.739 Y115.097 E0.05927
G1 X80.601 Y114.727 E0.08891
G1 X81.491 Y114.431 E0.11854
G1 X82.403 Y114.213 E0.14817
G1 X83.33 Y114.072 E0.1778
G1 X84.201 Y114.013 E0.20538
G1 X84.522 Y114.004 E0.21553
G1 X84.83 Y114 E0.22526
G1 X149.793 Y114 E2.27791
G1 X149.951 Y114.001 E2.2829
G1 X150.649 Y114.011 E2.30496
G1 X151.585 Y114.065 E2.33458
G1 X152.513 Y114.197 E2.3642
G1 X153.427 Y114.409 E2.39385
G1 X154.319 Y114.698 E2.42347
G1 X155.184 Y115.061 E2.45311
G1 X156.014 Y115.497 E2.48274
G1 X156.805 Y116.002 E2.51239
G1 X157.549 Y116.573 E2.54202
G1 X158.242 Y117.205 E2.57166
G1 X158.879 Y117.893 E2.60128
G1 X159.454 Y118.634 E2.63092
G1 X159.965 Y119.42 E2.66054
G1 X160.407 Y120.248 E2.6902
G1 X160.776 Y121.11 E2.71983
G1 X161.071 Y122 E2.74945
G1 X161.289 Y122.912 E2.77908
G1 X161.429 Y123.84 E2.80873
G1 X161.487 Y124.701 E2.836
G1 X161.496 Y125.021 E2.84612
G1 X161.5 Y125.33 E2.85588
G1 X161.499 Y169.4 E4.24837
G1 X161.49 Y170.127 E4.27134
G1 X161.439 Y171.064 E4.30099
G1 X161.307 Y171.992 E4.33061
G1 X161.098 Y172.906 E4.36023
G1 X160.811 Y173.799 E4.38987
G1 X160.449 Y174.665 E4.41953
G1 X160.015 Y175.496 E4.44915
G1 X159.511 Y176.287 E4.47879
G1 X158.942 Y177.032 E4.50841
G1 X158.311 Y177.727 E4.53807
G1 X157.624 Y178.365 E4.56769
G1 X156.885 Y178.942 E4.59732
G1 X156.099 Y179.454 E4.62695
G1 X155.273 Y179.897 E4.65657
G1 X154.411 Y180.269 E4.68624
G1 X153.522 Y180.565 E4.71584
G1 X152.61 Y180.785 E4.74548
G1 X151.683 Y180.926 E4.77511
G1 X150.799 Y180.987 E4.80311
G1 X150.478 Y180.996 E4.81326
G1 X150.17 Y181 E4.82299
G1 X85.207 Y181 E6.87563
G1 X84.367 Y180.99 E6.90218
G1 X83.431 Y180.938 E6.9318
G1 X82.502 Y180.806 E6.96145
G1 X81.588 Y180.596 E6.99108
G1 X80.695 Y180.309 E7.02072
G1 X79.83 Y179.946 E7.05036
G1 X78.999 Y179.512 E7.07998
G1 X78.208 Y179.008 E7.10962
G1 X77.463 Y178.438 E7.13925
G1 X76.769 Y177.807 E7.16889
G1 X76.132 Y177.12 E7.19849
G1 X75.555 Y176.38 E7.22814
G1 X75.043 Y175.594 E7.25778
G1 X74.6 Y174.767 E7.28743
G1 X74.229 Y173.906 E7.31705
G1 X73.933 Y173.016 E7.34669
G1 X73.714 Y172.104 E7.37632
G1 X73.573 Y171.177 E7.40595
G1 X73.513 Y170.288 E7.4341
G1 X73.504 Y169.955 E7.44463
G1 X73.5 Y169.658 E7.45401
G1 X73.501 Y125.525 E8.84849
G1 X73.51 Y124.86 E8.8695
G1 X73.563 Y123.924 E8.89913
G1 X73.695 Y122.995 E8.92878
G1 X73.906 Y122.081 E8.95841
G1 X74.194 Y121.189 E8.98803
G1 X74.557 Y120.324 E9.01767
G1 X74.992 Y119.493 E9.04731
G1 X75.496 Y118.703 E9.07692
G1 X76.066 Y117.958 E9.10656
G1 X76.698 Y117.264 E9.13622
G1 X77.386 Y116.627 E9.16584
G1 X78.126 Y116.051 E9.19547
G0 F7500 X78.51 Y116.27
G1 F1500 X79.291 Y115.782 E9.22457
G1 X80.111 Y115.364 E9.25365
G1 X80.965 Y115.019 E9.28276
G1 X81.845 Y114.749 E9.31184
G1 X82.745 Y114.557 E9.34092
G1 X83.659 Y114.443 E9.37002
G1 X84.212 Y114.413 E9.38752
G1 X84.533 Y114.404 E9.39767
G1 X84.83 Y114.4 E9.40705
G1 X149.793 Y114.4 E11.4597
G1 X150.643 Y114.411 E11.48656
G1 X151.562 Y114.464 E11.51564
G1 X152.473 Y114.597 E11.54473
G1 X153.369 Y114.808 E11.57382
G1 X154.243 Y115.096 E11.60289
G1 X155.09 Y115.459 E11.63201
G1 X155.901 Y115.894 E11.66109
G1 X156.671 Y116.398 E11.69017
G1 X157.395 Y116.967 E11.71926
G1 X158.067 Y117.597 E11.74837
G1 X158.682 Y118.282 E11.77746
G1 X159.235 Y119.018 E11.80655
G1 X159.722 Y119.799 E11.83563
G1 X160.139 Y120.62 E11.86472
G1 X160.484 Y121.474 E11.89383
G1 X160.753 Y122.354 E11.9229
G1 X160.945 Y123.255 E11.95201
G1 X161.058 Y124.168 E11.98108
G1 X161.087 Y124.712 E11.99829
G1 X161.096 Y125.032 E12.00841
G1 X161.1 Y125.33 E12.01782
G1 X161.099 Y169.395 E13.41015
G1 X161.09 Y170.122 E13.43312
G1 X161.039 Y171.041 E13.46221
G1 X160.908 Y171.953 E13.49132
G1 X160.698 Y172.849 E13.5204
G1 X160.412 Y173.724 E13.54948
G1 X160.051 Y174.571 E13.57858
G1 X159.617 Y175.383 E13.60767
G1 X159.115 Y176.155 E13.63676
G1 X158.547 Y176.88 E13.66586
G1 X157.919 Y177.553 E13.69495
G1 X157.235 Y178.169 E13.72403
G1 X156.5 Y178.723 E13.75312
G1 X155.72 Y179.212 E13.78221
G1 X154.9 Y179.631 E13.8113
G1 X154.047 Y179.977 E13.84039
G1 X153.167 Y180.248 E13.86948
G1 X152.267 Y180.441 E13.89856
G1 X151.353 Y180.556 E13.92767
G1 X150.788 Y180.587 E13.94555
G1 X150.467 Y180.596 E13.9557
G1 X150.17 Y180.6 E13.96508
G1 X85.207 Y180.6 E16.01773
G1 X84.372 Y180.59 E16.04411
G1 X83.453 Y180.538 E16.0732
G1 X82.542 Y180.407 E16.10228
G1 X81.646 Y180.197 E16.13136
G1 X80.771 Y179.91 E16.16045
G1 X79.924 Y179.548 E16.18956
G1 X79.112 Y179.114 E16.21865
G1 X78.341 Y178.612 E16.24772
G1 X77.616 Y178.044 E16.27682
G1 X76.943 Y177.415 E16.30593
G1 X76.328 Y176.731 E16.33499
G1 X75.774 Y175.996 E16.36407
G1 X75.286 Y175.215 E16.39317
G1 X74.867 Y174.395 E16.42227
G1 X74.521 Y173.542 E16.45135
G1 X74.251 Y172.662 E16.48044
G1 X74.058 Y171.761 E16.50955
G1 X73.944 Y170.848 E16.53863
G1 X73.913 Y170.277 E16.55669
G1 X73.904 Y169.944 E16.56722
G1 X73.9 Y169.658 E16.57626
G1 X73.901 Y125.531 E17.97054
G1 X73.91 Y124.866 E17.99156
G1 X73.962 Y123.946 E18.02067
G1 X74.094 Y123.035 E18.04976
G1 X74.305 Y122.139 E18.07884
G1 X74.592 Y121.264 E18.10794
G1 X74.955 Y120.418 E18.13703
G1 X75.389 Y119.606 E18.16612
G1 X75.892 Y118.835 E18.19521
G1 X76.461 Y118.111 E18.2243
G1 X77.089 Y117.439 E18.25337
G1 X77.774 Y116.823 E18.28247
G1 X78.51 Y116.27 E18.31156
G0 F7500 X78.894 Y116.494
G1 F1500 X79.669 Y116.031 E18.34009
G1 X80.482 Y115.638 E18.36862
G1 X81.327 Y115.318 E18.39717
G1 X82.196 Y115.075 E18.42568
G1 X83.084 Y114.909 E18.45423
G1 X84.223 Y114.813 E18.49034
G1 X84.544 Y114.804 E18.50049
G1 X84.83 Y114.8 E18.50953
G1 X149.793 Y114.8 E20.56217
G1 X150.637 Y114.811 E20.58884
G1 X151.539 Y114.864 E20.61739
G1 X152.432 Y114.996 E20.64591
G1 X153.31 Y115.207 E20.67445
G1 X154.166 Y115.495 E20.70298
G1 X154.993 Y115.857 E20.73151
G1 X155.785 Y116.292 E20.76006
G1 X156.536 Y116.794 E20.7886
G1 X157.239 Y117.361 E20.81714
G1 X157.889 Y117.988 E20.84567
G1 X158.481 Y118.67 E20.87421
G1 X159.011 Y119.401 E20.90274
G1 X159.473 Y120.177 E20.93127
G1 X159.866 Y120.99 E20.95981
G1 X160.184 Y121.835 E20.98833
G1 X160.427 Y122.705 E21.01688
G1 X160.592 Y123.593 E21.04542
G1 X160.687 Y124.723 E21.08125
G1 X160.696 Y125.043 E21.09136
G1 X160.7 Y125.33 E21.10043
G1 X160.699 Y169.39 E22.4926
G1 X160.69 Y170.117 E22.51557
G1 X160.639 Y171.019 E22.54412
G1 X160.508 Y171.913 E22.57267
G1 X160.299 Y172.791 E22.60119
G1 X160.013 Y173.648 E22.62973
G1 X159.652 Y174.476 E22.65827
G1 X159.22 Y175.268 E22.68678
G1 X158.719 Y176.02 E22.71533
G1 X158.153 Y176.724 E22.74387
G1 X157.528 Y177.375 E22.77239
G1 X156.847 Y177.969 E22.80094
G1 X156.116 Y178.5 E22.82949
G1 X155.342 Y178.964 E22.858
G1 X154.529 Y179.358 E22.88655
G1 X153.685 Y179.678 E22.91507
G1 X152.815 Y179.923 E22.94363
G1 X151.928 Y180.089 E22.97214
G1 X150.777 Y180.187 E23.00864
G1 X150.456 Y180.196 E23.01879
G1 X150.17 Y180.2 E23.02783
G1 X85.207 Y180.2 E25.08047
G1 X84.377 Y180.19 E25.1067
G1 X83.476 Y180.139 E25.13521
G1 X82.582 Y180.007 E25.16377
G1 X81.704 Y179.798 E25.19228
G1 X80.847 Y179.511 E25.22084
G1 X80.02 Y179.15 E25.24935
G1 X79.227 Y178.717 E25.2779
G1 X78.476 Y178.216 E25.30643
G1 X77.772 Y177.65 E25.33497
G1 X77.121 Y177.024 E25.3635
G1 X76.528 Y176.343 E25.39204
G1 X75.998 Y175.612 E25.42057
G1 X75.534 Y174.837 E25.44911
G1 X75.14 Y174.024 E25.47765
G1 X74.82 Y173.18 E25.50617
G1 X74.576 Y172.31 E25.53472
G1 X74.41 Y171.422 E25.56327
G1 X74.313 Y170.267 E25.59989
G1 X74.304 Y169.934 E25.61042
G1 X74.3 Y169.658 E25.61914
G1 X74.301 Y125.536 E27.01327
G1 X74.31 Y124.871 E27.03428
G1 X74.362 Y123.969 E27.06283
G1 X74.494 Y123.076 E27.09135
G1 X74.704 Y122.198 E27.11988
G1 X74.991 Y121.341 E27.14843
G1 X75.353 Y120.514 E27.17696
G1 X75.786 Y119.722 E27.20548
G1 X76.288 Y118.971 E27.23402
G1 X76.855 Y118.267 E27.26258
G1 X77.481 Y117.617 E27.2911
G1 X78.162 Y117.024 E27.31963
G1 X78.894 Y116.494 E27.34819
G1 F2700 E21.34819
;MESH:dungeon_box.stl
G0 F7500 X137.827 Y134.665
G0 X137.827 Y133.23
G0 X135.9 Y133.4
;TYPE:WALL-INNER
G1 F2700 E27.34819
G1 F1500 X135.9 Y161.6 E28.23922
G1 X141.1 Y161.6 E28.40353
G1 X141.1 Y133.4 E29.29457
G1 X135.9 Y133.4 E29.45887
G0 F7500 X136.3 Y133.8
;TYPE:WALL-OUTER
G1 F1500 X136.3 Y161.2 E30.28135
G1 X140.7 Y161.2 E30.41342
G1 X140.7 Y133.8 E31.2359
G1 X136.3 Y133.8 E31.36797
G0 F7500 X136.3 Y134.2
G0 X135.86 Y134.2
G1 F2700 E25.36797
G0 F7500 X135.71 Y133.4
G0 X137.153 Y134.653
G0 X125.847 Y134.653
G0 X127.31 Y133.4
G0 X85.1 Y133.4
;TYPE:WALL-INNER
G1 F2700 E31.36797
G1 F1500 X85.1 Y125.6 E31.61443
G1 X149.9 Y125.6 E33.66192
G1 X149.9 Y169.4 E35.04588
G1 X85.1 Y169.4 E37.09337
G1 X85.1 Y161.6 E37.33983
G1 X127.1 Y161.6 E38.66691
G1 X127.1 Y133.4 E39.55795
G1 X85.1 Y133.4 E40.88503
G0 F7500 X85.3 Y133.8
;TYPE:WALL-OUTER
G1 F1500 X85.3 Y161.2 E41.7075
G1 X126.7 Y161.2 E42.95022
G1 X126.7 Y133.8 E43.77269
G1 X85.3 Y133.8 E45.0154
G0 F7500 X85.3 Y134.2
G1 F2700 E39.0154
G0 F7500 X85.1 Y134.2
G0 X84.87 Y125.37
G0 X84.7 Y125.2
G1 F2700 E45.0154
G1 F1500 X150.3 Y125.2 E46.98454
G1 X150.3 Y169.8 E48.32331
G1 X84.7 Y169.8 E50.29244
G1 X84.7 Y125.2 E51.63121
G0 F7500 X85.1 Y125.2
G0 X85.14 Y125.64
G0 X85.49 Y125.99
;TYPE:SKIN
G1 F1500 X149.51 Y125.99 E53.65406
G1 X149.51 Y169.01 E55.01337
G1 X85.49 Y169.01 E57.03622
G1 X85.49 Y161.99 E57.25803
G1 X127.49 Y161.99 E58.58511
G1 X127.49 Y133.01 E59.50079
G1 X85.49 Y133.01 E60.82787
G1 X85.49 Y125.99 E61.04968
G1 F2700 E55.04968
G0 F7500 X85.49 Y125.71
G0 X135.76 Y125.81
G0 X135.76 Y124.335
G0 X137.153 Y134.653
G0 X135.76 Y133.21
G0 X135.76 Y133.29
G0 X135.51 Y133.01
G1 F2700 E61.04968
G1 F1500 X135.51 Y161.99 E61.96537
G1 X141.49 Y161.99 E62.15432
G1 X141.49 Y133.01 E63.07
G1 X135.51 Y133.01 E63.25895
G1 F2700 E57.25895
G0 F7500 X135.76 Y133.29
G0 X137.827 Y133.23
G0 X137.827 Y134.665
G0 X151.165 Y133.204
G0 X149.69 Y133.204
G0 X149.79 Y126.722
G0 X149.349 Y126.722
G1 F2700 E63.25895
G1 F1500 X148.777 Y126.149 E63.28454
G0 F7500 X148.211 Y126.149
G1 F1500 X149.349 Y127.287 E63.33539
G0 F7500 X149.349 Y127.853
G1 F1500 X147.646 Y126.149 E63.41151
G0 F7500 X147.08 Y126.149
G1 F1500 X149.349 Y128.419 E63.51292
G0 F7500 X149.349 Y128.984
G1 F1500 X146.514 Y126.149 E63.6396
G0 F7500 X145.948 Y126.149
G1 F1500 X149.349 Y129.55 E63.79158
G0 F7500 X149.349 Y130.116
G1 F1500 X145.383 Y126.149 E63.96882
G0 F7500 X144.817 Y126.149
G1 F1500 X149.349 Y130.681 E64.17133
G0 F7500 X149.349 Y131.247
G1 F1500 X144.251 Y126.149 E64.39914
G0 F7500 X143.686 Y126.149
G1 F1500 X149.349 Y131.813 E64.65221
G0 F7500 X149.349 Y132.378
G1 F1500 X143.12 Y126.149 E64.93056
G0 F7500 X142.554 Y126.149
G1 F1500 X149.349 Y132.944 E65.23419
G0 F7500 X149.349 Y133.51
G1 F1500 X141.989 Y126.149 E65.5631
G0 F7500 X141.423 Y126.149
G1 F1500 X149.349 Y134.075 E65.91727
G0 F7500 X149.349 Y134.641
G1 F1500 X140.857 Y126.149 E66.29674
G0 F7500 X140.292 Y126.149
G1 F1500 X149.349 Y135.207 E66.70147
G0 F7500 X149.349 Y135.772
G1 F1500 X139.726 Y126.149 E67.13147
G0 F7500 X139.16 Y126.149
G1 F1500 X149.349 Y136.338 E67.58677
G0 F7500 X149.349 Y136.904
G1 F1500 X138.595 Y126.149 E68.06734
G0 F7500 X138.029 Y126.149
G1 F1500 X149.349 Y137.47 E68.57319
G0 F7500 X149.349 Y138.035
G1 F1500 X137.463 Y126.149 E69.10432
G0 F7500 X136.897 Y126.149
G1 F1500 X149.349 Y138.601 E69.66074
G0 F7500 X149.349 Y139.167
G1 F1500 X136.332 Y126.149 E70.24243
G0 F7500 X135.766 Y126.149
G1 F1500 X149.349 Y139.732 E70.84939
G0 F7500 X149.349 Y140.298
G1 F1500 X135.2 Y126.149 E71.48164
G0 F7500 X134.635 Y126.149
G1 F1500 X141.335 Y132.849 E71.78103
G0 F7500 X141.649 Y133.163
G1 F1500 X149.349 Y140.864 E72.12512
G0 F7500 X149.349 Y141.429
G1 F1500 X141.649 Y133.729 E72.4692
G0 F7500 X141.649 Y134.295
G1 F1500 X149.349 Y141.995 E72.81327
G0 F7500 X149.349 Y142.561
G1 F1500 X141.649 Y134.86 E73.15737
G0 F7500 X141.649 Y135.426
G1 F1500 X149.349 Y143.126 E73.50145
G0 F7500 X149.349 Y143.692
G1 F1500 X141.649 Y135.992 E73.84552
G0 F7500 X141.649 Y136.557
G1 F1500 X149.349 Y144.258 E74.18962
G0 F7500 X149.349 Y144.823
G1 F1500 X141.649 Y137.123 E74.53369
G0 F7500 X141.649 Y137.689
G1 F1500 X149.349 Y145.389 E74.87777
G0 F7500 X149.349 Y145.955
G1 F1500 X141.649 Y138.254 E75.22187
G0 F7500 X141.649 Y138.82
G1 F1500 X149.349 Y146.521 E75.56596
G0 F7500 X149.349 Y147.086
G1 F1500 X141.649 Y139.386 E75.91004
G0 F7500 X141.649 Y139.951
G1 F1500 X149.35 Y147.653 E76.25418
G0 F7500 X149.35 Y148.218
G1 F1500 X141.649 Y140.517 E76.5983
G0 F7500 X141.649 Y141.083
G1 F1500 X149.35 Y148.784 E76.94242
G0 F7500 X149.35 Y149.35
G1 F1500 X141.649 Y141.649 E77.28654
G0 F7500 X141.649 Y142.214
G1 F1500 X149.35 Y149.915 E77.63066
G0 F7500 X149.35 Y150.481
G1 F1500 X141.649 Y142.78 E77.97478
G0 F7500 X141.649 Y143.346
G1 F1500 X149.35 Y151.047 E78.3189
G0 F7500 X149.35 Y151.612
G1 F1500 X141.649 Y143.911 E78.66302
G0 F7500 X141.649 Y144.477
G1 F1500 X149.35 Y152.178 E79.00714
G0 F7500 X149.35 Y152.744
G1 F1500 X141.649 Y145.043 E79.35126
G0 F7500 X141.649 Y145.608
G1 F1500 X149.35 Y153.309 E79.69538
G0 F7500 X149.35 Y153.875
G1 F1500 X141.649 Y146.174 E80.0395
G0 F7500 X141.649 Y146.74
G1 F1500 X149.35 Y154.441 E80.38362
G0 F7500 X149.35 Y155.006
G1 F1500 X141.649 Y147.305 E80.72774
G0 F7500 X141.649 Y147.872
G1 F1500 X149.35 Y155.572 E81.07184
G0 F7500 X149.35 Y156.138
G1 F1500 X141.649 Y148.437 E81.41596
G0 F7500 X141.649 Y149.003
G1 F1500 X149.35 Y156.704 E81.76008
G0 F7500 X149.35 Y157.269
G1 F1500 X141.649 Y149.569 E82.10417
G0 F7500 X141.649 Y150.135
G1 F1500 X149.35 Y157.835 E82.44827
G0 F7500 X149.35 Y158.401
G1 F1500 X141.649 Y150.7 E82.79239
G0 F7500 X141.649 Y151.266
G1 F1500 X149.35 Y158.966 E83.13649
G0 F7500 X149.35 Y159.532
G1 F1500 X141.649 Y151.832 E83.48059
G0 F7500 X141.649 Y152.397
G1 F1500 X149.35 Y160.098 E83.82471
G0 F7500 X149.35 Y160.663
G1 F1500 X141.649 Y152.963 E84.1688
G0 F7500 X141.649 Y153.529
G1 F1500 X149.35 Y161.229 E84.5129
G0 F7500 X149.35 Y161.795
G1 F1500 X141.649 Y154.094 E84.85702
G0 F7500 X141.649 Y154.66
G1 F1500 X149.35 Y162.36 E85.20112
G0 F7500 X149.35 Y162.926
G1 F1500 X141.649 Y155.226 E85.54522
G0 F7500 X141.649 Y155.791
G1 F1500 X149.35 Y163.492 E85.88934
G0 F7500 X149.35 Y164.057
G1 F1500 X141.649 Y156.357 E86.23343
G0 F7500 X141.649 Y156.923
G1 F1500 X149.35 Y164.623 E86.57753
G0 F7500 X149.35 Y165.189
G1 F1500 X141.649 Y157.488 E86.92165
G0 F7500 X141.649 Y158.054
G1 F1500 X149.35 Y165.755 E87.26577
G0 F7500 X149.35 Y166.32
G1 F1500 X141.649 Y158.62 E87.60987
G0 F7500 X141.649 Y159.185
G1 F1500 X149.35 Y166.886 E87.95399
G0 F7500 X149.35 Y167.452
G1 F1500 X141.649 Y159.751 E88.29811
G0 F7500 X141.649 Y160.317
G1 F1500 X149.35 Y168.017 E88.64221
G0 F7500 X149.35 Y168.583
G1 F1500 X141.649 Y160.883 E88.9863
G0 F7500 X141.649 Y161.448
G1 F1500 X149.05 Y168.849 E89.31702
G0 F7500 X148.484 Y168.849
