;FLAVOR:Marlin
M117 Time Left 0h11m20s
;TIME:680
;Filament used: 0.210593m
;Layer height: 0.2
;MINX:1.5
;MINY:15.5
;MINZ:0.2
;MAXX:148.564
;MAXY:163.136
;MAXZ:34
;POSTPROCESSED
;Generated with Cura_SteamEngine 4.7.1
M140 S60
M105
M190 S60
M104 S200
M105
M109 S200
M82 ;absolute extrusion mode
; Ender 3 Custom Start G-code
G92 E0 ; Reset Extruder
G28 ; Home all axes
; ***SET NEW E STEP *** (93 is factory value - 95 mine - start)
G90                          ; Force coordinates to be absolute relative to the origin
M92 E95 ;					 ; ***SET NEW E STEP *** (93 is factory value - 95 mine - end)
G90                          ; Force coordinates to be absolute relative to the origin
G28                          ; Home X/Y/Z axis
G92 E0 ; Reset Extruder								
G28 ; Home all axes		
G1 Z2.0 F3000 ; Move Z Axis up little to prevent scratching of Heat Bed
G1 X0.1 Y20 Z0.3 F5000.0 ; Move to start position
G92 E0 ; Reset Extruder
G1 Z2.0 F3000 ; Move Z Axis up little to prevent scratching of Heat Bed
G1 X5 Y20 Z0.3 F5000.0 ; Move over to prevent blob squish
G92 E0
G92 E0
G1 F2700 E-6
;LAYER_COUNT:170
;LAYER:0
M107
M204 S500
M205 X8 Y8
G0 F7500 X7.739 Y16.597 Z0.2
;TYPE:SKIRT
G1 F2700 E0
G1 F1500 X8.601 Y16.227 E0.02964
G1 X9.491 Y15.931 E0.05928
G1 X10.403 Y15.713 E0.0889
G1 X11.33 Y15.572 E0.11853
G1 X12.201 Y15.513 E0.14612
G1 X12.522 Y15.504 E0.15626
G1 X12.83 Y15.5 E0.166
G1 X131.793 Y15.5 E3.92488
G1 X131.951 Y15.501 E3.92988
G1 X132.649 Y15.511 E3.95193
G1 X133.585 Y15.565 E3.98156
G1 X134.513 Y15.697 E4.01118
G1 X135.427 Y15.909 E4.04082
G1 X136.319 Y16.198 E4.07045
G1 X137.184 Y16.561 E4.10009
G1 X138.014 Y16.997 E4.12971
G1 X138.805 Y17.502 E4.15937
G1 X139.549 Y18.073 E4.189
G1 X140.242 Y18.705 E4.21863
G1 X140.879 Y19.393 E4.24826
G1 X141.454 Y20.134 E4.2779
G1 X141.965 Y20.92 E4.30752
G1 X142.407 Y21.748 E4.33718
G1 X142.776 Y22.61 E4.3668
G1 X143.071 Y23.5 E4.39643
G1 X143.289 Y24.412 E4.42606
G1 X143.429 Y25.34 E4.45571
G1 X143.487 Y26.201 E4.48298
G1 X143.496 Y26.521 E4.49309
G1 X143.5 Y26.83 E4.50286
G1 X143.499 Y27.897 E4.53657
G1 X143.49 Y28.627 E4.55964
G1 X143.439 Y29.563 E4.58926
G1 X143.308 Y30.492 E4.6189
G1 X143.098 Y31.406 E4.64853
G1 X142.811 Y32.299 E4.67817
G1 X142.449 Y33.164 E4.7078
G1 X142.015 Y33.995 E4.73742
G1 X141.511 Y34.787 E4.76709
G1 X140.942 Y35.532 E4.79671
G1 X140.312 Y36.226 E4.82632
G1 X139.624 Y36.864 E4.85597
G1 X138.885 Y37.442 E4.88561
G1 X138.1 Y37.954 E4.91523
G1 X137.273 Y38.397 E4.94487
G1 X136.412 Y38.769 E4.97451
G1 X135.522 Y39.065 E5.00414
G1 X134.61 Y39.285 E5.03378
G1 X133.683 Y39.426 E5.06341
G1 X132.799 Y39.487 E5.09141
G1 X132.478 Y39.496 E5.10156
G1 X132.17 Y39.5 E5.11129
G1 X13.207 Y39.5 E8.87018
G1 X12.367 Y39.49 E8.89672
G1 X11.431 Y39.438 E8.92634
G1 X10.502 Y39.306 E8.95599
G1 X9.588 Y39.096 E8.98562
G1 X8.695 Y38.809 E9.01526
G1 X7.83 Y38.446 E9.0449
G1 X6.999 Y38.012 E9.07452
G1 X6.208 Y37.508 E9.10416
G1 X5.463 Y36.938 E9.1338
G1 X4.769 Y36.307 E9.16344
G1 X4.132 Y35.62 E9.19304
G1 X3.555 Y34.88 E9.22269
G1 X3.043 Y34.094 E9.25233
G1 X2.6 Y33.267 E9.28197
G1 X2.229 Y32.406 E9.3116
G1 X1.933 Y31.516 E9.34123
G1 X1.714 Y30.604 E9.37087
G1 X1.573 Y29.677 E9.4005
G1 X1.513 Y28.788 E9.42865
G1 X1.504 Y28.455 E9.43917
G1 X1.5 Y28.158 E9.44856
G1 X1.501 Y27.025 E9.48436
G1 X1.51 Y26.36 E9.50537
G1 X1.563 Y25.424 E9.535
G1 X1.695 Y24.495 E9.56464
G1 X1.906 Y23.581 E9.59428
G1 X2.194 Y22.689 E9.6239
G1 X2.557 Y21.824 E9.65354
G1 X2.992 Y20.993 E9.68318
G1 X3.496 Y20.203 E9.71279
G1 X4.066 Y19.458 E9.74243
G1 X4.698 Y18.764 E9.77209
G1 X5.386 Y18.127 E9.80171
G1 X6.126 Y17.551 E9.83134
G1 X6.912 Y17.039 E9.86098
G1 X7.739 Y16.597 E9.89061
G0 F7500 X8.111 Y16.864
G1 F1500 X8.965 Y16.519 E9.91971
G1 X9.845 Y16.249 E9.9488
G1 X10.745 Y16.057 E9.97787
G1 X11.659 Y15.943 E10.00698
G1 X12.212 Y15.913 E10.02448
G1 X12.533 Y15.904 E10.03462
G1 X12.83 Y15.9 E10.04401
G1 X131.793 Y15.9 E13.8029
G1 X132.643 Y15.911 E13.82976
G1 X133.562 Y15.964 E13.85884
G1 X134.473 Y16.097 E13.88793
G1 X135.369 Y16.308 E13.91702
G1 X136.243 Y16.596 E13.9461
G1 X137.09 Y16.959 E13.97521
G1 X137.901 Y17.394 E14.00429
G1 X138.671 Y17.898 E14.03337
G1 X139.395 Y18.467 E14.06247
G1 X140.067 Y19.097 E14.09157
G1 X140.682 Y19.782 E14.12066
G1 X141.235 Y20.518 E14.14975
G1 X141.722 Y21.299 E14.17883
G1 X142.139 Y22.12 E14.20792
G1 X142.484 Y22.974 E14.23703
G1 X142.753 Y23.854 E14.2661
G1 X142.945 Y24.755 E14.29521
G1 X143.058 Y25.668 E14.32428
G1 X143.087 Y26.212 E14.34149
G1 X143.096 Y26.532 E14.35161
G1 X143.1 Y26.83 E14.36102
G1 X143.099 Y27.892 E14.39458
G1 X143.09 Y28.622 E14.41765
G1 X143.039 Y29.541 E14.44673
G1 X142.908 Y30.452 E14.47581
G1 X142.699 Y31.349 E14.50491
G1 X142.412 Y32.224 E14.53401
G1 X142.051 Y33.07 E14.56307
G1 X141.617 Y33.883 E14.59219
G1 X141.115 Y34.654 E14.62126
G1 X140.548 Y35.379 E14.65034
G1 X139.92 Y36.052 E14.67943
G1 X139.235 Y36.669 E14.70856
G1 X138.5 Y37.223 E14.73764
G1 X137.72 Y37.711 E14.76671
G1 X136.9 Y38.13 E14.79581
G1 X136.047 Y38.477 E14.82491
G1 X135.167 Y38.748 E14.854
G1 X134.267 Y38.941 E14.88308
G1 X133.354 Y39.056 E14.91216
G1 X132.788 Y39.087 E14.93007
G1 X132.467 Y39.096 E14.94022
G1 X132.17 Y39.1 E14.9496
G1 X13.207 Y39.1 E18.70849
G1 X12.372 Y39.09 E18.73488
G1 X11.453 Y39.038 E18.76396
G1 X10.542 Y38.907 E18.79304
G1 X9.646 Y38.697 E18.82212
G1 X8.771 Y38.41 E18.85122
G1 X7.924 Y38.048 E18.88032
G1 X7.112 Y37.614 E18.90941
G1 X6.341 Y37.112 E18.93848
G1 X5.616 Y36.544 E18.96759
G1 X4.943 Y35.915 E18.99669
G1 X4.328 Y35.231 E19.02576
G1 X3.774 Y34.496 E19.05484
G1 X3.286 Y33.715 E19.08394
G1 X2.867 Y32.895 E19.11303
G1 X2.521 Y32.042 E19.14212
G1 X2.251 Y31.162 E19.1712
G1 X2.058 Y30.261 E19.20032
G1 X1.944 Y29.348 E19.22939
G1 X1.913 Y28.777 E19.24746
G1 X1.904 Y28.444 E19.25798
G1 X1.9 Y28.158 E19.26702
G1 X1.901 Y27.031 E19.30263
G1 X1.91 Y26.366 E19.32365
G1 X1.962 Y25.446 E19.35276
G1 X2.094 Y24.535 E19.38185
G1 X2.305 Y23.639 E19.41093
G1 X2.592 Y22.764 E19.44003
G1 X2.955 Y21.918 E19.46912
G1 X3.389 Y21.106 E19.49821
G1 X3.892 Y20.335 E19.5273
G1 X4.461 Y19.611 E19.55639
G1 X5.089 Y18.939 E19.58545
G1 X5.774 Y18.323 E19.61456
G1 X6.51 Y17.77 E19.64365
G1 X7.291 Y17.282 E19.67275
G1 X8.111 Y16.864 E19.70183
G0 F7500 X8.482 Y17.138
G1 F1500 X9.327 Y16.818 E19.73038
G1 X10.196 Y16.575 E19.75889
G1 X11.084 Y16.409 E19.78744
G1 X12.223 Y16.313 E19.82355
G1 X12.544 Y16.304 E19.8337
G1 X12.83 Y16.3 E19.84274
G1 X131.793 Y16.3 E23.60163
G1 X132.637 Y16.311 E23.6283
G1 X133.539 Y16.364 E23.65685
G1 X134.432 Y16.496 E23.68537
G1 X135.31 Y16.707 E23.7139
G1 X136.166 Y16.995 E23.74244
G1 X136.993 Y17.357 E23.77096
G1 X137.785 Y17.792 E23.79951
G1 X138.536 Y18.294 E23.82806
G1 X139.239 Y18.861 E23.85659
G1 X139.889 Y19.488 E23.88513
G1 X140.481 Y20.17 E23.91367
G1 X141.011 Y20.901 E23.9422
G1 X141.473 Y21.677 E23.97073
G1 X141.866 Y22.49 E23.99926
G1 X142.184 Y23.335 E24.02779
G1 X142.427 Y24.205 E24.05633
G1 X142.592 Y25.093 E24.08487
G1 X142.687 Y26.223 E24.1207
G1 X142.696 Y26.543 E24.13082
G1 X142.7 Y26.83 E24.13989
G1 X142.699 Y27.887 E24.17328
G1 X142.69 Y28.617 E24.19635
G1 X142.639 Y29.518 E24.22487
G1 X142.508 Y30.412 E24.25342
G1 X142.299 Y31.291 E24.28196
G1 X142.013 Y32.147 E24.31048
G1 X141.652 Y32.975 E24.33902
G1 X141.22 Y33.768 E24.36756
G1 X140.719 Y34.519 E24.39608
G1 X140.154 Y35.223 E24.4246
G1 X139.528 Y35.875 E24.45316
G1 X138.847 Y36.468 E24.4817
G1 X138.117 Y36.999 E24.51022
G1 X137.342 Y37.464 E24.53878
G1 X136.529 Y37.857 E24.56731
G1 X135.685 Y38.178 E24.59584
G1 X134.816 Y38.423 E24.62437
G1 X133.928 Y38.589 E24.65291
G1 X132.777 Y38.687 E24.68941
G1 X132.456 Y38.696 E24.69956
G1 X132.17 Y38.7 E24.7086
G1 X13.207 Y38.7 E28.46749
G1 X12.377 Y38.69 E28.49371
G1 X11.476 Y38.639 E28.52223
G1 X10.582 Y38.507 E28.55078
G1 X9.704 Y38.298 E28.5793
G1 X8.847 Y38.011 E28.60786
G1 X8.02 Y37.65 E28.63637
G1 X7.227 Y37.217 E28.66492
G1 X6.476 Y36.716 E28.69344
G1 X5.772 Y36.15 E28.72198
G1 X5.121 Y35.524 E28.75052
G1 X4.528 Y34.843 E28.77905
G1 X3.998 Y34.112 E28.80758
G1 X3.534 Y33.337 E28.83612
G1 X3.14 Y32.524 E28.86467
G1 X2.82 Y31.68 E28.89319
G1 X2.576 Y30.81 E28.92174
G1 X2.41 Y29.922 E28.95028
G1 X2.313 Y28.767 E28.98691
G1 X2.304 Y28.434 E28.99743
G1 X2.3 Y28.158 E29.00615
G1 X2.301 Y27.036 E29.04161
G1 X2.31 Y26.371 E29.06262
G1 X2.362 Y25.469 E29.09117
G1 X2.494 Y24.576 E29.11969
G1 X2.704 Y23.698 E29.14822
G1 X2.991 Y22.841 E29.17677
G1 X3.353 Y22.014 E29.2053
G1 X3.786 Y21.222 E29.23382
G1 X4.288 Y20.471 E29.26236
G1 X4.855 Y19.767 E29.29092
G1 X5.481 Y19.117 E29.31944
G1 X6.162 Y18.524 E29.34797
G1 X6.894 Y17.994 E29.37652
G1 X7.669 Y17.531 E29.40505
G1 X8.482 Y17.138 E29.43358
G1 F2700 E23.43358
;MESH:z_mini_cube_2x3_33.stl
G0 F7500 X12.914 Y25.835
G0 X12.914 Y26.914
G0 X13.1 Y27.1
;TYPE:WALL-INNER
G1 F2700 E29.43358
G1 F1500 X131.9 Y27.1 E33.18732
G1 X131.9 Y27.9 E33.2126
G1 X13.1 Y27.9 E36.96634
G1 X13.1 Y27.1 E36.99161
G0 F7500 X12.7 Y26.7
;TYPE:WALL-OUTER
G1 F1500 X132.3 Y26.7 E40.58168
G1 X132.3 Y28.3 E40.62971
G1 X12.7 Y28.3 E44.21977
G1 X12.7 Y26.7 E44.2678
G0 F7500 X13.1 Y26.7
G0 X13.14 Y27.14
G0 X13.49 Y27.49
;TYPE:SKIN
G1 F1500 X131.51 Y27.49 E47.99689
G1 X131.51 Y27.51 E47.99753
G1 X13.49 Y27.51 E51.72662
G1 X13.49 Y27.49 E51.72725
G0 F7500 X13.49 Y27.3
;MESH:NONMESH
G0 F300 X13.49 Y27.3 Z0.4
G0 F7500 X13.1 Y27.1
M117 Time Left 0h10m08s
;TIME_ELAPSED:71.908715
;LAYER:1
M106 S85
;TYPE:WALL-INNER
;MESH:z_mini_cube_2x3_33.stl
G1 F2250 X131.9 Y27.1 E55.67856
G1 X131.9 Y27.9 E55.70516
G1 X13.1 Y27.9 E59.65647
G1 X13.1 Y27.1 E59.68308
G0 F8250 X12.7 Y26.7
;TYPE:WALL-OUTER
G1 F1125 X132.3 Y26.7 E63.46209
G1 X132.3 Y28.3 E63.51265
G1 X12.7 Y28.3 E67.29166
G1 X12.7 Y26.7 E67.34222
G0 F8250 X13.1 Y26.7
G0 X13.14 Y27.14
G0 X13.49 Y27.49
;TYPE:SKIN
G1 F1125 X131.51 Y27.49 E71.26758
G1 X131.51 Y27.51 E71.26825
G1 X13.49 Y27.51 E75.19361
G1 X13.49 Y27.49 E75.19427
G0 F8250 X13.49 Y27.3
;MESH:NONMESH
G0 F300 X13.49 Y27.3 Z0.6
G0 F8250 X13.1 Y27.1
M117 Time Left 0h09m35s
;TIME_ELAPSED:104.425550
;LAYER:2
M106 S170
;TYPE:WALL-INNER
;MESH:z_mini_cube_2x3_33.stl
G1 F2400 X14.9 Y27.1 E75.25414
G1 X14.9 Y27.9 E75.28075
G1 X13.1 Y27.9 E75.34062
G1 X13.1 Y27.1 E75.36723
G0 F9000 X12.7 Y26.7
;TYPE:WALL-OUTER
G1 F600 X15.3 Y26.7 E75.44938
G1 X15.3 Y28.3 E75.49993
G1 X12.7 Y28.3 E75.58209
G1 X12.7 Y26.7 E75.63264
G0 F9000 X13.1 Y26.7
G0 X13.14 Y27.14
G0 X13.49 Y27.49
;TYPE:SKIN
G1 F600 X14.51 Y27.49 E75.66657
G1 X14.51 Y27.51 E75.66723
G1 X13.49 Y27.51 E75.70116
G1 X13.49 Y27.49 E75.70182
G0 F9000 X13.49 Y27.3
;MESH:NONMESH
G0 F300 X13.49 Y27.3 Z0.8
G0 F9000 X13.1 Y27.1
M117 Time Left 0h09m33s
;TIME_ELAPSED:106.140269
;LAYER:3
M106 S255
;TYPE:WALL-INNER
;MESH:z_mini_cube_2x3_33.stl
G1 F2400 X14.9 Y27.1 E75.76169
G1 X14.9 Y27.9 E75.7883
G1 X13.1 Y27.9 E75.84817
G1 X13.1 Y27.1 E75.87477
G0 F9000 X12.7 Y26.7
;TYPE:WALL-OUTER
G1 F600 X15.3 Y26.7 E75.95693
G1 X15.3 Y28.3 E76.00748
G1 X12.7 Y28.3 E76.08964
G1 X12.7 Y26.7 E76.14019
G0 F9000 X13.1 Y26.7
G0 X13.14 Y27.14
G0 X13.49 Y27.49
;TYPE:SKIN
G1 F600 X14.51 Y27.49 E76.17412
G1 X14.51 Y27.51 E76.17478
G1 X13.49 Y27.51 E76.20871
G1 X13.49 Y27.49 E76.20937
G0 F9000 X13.49 Y27.3
;MESH:NONMESH
G0 F300 X13.49 Y27.3 Z1
G0 F9000 X13.1 Y27.1
M117 Time Left 0h09m32s
;TIME_ELAPSED:107.854987
;LAYER:4
;TYPE:WALL-INNER
;MESH:z_mini_cube_2x3_33.stl
G1 F2400 X14.9 Y27.1 E76.26924
G1 X14.9 Y27.9 E76.29585
G1 X13.1 Y27.9 E76.35572
G1 X13.1 Y27.1 E76.38232
G0 F9000 X12.7 Y26.7
;TYPE:WALL-OUTER
G1 F600 X15.3 Y26.7 E76.46448
G1 X15.3 Y28.3 E76.51503
G1 X12.7 Y28.3 E76.59718
G1 X12.7 Y26.7 E76.64774
G0 F9000 X13.1 Y26.7
G0 X13.14 Y27.14
G0 X13.639 Y27.499
;TYPE:SKIN
G1 F600 X13.428 Y27.57 E76.65625
G1 X14.488 Y27.499 E76.69684
G1 X14.635 Y27.363 E76.7045
G0 F9000 X14.546 Y27.3
;MESH:NONMESH
G0 F300 X14.546 Y27.3 Z1.2
G0 F9000 X13.1 Y27.1
M117 Time Left 0h09m30s
;TIME_ELAPSED:109.559599
;LAYER:5
;TYPE:WALL-INNER
;MESH:z_mini_cube_2x3_33.stl
G1 F2400 X14.9 Y27.1 E76.76436
G1 X14.9 Y27.9 E76.79097
G1 X13.1 Y27.9 E76.85084
G1 X13.1 Y27.1 E76.87745
G0 F9000 X12.7 Y26.7
;TYPE:WALL-OUTER
G1 F600 X15.3 Y26.7 E76.9596
G1 X15.3 Y28.3 E77.01016
G1 X12.7 Y28.3 E77.09231
G1 X12.7 Y26.7 E77.14286
G0 F9000 X13.1 Y26.7
G0 X13.14 Y27.14
G0 X13.454 Y27.274
;TYPE:SKIN
G1 F600 X13.275 Y27.454 E77.14709
G0 F9000 X13.512 Y27.499
G1 F600 X13.795 Y27.499 E77.1618
G1 X14.571 Y27.571 E77.20231
G0 F9000 X14.7 Y27.418
;MESH:NONMESH
G0 F300 X14.7 Y27.418 Z1.4
G0 F9000 X13.1 Y27.1
M117 Time Left 0h09m28s
;TIME_ELAPSED:111.283504
;LAYER:6
;TYPE:WALL-INNER
;MESH:z_mini_cube_2x3_33.stl
G1 F2400 X14.9 Y27.1 E77.26218
G1 X14.9 Y27.9 E77.28879
G1 X13.1 Y27.9 E77.34865
G1 X13.1 Y27.1 E77.37526
G0 F9000 X12.7 Y26.7
;TYPE:WALL-OUTER
G1 F600 X15.3 Y26.7 E77.45741
G1 X15.3 Y28.3 E77.50797
G1 X12.7 Y28.3 E77.59012
G1 X12.7 Y26.7 E77.64068
G0 F9000 X13.1 Y26.7
G0 X13.14 Y27.14
G0 X13.639 Y27.499
;TYPE:SKIN
G1 F600 X13.428 Y27.57 E77.64919
G1 X14.488 Y27.499 E77.68978
G1 X14.635 Y27.363 E77.69743
G0 F9000 X14.546 Y27.3
;MESH:NONMESH
G0 F300 X14.546 Y27.3 Z1.6
G0 F9000 X13.1 Y27.1
M117 Time Left 0h09m27s
;TIME_ELAPSED:112.988116
;LAYER:7
;TYPE:WALL-INNER
;MESH:z_mini_cube_2x3_33.stl
G1 F2400 X14.9 Y27.1 E77.7573
G1 X14.9 Y27.9 E77.78391
G1 X13.1 Y27.9 E77.84378
G1 X13.1 Y27.1 E77.87039
G0 F9000 X12.7 Y26.7
;TYPE:WALL-OUTER
G1 F600 X15.3 Y26.7 E77.95254
G1 X15.3 Y28.3 E78.0031
G1 X12.7 Y28.3 E78.08525
G1 X12.7 Y26.7 E78.1358
G0 F9000 X13.1 Y26.7
G0 X13.14 Y27.14
G0 X13.454 Y27.274
;TYPE:SKIN
G1 F600 X13.275 Y27.454 E78.14002
G0 F9000 X13.512 Y27.499
G1 F600 X13.795 Y27.499 E78.15474
G1 X14.571 Y27.571 E78.19525
G0 F9000 X14.7 Y27.418
;MESH:NONMESH
G0 F300 X14.7 Y27.418 Z1.8
G0 F9000 X13.1 Y27.1
M117 Time Left 0h09m25s
;TIME_ELAPSED:114.712021
;LAYER:8
;TYPE:WALL-INNER
;MESH:z_mini_cube_2x3_33.stl
G1 F2400 X14.9 Y27.1 E78.25512
G1 X14.9 Y27.9 E78.28172
G1 X13.1 Y27.9 E78.34159
G1 X13.1 Y27.1 E78.3682
G0 F9000 X12.7 Y26.7
;TYPE:WALL-OUTER
G1 F600 X15.3 Y26.7 E78.45035
G1 X15.3 Y28.3 E78.50091
G1 X12.7 Y28.3 E78.58306
G1 X12.7 Y26.7 E78.63362
G0 F9000 X13.1 Y26.7
G0 X13.14 Y27.14
G0 X13.639 Y27.499
;TYPE:SKIN
G1 F600 X13.428 Y27.57 E78.64212
G1 X14.488 Y27.499 E78.68272
G1 X14.635 Y27.363 E78.69037
G0 F9000 X14.546 Y27.3
;MESH:NONMESH
G0 F300 X14.546 Y27.3 Z2
G0 F9000 X13.1 Y27.1
M117 Time Left 0h09m23s
;TIME_ELAPSED:116.416633
;LAYER:9
;TYPE:WALL-INNER
;MESH:z_mini_cube_2x3_33.stl
G1 F2400 X14.9 Y27.1 E78.75024
G1 X14.9 Y27.9 E78.77685
G1 X13.1 Y27.9 E78.83672
G1 X13.1 Y27.1 E78.86333
G0 F9000 X12.7 Y26.7
;TYPE:WALL-OUTER
G1 F600 X15.3 Y26.7 E78.94548
G1 X15.3 Y28.3 E78.99603
G1 X12.7 Y28.3 E79.07819
G1 X12.7 Y26.7 E79.12874
G0 F9000 X13.1 Y26.7
G0 X13.14 Y27.14
G0 X13.454 Y27.274
;TYPE:SKIN
G1 F600 X13.275 Y27.454 E79.13296
G0 F9000 X13.512 Y27.499
G1 F600 X13.795 Y27.499 E79.14767
G1 X14.571 Y27.571 E79.18819
G0 F9000 X14.7 Y27.418
;MESH:NONMESH
G0 F300 X14.7 Y27.418 Z2.2
G0 F9000 X13.1 Y27.1
M117 Time Left 0h09m21s
;TIME_ELAPSED:118.140537
;LAYER:10
;TYPE:WALL-INNER
;MESH:z_mini_cube_2x3_33.stl
G1 F2400 X14.9 Y27.1 E79.24805
G1 X14.9 Y27.9 E79.27466
G1 X13.1 Y27.9 E79.33453
G1 X13.1 Y27.1 E79.36114
G0 F9000 X12.7 Y26.7
;TYPE:WALL-OUTER
G1 F600 X15.3 Y26.7 E79.44329
G1 X15.3 Y28.3 E79.49385
G1 X12.7 Y28.3 E79.576
G1 X12.7 Y26.7 E79.62655
G0 F9000 X13.1 Y26.7
G0 X13.14 Y27.14
G0 X13.639 Y27.499
;TYPE:SKIN
G1 F600 X13.428 Y27.57 E79.63506
G1 X14.488 Y27.499 E79.67566
G1 X14.635 Y27.363 E79.68331
G0 F9000 X14.546 Y27.3
;MESH:NONMESH
G0 F300 X14.546 Y27.3 Z2.4
G0 F9000 X13.1 Y27.1
M117 Time Left 0h09m20s
;TIME_ELAPSED:119.845149
;LAYER:11
;TYPE:WALL-INNER
;MESH:z_mini_cube_2x3_33.stl
G1 F2400 X14.9 Y27.1 E79.74318
G1 X14.9 Y27.9 E79.76979
G1 X13.1 Y27.9 E79.82966
G1 X13.1 Y27.1 E79.85626
G0 F9000 X12.7 Y26.7
;TYPE:WALL-OUTER
G1 F600 X15.3 Y26.7 E79.93842
G1 X15.3 Y28.3 E79.98897
G1 X12.7 Y28.3 E80.07112
G1 X12.7 Y26.7 E80.12168
G0 F9000 X13.1 Y26.7
G0 X13.14 Y27.14
G0 X13.454 Y27.274
;TYPE:SKIN
G1 F600 X13.275 Y27.454 E80.1259
G0 F9000 X13.512 Y27.499
G1 F600 X13.795 Y27.499 E80.14061
G1 X14.571 Y27.571 E80.18112
G0 F9000 X14.7 Y27.418
