;FLAVOR:Marlin
M117 Time Left 2h23m56s
;TIME:8636
;Filament used: 8.62346m
;Layer height: 0.28
;MINX:66.5
;MINY:104
;MINZ:0.285
;MAXX:168.5
;MAXY:171
;MAXZ:32.765
;POSTPROCESSED
;Generated with Cura_SteamEngine 4.7.1
M140 S60
M105
M190 S60
M104 S200
M105
M109 S200
M82 ;absolute extrusion mode
; Ender 3 Custom Start G-code
G92 E0 ; Reset Extruder
G28 ; Home all axes
; ***SET NEW E STEP *** (93 is factory value - 95 mine - start)
G90                          ; Force coordinates to be absolute relative to the origin
M92 E95 ;					 ; ***SET NEW E STEP *** (93 is factory value - 95 mine - end)
G90                          ; Force coordinates to be absolute relative to the origin
G28                          ; Home X/Y/Z axis
G92 E0 ; Reset Extruder								
G28 ; Home all axes		
G1 Z2.0 F3000 ; Move Z Axis up little to prevent scratching of Heat Bed
G1 X0.1 Y20 Z0.3 F5000.0 ; Move to start position
G1 X0.1 Y200.0 Z0.3 F1500.0 E15 ; Draw the first line
G1 X0.4 Y200.0 Z0.3 F5000.0 ; Move to side a little
G1 X0.4 Y20 Z0.3 F1500.0 E30 ; Draw the second line
G92 E0 ; Reset Extruder
G1 Z2.0 F3000 ; Move Z Axis up little to prevent scratching of Heat Bed
G1 X5 Y20 Z0.3 F5000.0 ; Move over to prevent blob squish
G92 E0
G92 E0
G1 F2700 E-6
;LAYER_COUNT:117
;LAYER:0
M107
M204 S500
M205 X8 Y8
G0 F7500 X71.126 Y106.051 Z0.285
;TYPE:SKIRT
G1 F2700 E0
G1 F1500 X71.912 Y105.539 E0.04224
G1 X72.739 Y105.097 E0.08446
G1 X73.601 Y104.727 E0.12669
G1 X74.491 Y104.431 E0.16893
G1 X75.403 Y104.213 E0.21115
G1 X76.33 Y104.072 E0.25337
G1 X77.201 Y104.013 E0.29267
G1 X77.522 Y104.004 E0.30713
G1 X77.83 Y104 E0.321
G1 X156.793 Y104 E3.87638
G1 X156.951 Y104.001 E3.8835
G1 X157.649 Y104.011 E3.91493
G1 X158.585 Y104.065 E3.95714
G1 X159.513 Y104.197 E3.99935
G1 X160.427 Y104.409 E4.04159
G1 X161.319 Y104.698 E4.08381
G1 X162.184 Y105.061 E4.12605
G1 X163.014 Y105.497 E4.16826
G1 X163.805 Y106.002 E4.21052
G1 X164.549 Y106.573 E4.25275
G1 X165.242 Y107.205 E4.29498
G1 X165.879 Y107.893 E4.33719
G1 X166.454 Y108.634 E4.37942
G1 X166.965 Y109.42 E4.42164
G1 X167.407 Y110.248 E4.4639
G1 X167.776 Y111.11 E4.50612
G1 X168.071 Y112 E4.54833
G1 X168.289 Y112.912 E4.59055
G1 X168.429 Y113.84 E4.63281
G1 X168.487 Y114.701 E4.67166
G1 X168.496 Y115.021 E4.68608
G1 X168.5 Y115.33 E4.69999
G1 X168.499 Y159.4 E6.68428
G1 X168.49 Y160.127 E6.71702
G1 X168.439 Y161.064 E6.75927
G1 X168.307 Y161.992 E6.80148
G1 X168.098 Y162.906 E6.84369
G1 X167.811 Y163.799 E6.88593
G1 X167.449 Y164.665 E6.92819
G1 X167.015 Y165.496 E6.9704
G1 X166.511 Y166.287 E7.01263
G1 X165.942 Y167.032 E7.05484
G1 X165.311 Y167.727 E7.09711
G1 X164.624 Y168.365 E7.13932
G1 X163.885 Y168.942 E7.18154
G1 X163.099 Y169.454 E7.22377
G1 X162.273 Y169.897 E7.26598
G1 X161.411 Y170.269 E7.30825
G1 X160.522 Y170.565 E7.35044
G1 X159.61 Y170.785 E7.39268
G1 X158.683 Y170.926 E7.4349
G1 X157.799 Y170.987 E7.47479
G1 X157.478 Y170.996 E7.48925
G1 X157.17 Y171 E7.50312
G1 X78.207 Y171 E11.0585
G1 X77.367 Y170.99 E11.09633
G1 X76.431 Y170.938 E11.13854
G1 X75.502 Y170.806 E11.18079
G1 X74.588 Y170.596 E11.22301
G1 X73.695 Y170.309 E11.26525
G1 X72.83 Y169.946 E11.30748
G1 X71.999 Y169.512 E11.3497
G1 X71.208 Y169.008 E11.39193
G1 X70.463 Y168.438 E11.43416
G1 X69.769 Y167.807 E11.4764
G1 X69.132 Y167.12 E11.51858
G1 X68.555 Y166.38 E11.56083
G1 X68.043 Y165.594 E11.60307
G1 X67.6 Y164.767 E11.64531
G1 X67.229 Y163.906 E11.68752
G1 X66.933 Y163.016 E11.72975
G1 X66.714 Y162.104 E11.77199
G1 X66.573 Y161.177 E11.8142
G1 X66.513 Y160.288 E11.85432
G1 X66.504 Y159.955 E11.86932
G1 X66.5 Y159.658 E11.8827
G1 X66.501 Y115.525 E13.86982
G1 X66.51 Y114.86 E13.89977
G1 X66.563 Y113.924 E13.94198
G1 X66.695 Y112.995 E13.98423
G1 X66.906 Y112.081 E14.02647
G1 X67.194 Y111.189 E14.06867
G1 X67.557 Y110.324 E14.11091
G1 X67.992 Y109.493 E14.15314
G1 X68.496 Y108.703 E14.19533
G1 X69.066 Y107.958 E14.23757
G1 X69.698 Y107.264 E14.27983
G1 X70.386 Y106.627 E14.32205
G1 X71.126 Y106.051 E14.36427
G0 F7500 X71.51 Y106.27
G1 F1500 X72.291 Y105.782 E14.40574
G1 X73.111 Y105.364 E14.44718
G1 X73.965 Y105.019 E14.48865
G1 X74.845 Y104.749 E14.5301
G1 X75.745 Y104.557 E14.57153
G1 X76.659 Y104.443 E14.61301
G1 X77.212 Y104.413 E14.63794
G1 X77.533 Y104.404 E14.6524
G1 X77.83 Y104.4 E14.66578
G1 X156.793 Y104.4 E18.22116
G1 X157.643 Y104.411 E18.25943
G1 X158.562 Y104.464 E18.30088
G1 X159.473 Y104.597 E18.34233
G1 X160.369 Y104.808 E18.38378
G1 X161.243 Y105.096 E18.42521
G1 X162.09 Y105.459 E18.4667
G1 X162.901 Y105.894 E18.50814
G1 X163.671 Y106.398 E18.54958
G1 X164.395 Y106.967 E18.59104
G1 X165.067 Y107.597 E18.63251
G1 X165.682 Y108.282 E18.67396
G1 X166.235 Y109.018 E18.71542
G1 X166.722 Y109.799 E18.75686
G1 X167.139 Y110.62 E18.79832
G1 X167.484 Y111.474 E18.83979
G1 X167.753 Y112.354 E18.88122
G1 X167.945 Y113.255 E18.9227
G1 X168.058 Y114.168 E18.96412
G1 X168.087 Y114.712 E18.98865
G1 X168.096 Y115.032 E19.00307
G1 X168.1 Y115.33 E19.01649
G1 X168.099 Y159.395 E21.00055
G1 X168.09 Y160.122 E21.03329
G1 X168.039 Y161.041 E21.07473
G1 X167.908 Y161.953 E21.11622
G1 X167.698 Y162.849 E21.15765
G1 X167.412 Y163.724 E21.1991
G1 X167.051 Y164.571 E21.24056
G1 X166.617 Y165.383 E21.28201
G1 X166.115 Y166.155 E21.32348
G1 X165.547 Y166.88 E21.36495
G1 X164.919 Y167.553 E21.40639
G1 X164.235 Y168.169 E21.44784
G1 X163.5 Y168.723 E21.48928
G1 X162.72 Y169.212 E21.53073
G1 X161.9 Y169.631 E21.57219
G1 X161.047 Y169.977 E21.61364
G1 X160.167 Y170.248 E21.6551
G1 X159.267 Y170.441 E21.69654
G1 X158.353 Y170.556 E21.73802
G1 X157.788 Y170.587 E21.7635
G1 X157.467 Y170.596 E21.77796
G1 X157.17 Y170.6 E21.79133
G1 X78.207 Y170.6 E25.34671
G1 X77.372 Y170.59 E25.38431
G1 X76.453 Y170.538 E25.42576
G1 X75.542 Y170.407 E25.4672
G1 X74.646 Y170.197 E25.50863
G1 X73.771 Y169.91 E25.5501
G1 X72.924 Y169.548 E25.59157
G1 X72.112 Y169.114 E25.63303
G1 X71.341 Y168.612 E25.67445
G1 X70.616 Y168.044 E25.71592
G1 X69.943 Y167.415 E25.7574
G1 X69.328 Y166.731 E25.79881
G1 X68.774 Y165.996 E25.84026
G1 X68.286 Y165.215 E25.88172
G1 X67.867 Y164.395 E25.92318
G1 X67.521 Y163.542 E25.96463
G1 X67.251 Y162.662 E26.00608
G1 X67.058 Y161.761 E26.04756
G1 X66.944 Y160.848 E26.08899
G1 X66.913 Y160.277 E26.11474
G1 X66.904 Y159.944 E26.12974
G1 X66.9 Y159.658 E26.14262
G1 X66.901 Y115.531 E28.12948
G1 X66.91 Y114.866 E28.15942
G1 X66.962 Y113.946 E28.20091
G1 X67.094 Y113.035 E28.24236
G1 X67.305 Y112.139 E28.2838
G1 X67.592 Y111.264 E28.32527
G1 X67.955 Y110.418 E28.36672
G1 X68.389 Y109.606 E28.40817
G1 X68.892 Y108.835 E28.44962
G1 X69.461 Y108.111 E28.49108
G1 X70.089 Y107.439 E28.5325
G1 X70.774 Y106.823 E28.57398
G1 X71.51 Y106.27 E28.61543
G0 F7500 X71.894 Y106.494
G1 F1500 X72.669 Y106.031 E28.65608
G1 X73.482 Y105.638 E28.69673
G1 X74.327 Y105.318 E28.73742
G1 X75.196 Y105.075 E28.77805
G1 X76.084 Y104.909 E28.81872
G1 X77.223 Y104.813 E28.87019
G1 X77.544 Y104.804 E28.88465
G1 X77.83 Y104.8 E28.89753
G1 X156.793 Y104.8 E32.45291
G1 X157.637 Y104.811 E32.49091
G1 X158.539 Y104.864 E32.5316
G1 X159.432 Y104.996 E32.57224
G1 X160.31 Y105.207 E32.6129
G1 X161.166 Y105.495 E32.65356
G1 X161.993 Y105.857 E32.69421
G1 X162.785 Y106.292 E32.7349
G1 X163.536 Y106.794 E32.77557
G1 X164.239 Y107.361 E32.81624
G1 X164.889 Y107.988 E32.8569
G1 X165.481 Y108.67 E32.89756
G1 X166.011 Y109.401 E32.93822
G1 X166.473 Y110.177 E32.97888
G1 X166.866 Y110.99 E33.01954
G1 X167.184 Y111.835 E33.06019
G1 X167.427 Y112.705 E33.10086
G1 X167.592 Y113.593 E33.14153
G1 X167.687 Y114.723 E33.19259
G1 X167.696 Y115.043 E33.207
G1 X167.7 Y115.33 E33.21993
G1 X167.699 Y159.39 E35.20377
G1 X167.69 Y160.117 E35.2365
G1 X167.639 Y161.019 E35.27718
G1 X167.508 Y161.913 E35.31787
G1 X167.299 Y162.791 E35.3585
G1 X167.013 Y163.648 E35.39918
G1 X166.652 Y164.476 E35.43985
G1 X166.22 Y165.268 E35.48047
G1 X165.719 Y166.02 E35.52116
G1 X165.153 Y166.724 E35.56183
G1 X164.528 Y167.375 E35.60247
G1 X163.847 Y167.969 E35.64315
G1 X163.116 Y168.5 E35.68383
G1 X162.342 Y168.964 E35.72447
G1 X161.529 Y169.358 E35.76515
G1 X160.685 Y169.678 E35.80579
G1 X159.815 Y169.923 E35.84648
G1 X158.928 Y170.089 E35.88711
G1 X157.777 Y170.187 E35.93913
G1 X157.456 Y170.196 E35.95359
G1 X157.17 Y170.2 E35.96646
G1 X78.207 Y170.2 E39.52185
G1 X77.377 Y170.19 E39.55922
G1 X76.476 Y170.139 E39.59985
G1 X75.582 Y170.007 E39.64054
G1 X74.704 Y169.798 E39.68118
G1 X73.847 Y169.511 E39.72187
G1 X73.02 Y169.15 E39.7625
G1 X72.227 Y168.717 E39.80318
G1 X71.476 Y168.216 E39.84383
G1 X70.772 Y167.65 E39.8845
G1 X70.121 Y167.024 E39.92517
G1 X69.528 Y166.343 E39.96583
G1 X68.998 Y165.612 E40.00648
G1 X68.534 Y164.837 E40.04715
G1 X68.14 Y164.024 E40.08783
G1 X67.82 Y163.18 E40.12847
G1 X67.576 Y162.31 E40.16916
G1 X67.41 Y161.422 E40.20983
G1 X67.313 Y160.267 E40.26202
G1 X67.304 Y159.934 E40.27702
G1 X67.3 Y159.658 E40.28945
G1 X67.301 Y115.536 E42.27608
G1 X67.31 Y114.871 E42.30603
G1 X67.362 Y113.969 E42.34671
G1 X67.494 Y113.076 E42.38735
G1 X67.704 Y112.198 E42.428
G1 X67.991 Y111.341 E42.46869
G1 X68.353 Y110.514 E42.50934
G1 X68.786 Y109.722 E42.54998
G1 X69.288 Y108.971 E42.59066
G1 X69.855 Y108.267 E42.63136
G1 X70.481 Y107.617 E42.67199
G1 X71.162 Y107.024 E42.71265
G1 X71.894 Y106.494 E42.75334
G1 F2700 E36.75334
;MESH:woodland_box.stl
G0 F7500 X142.827 Y124.665
G0 X142.827 Y123.23
G0 X140.9 Y123.4
;TYPE:WALL-INNER
G1 F2700 E42.75334
G1 F1800 X140.9 Y151.6 E44.02307
G1 X148.1 Y151.6 E44.34726
G1 X148.1 Y123.4 E45.61699
G1 X140.9 Y123.4 E45.94117
G0 F7500 X141.3 Y123.8
;TYPE:WALL-OUTER
G1 F1800 X141.3 Y151.2 E47.1132
G1 X147.7 Y151.2 E47.38696
G1 X147.7 Y123.8 E48.55898
G1 X141.3 Y123.8 E48.83274
G0 F7500 X141.3 Y124.2
G0 X140.86 Y124.2
G1 F2700 E42.83274
G0 F7500 X140.71 Y123.4
G0 X142.153 Y124.653
G0 X130.847 Y124.653
G0 X132.29 Y123.4
G0 X122.9 Y123.4
;TYPE:WALL-INNER
G1 F2700 E48.83274
G1 F1800 X122.9 Y151.6 E50.10247
G1 X132.1 Y151.6 E50.51671
G1 X132.1 Y123.4 E51.78644
G1 X122.9 Y123.4 E52.20068
G0 F7500 X123.3 Y123.8
;TYPE:WALL-OUTER
G1 F1800 X123.3 Y151.2 E53.3727
G1 X131.7 Y151.2 E53.73201
G1 X131.7 Y123.8 E54.90403
G1 X123.3 Y123.8 E55.26334
G0 F7500 X123.3 Y124.2
G0 X122.86 Y124.2
G1 F2700 E49.26334
G0 F7500 X122.71 Y123.4
G0 X124.153 Y124.653
G0 X112.847 Y124.653
G0 X114.31 Y123.4
G0 X78.1 Y123.4
;TYPE:WALL-INNER
G1 F2700 E55.26334
G1 F1800 X78.1 Y115.6 E55.61454
G1 X156.9 Y115.6 E59.16258
G1 X156.9 Y159.4 E61.13472
G1 X78.1 Y159.4 E64.68276
G1 X78.1 Y151.6 E65.03396
G1 X114.1 Y151.6 E66.65489
G1 X114.1 Y123.4 E67.92462
G1 X78.1 Y123.4 E69.54556
G0 F7500 X78.3 Y123.8
;TYPE:WALL-OUTER
G1 F1800 X78.3 Y151.2 E70.71758
G1 X113.7 Y151.2 E72.2318
G1 X113.7 Y123.8 E73.40383
G1 X78.3 Y123.8 E74.91805
G0 F7500 X78.3 Y124.2
G1 F2700 E68.91805
G0 F7500 X78.1 Y124.2
G0 X77.87 Y115.37
G0 X77.7 Y115.2
G1 F2700 E74.91805
G1 F1800 X157.3 Y115.2 E78.32291
G1 X157.3 Y159.8 E80.23065
G1 X77.7 Y159.8 E83.63551
G1 X77.7 Y115.2 E85.54326
G0 F7500 X78.1 Y115.2
G0 X78.14 Y115.64
G0 X78.49 Y115.99
;TYPE:SKIN
G1 F1800 X156.51 Y115.99 E89.05618
G1 X156.51 Y159.01 E90.9932
G1 X78.49 Y159.01 E94.50612
G1 X78.49 Y151.99 E94.8222
G1 X114.49 Y151.99 E96.44313
G1 X114.49 Y123.01 E97.74798
G1 X78.49 Y123.01 E99.36892
G1 X78.49 Y115.99 E99.685
G1 F2700 E93.685
G0 F7500 X78.49 Y115.71
G0 X122.76 Y115.81
G0 X122.76 Y114.335
G0 X124.153 Y124.653
G0 X122.76 Y123.21
G0 X122.76 Y123.29
G0 X122.51 Y123.01
G1 F2700 E99.685
G1 F1800 X122.51 Y151.99 E100.98985
G1 X132.49 Y151.99 E101.43921
G1 X132.49 Y123.01 E102.74406
G1 X122.51 Y123.01 E103.19342
G1 F2700 E97.19342
G0 F7500 X122.76 Y123.29
G0 X132.29 Y123.29
G0 X130.847 Y124.653
G0 X142.153 Y124.653
G0 X140.71 Y123.29
G0 X140.51 Y123.01
G1 F2700 E103.19342
G1 F1800 X140.51 Y151.99 E104.49827
G1 X148.49 Y151.99 E104.85757
G1 X148.49 Y123.01 E106.16243
G1 X140.51 Y123.01 E106.52173
G1 F2700 E100.52173
G0 F7500 X140.76 Y123.29
G0 X144.964 Y123.23
G0 X144.964 Y124.665
G0 X158.165 Y123.204
G0 X156.69 Y123.204
G0 X156.79 Y116.751
G0 X156.349 Y116.751
G1 F2700 E106.52173
G1 F1800 X155.748 Y116.15 E106.56
G0 F7500 X155.182 Y116.15
G1 F1800 X156.349 Y117.317 E106.63431
G0 F7500 X156.349 Y117.883
G1 F1800 X154.616 Y116.15 E106.74466
G0 F7500 X154.05 Y116.15
G1 F1800 X156.349 Y118.448 E106.89102
G0 F7500 X156.349 Y119.014
G1 F1800 X153.485 Y116.15 E107.07339
G0 F7500 X152.919 Y116.15
G1 F1800 X156.349 Y119.58 E107.2918
G0 F7500 X156.349 Y120.145
G1 F1800 X152.353 Y116.15 E107.54622
G0 F7500 X151.788 Y116.15
G1 F1800 X156.349 Y120.711 E107.83665
G0 F7500 X156.349 Y121.277
G1 F1800 X151.222 Y116.15 E108.16312
G0 F7500 X150.656 Y116.15
G1 F1800 X156.349 Y121.842 E108.52559
G0 F7500 X156.349 Y122.408
G1 F1800 X150.091 Y116.15 E108.92408
G0 F7500 X149.525 Y116.15
G1 F1800 X156.349 Y122.974 E109.3586
G0 F7500 X156.349 Y123.54
G1 F1800 X148.959 Y116.15 E109.82917
G0 F7500 X148.394 Y116.15
G1 F1800 X156.349 Y124.105 E110.33572
G0 F7500 X156.349 Y124.671
G1 F1800 X147.828 Y116.15 E110.8783
G0 F7500 X147.262 Y116.15
G1 F1800 X156.349 Y125.237 E111.45693
G0 F7500 X156.349 Y125.802
G1 F1800 X146.697 Y116.15 E112.07153
G0 F7500 X146.131 Y116.15
G1 F1800 X156.349 Y126.368 E112.72218
G0 F7500 X156.349 Y126.934
G1 F1800 X145.565 Y116.15 E113.40886
G0 F7500 X145 Y116.15
G1 F1800 X156.349 Y127.499 E114.13152
G0 F7500 X156.349 Y128.065
G1 F1800 X144.434 Y116.15 E114.89022
G0 F7500 X143.868 Y116.15
G1 F1800 X156.349 Y128.631 E115.68497
G0 F7500 X156.349 Y129.196
G1 F1800 X143.302 Y116.15 E116.51572
G0 F7500 X142.737 Y116.15
G1 F1800 X156.349 Y129.762 E117.38248
G0 F7500 X156.349 Y130.328
G1 F1800 X142.171 Y116.15 E118.28528
G0 F7500 X141.605 Y116.15
G1 F1800 X148.305 Y122.849 E118.71188
G0 F7500 X148.649 Y123.193
G1 F1800 X156.349 Y130.893 E119.20219
G0 F7500 X156.349 Y131.459
G1 F1800 X148.649 Y123.759 E119.6925
G0 F7500 X148.649 Y124.324
G1 F1800 X156.349 Y132.025 E120.18283
G0 F7500 X156.349 Y132.591
G1 F1800 X148.649 Y124.89 E120.67317
G0 F7500 X148.649 Y125.456
G1 F1800 X156.349 Y133.156 E121.16348
G0 F7500 X156.349 Y133.722
G1 F1800 X148.649 Y126.021 E121.65382
G0 F7500 X148.649 Y126.587
G1 F1800 X156.349 Y134.288 E122.14416
G0 F7500 X156.349 Y134.853
G1 F1800 X148.649 Y127.153 E122.63447
G0 F7500 X148.649 Y127.719
G1 F1800 X156.349 Y135.419 E123.12477
G0 F7500 X156.349 Y135.985
G1 F1800 X148.649 Y128.284 E123.61511
G0 F7500 X148.649 Y128.85
G1 F1800 X156.349 Y136.55 E124.10542
G0 F7500 X156.349 Y137.116
G1 F1800 X148.649 Y129.416 E124.59573
G0 F7500 X148.649 Y129.981
G1 F1800 X156.35 Y137.682 E125.0861
G0 F7500 X156.35 Y138.248
G1 F1800 X148.649 Y130.547 E125.57647
G0 F7500 X148.649 Y131.113
G1 F1800 X156.35 Y138.814 E126.06684
G0 F7500 X156.35 Y139.379
G1 F1800 X148.649 Y131.678 E126.55721
G0 F7500 X148.649 Y132.244
G1 F1800 X156.35 Y139.945 E127.04758
G0 F7500 X156.35 Y140.511
G1 F1800 X148.649 Y132.81 E127.53795
G0 F7500 X148.649 Y133.375
G1 F1800 X156.35 Y141.076 E128.02832
G0 F7500 X156.35 Y141.642
G1 F1800 X148.649 Y133.941 E128.51869
G0 F7500 X148.649 Y134.507
G1 F1800 X156.35 Y142.208 E129.00906
G0 F7500 X156.35 Y142.774
G1 F1800 X148.649 Y135.072 E129.49947
G0 F7500 X148.649 Y135.638
G1 F1800 X156.35 Y143.339 E129.98984
G0 F7500 X156.35 Y143.905
G1 F1800 X148.649 Y136.204 E130.48021
G0 F7500 X148.649 Y136.77
G1 F1800 X156.35 Y144.471 E130.97058
G0 F7500 X156.35 Y145.036
G1 F1800 X148.649 Y137.335 E131.46095
G0 F7500 X148.649 Y137.901
G1 F1800 X156.35 Y145.602 E131.95132
G0 F7500 X156.35 Y146.168
G1 F1800 X148.649 Y138.467 E132.44169
G0 F7500 X148.649 Y139.032
G1 F1800 X156.35 Y146.733 E132.93206
G0 F7500 X156.35 Y147.299
G1 F1800 X148.649 Y139.598 E133.42243
G0 F7500 X148.649 Y140.164
G1 F1800 X156.35 Y147.865 E133.9128
G0 F7500 X156.35 Y148.43
G1 F1800 X148.649 Y140.729 E134.40317
G0 F7500 X148.649 Y141.295
G1 F1800 X156.35 Y148.996 E134.89355
G0 F7500 X156.35 Y149.562
G1 F1800 X148.649 Y141.861 E135.38392
G0 F7500 X148.649 Y142.426
G1 F1800 X156.35 Y150.127 E135.87429
G0 F7500 X156.35 Y150.693
G1 F1800 X148.649 Y142.992 E136.36466
G0 F7500 X148.649 Y143.558
G1 F1800 X156.35 Y151.259 E136.85503
G0 F7500 X156.35 Y151.825
G1 F1800 X148.649 Y144.123 E137.34543
