;FLAVOR:Marlin
M117 Time Left 0h06m31s
;TIME:391
;Filament used: 0.110897m
;Layer height: 0.2
;MINX:4.121
;MINY:14.126
;MINZ:0.2
;MAXX:120.976
;MAXY:133.222
;MAXZ:34.2
;POSTPROCESSED
;Generated with Cura_SteamEngine 4.7.1
M140 S50
M105
M190 S50
M104 S200
M105
M109 S200
M82 ;absolute extrusion mode
; Ender 3 Custom Start G-code
G21 ; Set to metric [change to G20 if you want Imperial]
G28 ; Home all axes
; ***SET NEW E STEP *** (93 is factory value - 95 mine - start)
G90                     ; Force coordinates to be absolute relative to the origin
M92 E95                 ; ***SET NEW E STEP *** (93 is factory value - 95 mine - end)
G90                     ; Force coordinates to be absolute relative to the origin
G28                     ; Home X/Y/Z axis
G92 E0                  ; Reset Extruder								
G28                     ; Home all axes		
G1 Z2.0 F3000           ; Move Z Axis up little to prevent scratching of Heat Bed
G1 X0.1 Y20 Z0.3 F5000.0        ; Move to start position
G92 E0                  ; Reset Extruder
G1 Z2.0 F3000           ; Move Z Axis up little to prevent scratching of Heat Bed
G1 X5 Y5 Z0.3 F5000.0  ; Move over to prevent blob squish
G92 E0
G92 E0
G1 F2700 E-6
;LAYER_COUNT:170
;LAYER:0
M107
M204 S500
M205 X8 Y8
G1 F300 Z0.4
G0 F7500 X10.272 Y16.242 Z0.4
;TYPE:SKIRT
G1 F300 Z0.2
G1 F2700 E0
G1 F1500 X10.925 Y15.858 E0.02394
G1 X11.256 Y15.678 E0.03584
G1 X11.681 Y15.458 E0.05096
G1 X11.734 Y15.432 E0.05283
G1 X12.608 Y15.048 E0.08299
G1 X13.777 Y14.663 E0.12188
G1 X14.261 Y14.532 E0.13772
G1 X15.192 Y14.321 E0.16789
G1 X16.584 Y14.155 E0.21218
G1 X16.775 Y14.144 E0.21823
G1 X17.598 Y14.126 E0.24424
G1 X17.87 Y14.13 E0.25283
G1 X18.823 Y14.184 E0.28299
G1 X20.161 Y14.397 E0.3258
G1 X20.591 Y14.492 E0.33972
G1 X21.514 Y14.737 E0.36989
G1 X22.478 Y15.085 E0.40227
G1 X22.672 Y15.165 E0.4089
G1 X23.78 Y15.693 E0.44769
G1 X24.048 Y15.839 E0.45733
G1 X24.866 Y16.331 E0.48749
G1 X25.979 Y17.165 E0.53144
G1 X26.313 Y17.449 E0.54529
G1 X27.014 Y18.098 E0.57547
G1 X27.682 Y18.832 E0.60683
G1 X27.848 Y19.031 E0.61502
G1 X28.572 Y19.999 E0.65322
G1 X28.709 Y20.204 E0.66101
G1 X29.206 Y21.019 E0.69117
G1 X29.801 Y22.267 E0.73485
G1 X29.978 Y22.705 E0.74978
G1 X30.298 Y23.604 E0.77993
G1 X30.551 Y24.567 E0.81139
G1 X30.559 Y24.604 E0.81259
G1 X30.682 Y25.268 E0.83393
G1 X30.715 Y25.481 E0.84074
G1 X30.779 Y25.942 E0.85544
G1 X30.867 Y26.893 E0.88562
G1 X30.882 Y27.47 E0.90386
G1 X30.882 Y27.526 E0.90563
G1 X30.842 Y28.48 E0.9358
G1 X30.791 Y28.961 E0.95108
G1 X30.757 Y29.229 E0.95962
G1 X30.705 Y29.595 E0.9713
G1 X30.681 Y29.745 E0.9761
G1 X30.491 Y30.681 E1.00628
G1 X30.159 Y31.78 E1.04255
G1 X29.995 Y32.239 E1.05795
G1 X29.637 Y33.124 E1.08812
G1 X29.205 Y33.975 E1.11827
G1 X28.772 Y34.686 E1.14458
G1 X28.523 Y35.063 E1.15885
G1 X27.964 Y35.837 E1.18902
G1 X27.577 Y36.302 E1.20813
G1 X27.541 Y36.343 E1.20986
G1 X26.659 Y37.242 E1.24965
G1 X26.419 Y37.461 E1.25992
G1 X26.067 Y37.769 E1.2747
G1 X25.992 Y37.832 E1.27779
G1 X25.236 Y38.415 E1.30796
G1 X24.178 Y39.079 E1.34743
G1 X23.764 Y39.308 E1.36237
G1 X22.91 Y39.734 E1.39253
G1 X21.74 Y40.183 E1.43213
G1 X21.504 Y40.259 E1.43996
G1 X20.562 Y40.519 E1.47084
G1 X20.34 Y40.57 E1.47804
G1 X19.402 Y40.744 E1.50818
G1 X18.019 Y40.857 E1.55202
G1 X17.526 Y40.867 E1.5676
G1 X16.572 Y40.846 E1.59776
G1 X15.256 Y40.685 E1.63965
G1 X15.047 Y40.647 E1.64636
G1 X14.237 Y40.469 E1.67256
G1 X13.989 Y40.405 E1.68066
G1 X13.076 Y40.128 E1.7108
G1 X12.188 Y39.776 E1.74099
G1 X11.729 Y39.558 E1.75704
G1 X11.342 Y39.364 E1.77072
G1 X10.507 Y38.901 E1.80089
G1 X9.781 Y38.418 E1.82844
G1 X9.562 Y38.26 E1.83697
G1 X8.543 Y37.432 E1.87846
G1 X8.358 Y37.263 E1.88638
G1 X7.681 Y36.59 E1.91654
G1 X6.794 Y35.505 E1.96082
G1 X6.527 Y35.134 E1.97526
G1 X5.914 Y34.187 E2.01091
G1 X5.46 Y33.322 E2.04177
G1 X5.183 Y32.686 E2.06369
G1 X4.986 Y32.193 E2.08047
G1 X4.669 Y31.292 E2.11065
G1 X4.429 Y30.368 E2.14081
G1 X4.303 Y29.685 E2.16276
G1 X4.281 Y29.541 E2.16736
G1 X4.21 Y28.987 E2.18501
G1 X4.179 Y28.686 E2.19457
G1 X4.121 Y27.733 E2.22474
G1 X4.144 Y26.767 E2.25527
G1 X4.157 Y26.57 E2.26151
G1 X4.232 Y25.814 E2.28551
G1 X4.264 Y25.574 E2.29316
G1 X4.43 Y24.634 E2.32332
G1 X4.824 Y23.26 E2.36849
G1 X4.993 Y22.785 E2.38442
G1 X5.35 Y21.899 E2.4146
G1 X5.737 Y21.125 E2.44194
G1 X5.754 Y21.094 E2.44306
G1 X6.26 Y20.259 E2.47391
G1 X6.459 Y19.96 E2.48526
G1 X6.684 Y19.633 E2.4978
G1 X6.722 Y19.58 E2.49986
G1 X7.311 Y18.828 E2.53004
G1 X8.242 Y17.858 E2.57252
G1 X8.593 Y17.533 E2.58764
G1 X9.454 Y16.811 E2.62314
G1 X9.487 Y16.786 E2.62445
G1 X10.272 Y16.242 E2.65463
G0 F7500 X10.5 Y16.571
G1 F1500 X11.116 Y16.209 E2.67721
G1 X11.447 Y16.029 E2.68911
G1 X11.857 Y15.817 E2.70369
G1 X11.91 Y15.791 E2.70556
G1 X12.769 Y15.415 E2.73519
G1 X13.881 Y15.049 E2.77218
G1 X14.365 Y14.918 E2.78802
G1 X15.28 Y14.712 E2.81766
G1 X16.607 Y14.554 E2.85988
G1 X16.798 Y14.543 E2.86593
G1 X17.592 Y14.526 E2.89102
G1 X17.864 Y14.53 E2.89962
G1 X18.8 Y14.584 E2.92924
G1 X20.075 Y14.788 E2.97004
G1 X20.505 Y14.883 E2.98395
G1 X21.411 Y15.124 E3.01358
G1 X22.326 Y15.455 E3.04432
G1 X22.52 Y15.535 E3.05095
G1 X23.588 Y16.044 E3.08833
G1 X23.856 Y16.19 E3.09798
G1 X24.66 Y16.674 E3.12763
G1 X25.72 Y17.47 E3.16951
G1 X26.054 Y17.754 E3.18337
G1 X26.742 Y18.391 E3.21299
G1 X27.375 Y19.088 E3.24274
G1 X27.541 Y19.287 E3.25093
G1 X28.24 Y20.221 E3.28779
G1 X28.377 Y20.426 E3.29558
G1 X28.864 Y21.227 E3.3252
G1 X29.43 Y22.417 E3.36684
G1 X29.607 Y22.855 E3.38177
G1 X29.921 Y23.738 E3.41138
G1 X30.16 Y24.651 E3.4412
G1 X30.168 Y24.688 E3.4424
G1 X30.286 Y25.329 E3.46299
G1 X30.35 Y25.752 E3.47651
G1 X30.383 Y25.996 E3.48429
G1 X30.469 Y26.93 E3.51392
G1 X30.482 Y27.47 E3.53099
G1 X30.482 Y27.526 E3.53276
G1 X30.395 Y28.91 E3.57658
G1 X30.361 Y29.178 E3.58511
G1 X30.31 Y29.532 E3.59641
G1 X30.286 Y29.682 E3.60121
G1 X30.098 Y30.601 E3.63085
G1 X29.783 Y31.645 E3.66531
G1 X29.619 Y32.104 E3.68071
G1 X29.266 Y32.973 E3.71035
G1 X28.84 Y33.809 E3.73999
G1 X28.439 Y34.465 E3.76429
G1 X28.19 Y34.842 E3.77856
G1 X27.64 Y35.602 E3.80821
G1 X27.277 Y36.038 E3.82613
G1 X27.241 Y36.079 E3.82786
G1 X26.39 Y36.947 E3.86626
G1 X26.15 Y37.166 E3.87653
G1 X25.81 Y37.463 E3.89079
G1 X25.735 Y37.526 E3.89389
G1 X24.992 Y38.098 E3.92352
G1 X23.984 Y38.729 E3.96109
G1 X23.57 Y38.958 E3.97604
G1 X22.731 Y39.376 E4.00566
G1 X21.618 Y39.802 E4.04332
G1 X21.382 Y39.878 E4.05115
G1 X20.473 Y40.129 E4.08095
G1 X20.251 Y40.18 E4.08814
G1 X19.329 Y40.351 E4.11777
G1 X18.011 Y40.457 E4.15955
G1 X17.518 Y40.467 E4.17513
G1 X16.58 Y40.446 E4.20478
G1 X15.327 Y40.292 E4.24467
G1 X15.118 Y40.254 E4.25138
G1 X14.337 Y40.082 E4.27665
G1 X14.089 Y40.018 E4.28474
G1 X13.192 Y39.745 E4.31437
G1 X11.908 Y39.201 E4.35843
G1 X11.521 Y39.007 E4.37211
G1 X10.702 Y38.551 E4.40173
G1 X10.015 Y38.094 E4.4278
G1 X9.796 Y37.936 E4.43633
G1 X8.813 Y37.136 E4.47638
G1 X8.628 Y36.967 E4.48429
G1 X7.963 Y36.306 E4.51392
G1 X7.119 Y35.271 E4.55612
G1 X6.852 Y34.9 E4.57056
G1 X6.26 Y33.986 E4.60497
G1 X5.814 Y33.136 E4.6353
G1 X5.554 Y32.538 E4.6559
G1 X5.357 Y32.045 E4.67268
G1 X5.047 Y31.16 E4.70231
G1 X4.813 Y30.252 E4.73194
G1 X4.698 Y29.624 E4.75211
G1 X4.676 Y29.48 E4.75671
G1 X4.608 Y28.946 E4.77372
G1 X4.577 Y28.645 E4.78328
G1 X4.521 Y27.709 E4.81291
G1 X4.543 Y26.794 E4.84183
G1 X4.556 Y26.597 E4.84807
G1 X4.628 Y25.867 E4.87124
G1 X4.66 Y25.627 E4.8789
G1 X4.824 Y24.704 E4.90852
G1 X5.2 Y23.394 E4.95158
G1 X5.369 Y22.919 E4.96751
G1 X5.721 Y22.049 E4.99716
G1 X6.088 Y21.317 E5.02304
G1 X6.105 Y21.286 E5.02415
G1 X6.593 Y20.48 E5.05393
G1 X6.792 Y20.181 E5.06527
G1 X7.009 Y19.866 E5.07736
G1 X7.047 Y19.813 E5.07942
G1 X7.626 Y19.075 E5.10906
G1 X8.514 Y18.152 E5.14953
G1 X8.865 Y17.827 E5.16465
G1 X9.696 Y17.13 E5.19892
G1 X9.729 Y17.105 E5.20022
G1 X10.5 Y16.571 E5.22986
G0 F7500 X10.727 Y16.9
G1 F1500 X11.307 Y16.561 E5.25108
G1 X11.638 Y16.381 E5.26299
G1 X12.033 Y16.176 E5.27705
G1 X12.086 Y16.15 E5.27892
G1 X12.93 Y15.781 E5.30802
G1 X13.986 Y15.435 E5.34313
G1 X14.47 Y15.304 E5.35898
G1 X15.368 Y15.102 E5.38806
G1 X16.63 Y14.954 E5.42821
G1 X16.821 Y14.943 E5.43425
G1 X17.586 Y14.926 E5.45843
G1 X17.858 Y14.93 E5.46703
G1 X18.777 Y14.984 E5.49612
G1 X19.989 Y15.179 E5.5349
G1 X20.419 Y15.274 E5.54882
G1 X21.308 Y15.511 E5.57789
G1 X22.173 Y15.825 E5.60697
G1 X22.367 Y15.905 E5.6136
G1 X23.397 Y16.396 E5.64965
G1 X23.665 Y16.542 E5.65929
G1 X24.454 Y17.017 E5.68839
G1 X25.46 Y17.775 E5.72819
G1 X25.794 Y18.059 E5.74204
G1 X26.469 Y18.685 E5.77113
G1 X27.068 Y19.344 E5.79927
G1 X27.234 Y19.543 E5.80746
G1 X27.907 Y20.443 E5.84297
G1 X28.044 Y20.648 E5.85076
G1 X28.522 Y21.435 E5.87985
G1 X29.059 Y22.566 E5.91941
G1 X29.236 Y23.004 E5.93434
G1 X29.543 Y23.872 E5.96343
G1 X29.769 Y24.736 E5.99165
G1 X29.777 Y24.773 E5.99285
G1 X29.891 Y25.39 E6.01267
G1 X29.924 Y25.603 E6.01948
G1 X29.986 Y26.049 E6.03371
G1 X30.07 Y26.966 E6.06281
G1 X30.082 Y27.47 E6.07874
G1 X30.082 Y27.526 E6.08051
G1 X29.998 Y28.86 E6.12274
G1 X29.964 Y29.128 E6.13128
G1 X29.915 Y29.469 E6.14216
G1 X29.891 Y29.619 E6.14696
G1 X29.706 Y30.521 E6.17605
G1 X29.406 Y31.511 E6.20874
G1 X29.242 Y31.97 E6.22414
G1 X28.895 Y32.822 E6.25321
G1 X28.475 Y33.642 E6.28232
G1 X28.105 Y34.245 E6.30467
G1 X27.856 Y34.622 E6.31895
G1 X27.316 Y35.367 E6.34802
G1 X26.976 Y35.774 E6.36478
G1 X26.94 Y35.815 E6.3665
G1 X26.12 Y36.651 E6.4035
G1 X25.88 Y36.87 E6.41377
G1 X25.553 Y37.156 E6.4275
G1 X25.478 Y37.219 E6.43059
G1 X24.748 Y37.78 E6.45968
G1 X23.791 Y38.379 E6.49536
G1 X23.377 Y38.608 E6.5103
G1 X22.552 Y39.018 E6.53941
G1 X21.495 Y39.422 E6.57517
G1 X21.259 Y39.498 E6.583
G1 X20.383 Y39.739 E6.61171
G1 X20.161 Y39.79 E6.61891
G1 X19.256 Y39.957 E6.64799
G1 X18.003 Y40.057 E6.6877
G1 X17.51 Y40.067 E6.70328
G1 X16.59 Y40.046 E6.73236
G1 X15.399 Y39.898 E6.77028
G1 X15.19 Y39.86 E6.77699
G1 X14.437 Y39.695 E6.80135
G1 X14.189 Y39.631 E6.80944
G1 X13.309 Y39.362 E6.83852
G1 X12.088 Y38.843 E6.88044
G1 X11.701 Y38.649 E6.89412
G1 X10.896 Y38.201 E6.92323
G1 X10.249 Y37.769 E6.94781
G1 X10.03 Y37.611 E6.95634
G1 X9.083 Y36.841 E6.99491
G1 X8.898 Y36.672 E7.00282
G1 X8.246 Y36.022 E7.03191
G1 X7.443 Y35.038 E7.07204
G1 X7.176 Y34.667 E7.08649
G1 X6.606 Y33.786 E7.11964
G1 X6.169 Y32.951 E7.14942
G1 X5.926 Y32.389 E7.16877
G1 X5.729 Y31.896 E7.18554
G1 X5.425 Y31.027 E7.21463
G1 X5.197 Y30.135 E7.24372
G1 X5.094 Y29.564 E7.26206
G1 X5.072 Y29.42 E7.26666
G1 X5.006 Y28.905 E7.28306
G1 X4.975 Y28.604 E7.29263
G1 X4.92 Y27.685 E7.32172
G1 X4.942 Y26.82 E7.34906
G1 X4.955 Y26.623 E7.35529
G1 X5.025 Y25.92 E7.37762
G1 X5.057 Y25.68 E7.38527
G1 X5.218 Y24.774 E7.41434
G1 X5.577 Y23.528 E7.45531
G1 X5.746 Y23.053 E7.47124
G1 X6.092 Y22.2 E7.50033
G1 X6.439 Y21.509 E7.52476
G1 X6.456 Y21.478 E7.52588
G1 X6.926 Y20.702 E7.55454
G1 X7.125 Y20.403 E7.56589
G1 X7.334 Y20.1 E7.57752
G1 X7.372 Y20.047 E7.57958
G1 X7.941 Y19.322 E7.60871
G1 X8.785 Y18.445 E7.64716
G1 X9.136 Y18.12 E7.66228
G1 X9.937 Y17.449 E7.69529
G1 X9.97 Y17.424 E7.6966
G1 X10.727 Y16.9 E7.72569
G0 F7500 X10.955 Y17.23
G1 F1500 X11.498 Y16.912 E7.74558
G1 X11.829 Y16.732 E7.75748
G1 X12.263 Y16.51 E7.77288
G1 X13.09 Y16.148 E7.80141
G1 X14.09 Y15.821 E7.83465
G1 X14.574 Y15.69 E7.8505
G1 X15.455 Y15.493 E7.87902
G1 X16.653 Y15.353 E7.91713
G1 X16.844 Y15.342 E7.92318
G1 X17.58 Y15.326 E7.94644
G1 X17.852 Y15.33 E7.95503
G1 X18.754 Y15.383 E7.98358
G1 X19.902 Y15.569 E8.02033
G1 X20.332 Y15.664 E8.03424
G1 X21.205 Y15.898 E8.0628
G1 X22.021 Y16.194 E8.09023
G1 X22.215 Y16.274 E8.09686
G1 X23.206 Y16.747 E8.13156
G1 X23.474 Y16.893 E8.1412
G1 X24.247 Y17.36 E8.16973
G1 X25.201 Y18.079 E8.20748
G1 X25.535 Y18.363 E8.22133
G1 X26.197 Y18.978 E8.24988
G1 X26.761 Y19.6 E8.27641
G1 X26.927 Y19.799 E8.2846
G1 X27.575 Y20.666 E8.3188
G1 X27.712 Y20.871 E8.32659
G1 X28.18 Y21.643 E8.35512
G1 X28.688 Y22.716 E8.39263
G1 X28.865 Y23.154 E8.40756
G1 X29.166 Y24.006 E8.43611
G1 X29.378 Y24.82 E8.46269
G1 X29.386 Y24.857 E8.46388
G1 X29.496 Y25.451 E8.48297
G1 X29.529 Y25.664 E8.48978
G1 X29.59 Y26.103 E8.50379
G1 X29.671 Y27.002 E8.53231
G1 X29.682 Y27.47 E8.5471
G1 X29.682 Y27.526 E8.54887
G1 X29.601 Y28.81 E8.58952
G1 X29.567 Y29.078 E8.59805
G1 X29.52 Y29.406 E8.60852
G1 X29.496 Y29.556 E8.61332
G1 X29.314 Y30.44 E8.64184
G1 X29.029 Y31.376 E8.67276
G1 X28.865 Y31.835 E8.68816
G1 X28.524 Y32.671 E8.71669
G1 X28.11 Y33.474 E8.74523
G1 X27.771 Y34.024 E8.76565
G1 X27.522 Y34.401 E8.77992
G1 X26.992 Y35.132 E8.80845
G1 X26.676 Y35.51 E8.82402
G1 X26.64 Y35.551 E8.82574
G1 X25.85 Y36.356 E8.86138
G1 X25.61 Y36.575 E8.87165
G1 X25.296 Y36.85 E8.88484
G1 X25.221 Y36.913 E8.88793
G1 X24.504 Y37.463 E8.91648
G1 X23.597 Y38.029 E8.95027
G1 X23.183 Y38.258 E8.96521
G1 X22.374 Y38.659 E8.99374
G1 X21.373 Y39.041 E9.0276
G1 X21.137 Y39.117 E9.03543
G1 X20.294 Y39.349 E9.06306
G1 X20.072 Y39.4 E9.07026
G1 X19.183 Y39.563 E9.09881
G1 X17.995 Y39.657 E9.13647
G1 X17.502 Y39.667 E9.15205
G1 X16.599 Y39.645 E9.18059
G1 X15.47 Y39.504 E9.21654
G1 X15.261 Y39.466 E9.22325
G1 X14.537 Y39.307 E9.24667
G1 X14.289 Y39.243 E9.25477
G1 X13.426 Y38.979 E9.28328
G1 X12.267 Y38.485 E9.32309
G1 X11.88 Y38.291 E9.33677
G1 X11.091 Y37.851 E9.36531
G1 X10.483 Y37.445 E9.38841
G1 X10.264 Y37.287 E9.39695
G1 X9.353 Y36.546 E9.43405
G1 X9.168 Y36.377 E9.44197
G1 X8.528 Y35.739 E9.47052
G1 X7.768 Y34.804 E9.5086
G1 X7.501 Y34.433 E9.52304
G1 X6.953 Y33.586 E9.55491
G1 X6.524 Y32.766 E9.58415
G1 X6.297 Y32.241 E9.60223
G1 X6.1 Y31.748 E9.619
G1 X5.803 Y30.895 E9.64754
G1 X5.581 Y30.02 E9.67607
G1 X5.489 Y29.503 E9.69266
G1 X5.467 Y29.359 E9.69726
G1 X5.404 Y28.864 E9.71303
G1 X5.373 Y28.563 E9.72259
G1 X5.32 Y27.661 E9.75114
G1 X5.341 Y26.846 E9.7769
G1 X5.354 Y26.649 E9.78314
G1 X5.421 Y25.973 E9.8046
G1 X5.453 Y25.733 E9.81225
G1 X5.612 Y24.844 E9.84079
G1 X5.954 Y23.662 E9.87967
G1 X6.123 Y23.187 E9.8956
G1 X6.463 Y22.35 E9.92414
G1 X6.79 Y21.702 E9.94708
G1 X6.807 Y21.671 E9.94819
G1 X7.259 Y20.924 E9.97578
G1 X7.458 Y20.625 E9.98713
G1 X7.659 Y20.333 E9.99833
G1 X7.697 Y20.28 E10.00039
G1 X8.256 Y19.57 E10.02894
G1 X9.057 Y18.739 E10.06541
G1 X9.408 Y18.414 E10.08053
G1 X10.179 Y17.768 E10.11231
G1 X10.212 Y17.743 E10.11362
G1 X10.955 Y17.23 E10.14215
G1 F2700 E4.14215
G1 F300 Z0.4
;MESH:mini_cone_4_1_33.stl
G0 F7500 X16.714 Y26.354 Z0.4
;TYPE:WALL-INNER
G1 F300 Z0.2
G1 F2700 E10.14215
G1 F1500 X17.011 Y26.199 E10.15273
G1 X17.323 Y26.121 E10.16289
G1 X17.342 Y26.119 E10.1635
G1 X17.668 Y26.12 E10.1738
G1 X17.975 Y26.194 E10.18378
G1 X17.998 Y26.203 E10.18456
G1 X18.292 Y26.358 E10.19506
G1 X18.53 Y26.568 E10.20509
G1 X18.547 Y26.587 E10.20589
G1 X18.732 Y26.856 E10.21621
G1 X18.833 Y27.122 E10.2252
G1 X18.88 Y27.5 E10.23724
G1 X18.834 Y27.873 E10.24911
G1 X18.729 Y28.148 E10.25841
G1 X18.55 Y28.409 E10.26841
G1 X18.535 Y28.426 E10.26913
G1 X18.289 Y28.643 E10.27949
G1 X17.983 Y28.803 E10.2904
G1 X17.667 Y28.88 E10.30068
G1 X17.337 Y28.88 E10.31111
G1 X17.322 Y28.878 E10.31159
G1 X17.006 Y28.799 E10.32188
G1 X16.723 Y28.653 E10.33194
G1 X16.704 Y28.64 E10.33267
G1 X16.46 Y28.422 E10.34301
G1 X16.276 Y28.157 E10.3532
G1 X16.264 Y28.133 E10.35405
G1 X16.15 Y27.834 E10.36416
G1 X16.11 Y27.49 E10.3751
G1 X16.15 Y27.166 E10.38542
G1 X16.263 Y26.868 E10.39549
G1 X16.276 Y26.842 E10.3964
G1 X16.46 Y26.578 E10.40657
G1 X16.701 Y26.363 E10.41678
G1 X16.714 Y26.354 E10.41728
G0 F7500 X16.51 Y26.009
;TYPE:WALL-OUTER
G1 F1500 X16.866 Y25.823 E10.42933
G1 X17.253 Y25.727 E10.4413
G1 X17.316 Y25.719 E10.44321
G1 X17.717 Y25.72 E10.45525
G1 X18.098 Y25.812 E10.46701
G1 X18.166 Y25.839 E10.46921
G1 X18.518 Y26.025 E10.48116
G1 X18.813 Y26.285 E10.49296
G1 X18.864 Y26.341 E10.49523
G1 X19.088 Y26.667 E10.50711
G1 X19.224 Y27.025 E10.5186
G1 X19.276 Y27.449 E10.53143
G1 X19.29 Y27.5 E10.53301
G1 X19.277 Y27.551 E10.53459
G1 X19.225 Y27.972 E10.54733
G1 X19.087 Y28.333 E10.55893
G1 X18.865 Y28.658 E10.57074
G1 X18.814 Y28.714 E10.57301
G1 X18.518 Y28.975 E10.58486
G1 X18.167 Y29.16 E10.59677
G1 X18.098 Y29.187 E10.59899
G1 X17.717 Y29.28 E10.61077
G1 X17.319 Y29.28 E10.62271
