;FLAVOR:Marlin
M117 Time Left 0h58m27s
;TIME:3507
;Filament used: 2.28457m
;Layer height: 0.2
;MINX:99.5
;MINY:84
;MINZ:0.2
;MAXX:135.5
;MAXY:151
;MAXZ:33.2
;POSTPROCESSED
;Generated with Cura_SteamEngine 4.7.1
M140 S50
M105
M190 S50
M104 S200
M105
M109 S200
M82 ;absolute extrusion mode
; Ender 3 Custom Start G-code
G21 ; Set to metric [change to G20 if you want Imperial]
G28 ; Home all axes
; ***SET NEW E STEP *** (93 is factory value - 95 mine - start)
G90                     ; Force coordinates to be absolute relative to the origin
M92 E95                 ; ***SET NEW E STEP *** (93 is factory value - 95 mine - end)
G90                     ; Force coordinates to be absolute relative to the origin
G28                     ; Home X/Y/Z axis
G92 E0                  ; Reset Extruder								
G28                     ; Home all axes		
G1 Z2.0 F3000           ; Move Z Axis up little to prevent scratching of Heat Bed
G1 X0.1 Y20 Z0.3 F5000.0        ; Move to start position
G1 X0.1 Y200.0 Z0.3 F1500.0 E15 ; Draw the first line
G1 X0.4 Y200.0 Z0.3 F5000.0     ; Move to side a little
G1 X0.4 Y20 Z0.3 F1500.0 E30    ; Draw the second line
G92 E0                  ; Reset Extruder
G1 Z2.0 F3000           ; Move Z Axis up little to prevent scratching of Heat Bed
G1 X5 Y20 Z0.3 F5000.0  ; Move over to prevent blob squish
G92 E0
G92 E0
G1 F2700 E-6
;LAYER_COUNT:165
;LAYER:0
M107
M204 S500
M205 X8 Y8
G1 F300 Z0.4
G0 F7500 X102.066 Y87.958 Z0.4
;TYPE:SKIRT
G1 F300 Z0.2
G1 F2700 E0
G1 F1500 X102.698 Y87.264 E0.02966
G1 X103.386 Y86.627 E0.05928
G1 X104.126 Y86.051 E0.08891
G1 X104.912 Y85.539 E0.11855
G1 X105.739 Y85.097 E0.14818
G1 X106.601 Y84.727 E0.17782
G1 X107.491 Y84.431 E0.20746
G1 X108.403 Y84.213 E0.23709
G1 X109.33 Y84.072 E0.26671
G1 X110.201 Y84.013 E0.2943
G1 X110.522 Y84.004 E0.30445
G1 X110.83 Y84 E0.31418
G1 X123.951 Y84.001 E0.72876
G1 X124.649 Y84.011 E0.75082
G1 X125.585 Y84.065 E0.78045
G1 X126.513 Y84.197 E0.81006
G1 X127.427 Y84.409 E0.83971
G1 X128.319 Y84.698 E0.86934
G1 X129.184 Y85.061 E0.89898
G1 X130.014 Y85.497 E0.9286
G1 X130.805 Y86.002 E0.95825
G1 X131.549 Y86.573 E0.98789
G1 X132.242 Y87.205 E1.01752
G1 X132.879 Y87.893 E1.04715
G1 X133.454 Y88.634 E1.07678
G1 X133.965 Y89.42 E1.10641
G1 X134.407 Y90.248 E1.13606
G1 X134.776 Y91.11 E1.16569
G1 X135.071 Y92 E1.19532
G1 X135.289 Y92.912 E1.22494
G1 X135.429 Y93.84 E1.2546
G1 X135.487 Y94.701 E1.28187
G1 X135.496 Y95.021 E1.29198
G1 X135.5 Y95.33 E1.30174
G1 X135.499 Y103.439 E1.55797
G1 X135.488 Y104.172 E1.58113
G1 X135.4 Y105.406 E1.62022
G1 X135.3 Y106.186 E1.64507
G1 X135.016 Y108.684 E1.7245
G1 X134.803 Y111.19 E1.80397
G1 X134.658 Y113.722 E1.88411
G1 X134.587 Y116.207 E1.96266
G1 X134.587 Y118.731 E2.04241
G1 X134.658 Y121.255 E2.12219
G1 X134.799 Y123.773 E2.20188
G1 X135.013 Y126.288 E2.28163
G1 X135.298 Y128.8 E2.36151
G1 X135.364 Y129.29 E2.37714
G1 X135.417 Y129.739 E2.39142
G1 X135.485 Y130.667 E2.42082
G1 X135.495 Y130.997 E2.43125
G1 X135.5 Y131.33 E2.44178
G1 X135.499 Y139.4 E2.69677
G1 X135.49 Y140.127 E2.71974
G1 X135.439 Y141.064 E2.74939
G1 X135.307 Y141.992 E2.77901
G1 X135.098 Y142.906 E2.80863
G1 X134.811 Y143.799 E2.83827
G1 X134.449 Y144.665 E2.86793
G1 X134.015 Y145.496 E2.89755
G1 X133.511 Y146.287 E2.92719
G1 X132.942 Y147.032 E2.95681
G1 X132.311 Y147.727 E2.98647
G1 X131.624 Y148.365 E3.01609
G1 X130.885 Y148.942 E3.04571
G1 X130.099 Y149.454 E3.07535
G1 X129.273 Y149.897 E3.10497
G1 X128.411 Y150.269 E3.13464
G1 X127.522 Y150.565 E3.16424
G1 X126.61 Y150.785 E3.19388
G1 X125.683 Y150.926 E3.22351
G1 X124.799 Y150.987 E3.25151
G1 X124.478 Y150.996 E3.26166
G1 X124.17 Y151 E3.27139
G1 X111.065 Y150.999 E3.68547
G1 X110.367 Y150.99 E3.70753
G1 X109.431 Y150.938 E3.73715
G1 X108.502 Y150.806 E3.7668
G1 X107.588 Y150.596 E3.79643
G1 X106.695 Y150.309 E3.82607
G1 X105.83 Y149.946 E3.85571
G1 X104.999 Y149.512 E3.88533
G1 X104.208 Y149.008 E3.91496
G1 X103.463 Y148.438 E3.9446
G1 X102.769 Y147.807 E3.97424
G1 X102.132 Y147.12 E4.00384
G1 X101.555 Y146.38 E4.03349
G1 X101.043 Y145.594 E4.06313
G1 X100.6 Y144.767 E4.09278
G1 X100.229 Y143.906 E4.1224
G1 X99.933 Y143.016 E4.15204
G1 X99.714 Y142.104 E4.18167
G1 X99.573 Y141.177 E4.2113
G1 X99.513 Y140.288 E4.23945
G1 X99.504 Y139.955 E4.24998
G1 X99.5 Y139.658 E4.25936
G1 X99.501 Y131.538 E4.51593
G1 X99.512 Y130.824 E4.5385
G1 X99.6 Y129.594 E4.57746
G1 X99.7 Y128.814 E4.60231
G1 X99.984 Y126.316 E4.68174
G1 X100.197 Y123.81 E4.76121
G1 X100.342 Y121.278 E4.84135
G1 X100.413 Y118.793 E4.9199
G1 X100.413 Y116.269 E4.99965
G1 X100.342 Y113.745 E5.07943
G1 X100.2 Y111.223 E5.15925
G1 X99.988 Y108.718 E5.23868
G1 X99.702 Y106.195 E5.31891
G1 X99.636 Y105.71 E5.33438
G1 X99.608 Y105.483 E5.3416
G1 X99.58 Y105.238 E5.34939
G1 X99.513 Y104.299 E5.37914
G1 X99.504 Y103.98 E5.38922
G1 X99.5 Y103.67 E5.39902
G1 X99.501 Y95.525 E5.65638
G1 X99.51 Y94.86 E5.67739
G1 X99.563 Y93.924 E5.70701
G1 X99.695 Y92.995 E5.73666
G1 X99.906 Y92.081 E5.7663
G1 X100.194 Y91.189 E5.79592
G1 X100.557 Y90.324 E5.82556
G1 X100.992 Y89.493 E5.8552
G1 X101.496 Y88.703 E5.88481
G1 X102.066 Y87.958 E5.91445
G0 F7500 X102.461 Y88.111
G1 F1500 X103.089 Y87.439 E5.94351
G1 X103.774 Y86.823 E5.97262
G1 X104.51 Y86.27 E6.0017
G1 X105.291 Y85.782 E6.0308
G1 X106.111 Y85.364 E6.05988
G1 X106.965 Y85.019 E6.08899
G1 X107.845 Y84.749 E6.11807
G1 X108.745 Y84.557 E6.14715
G1 X109.659 Y84.443 E6.17625
G1 X110.212 Y84.413 E6.19375
G1 X110.533 Y84.404 E6.2039
G1 X110.83 Y84.4 E6.21328
G1 X123.793 Y84.4 E6.62288
G1 X124.643 Y84.411 E6.64974
G1 X125.562 Y84.464 E6.67882
G1 X126.473 Y84.597 E6.70791
G1 X127.369 Y84.808 E6.737
G1 X128.243 Y85.096 E6.76608
G1 X129.09 Y85.459 E6.79519
G1 X129.901 Y85.894 E6.82427
G1 X130.671 Y86.398 E6.85335
G1 X131.395 Y86.967 E6.88245
G1 X132.067 Y87.597 E6.91155
G1 X132.682 Y88.282 E6.94064
G1 X133.235 Y89.018 E6.96973
G1 X133.722 Y89.799 E6.99881
G1 X134.139 Y90.62 E7.0279
G1 X134.484 Y91.474 E7.05701
G1 X134.753 Y92.354 E7.08608
G1 X134.945 Y93.255 E7.11519
G1 X135.058 Y94.168 E7.14426
G1 X135.087 Y94.712 E7.16147
G1 X135.096 Y95.032 E7.17159
G1 X135.1 Y95.33 E7.181
G1 X135.099 Y103.433 E7.43704
G1 X135.088 Y104.166 E7.4602
G1 X135.003 Y105.355 E7.49786
G1 X134.912 Y106.063 E7.52042
G1 X134.619 Y108.642 E7.60243
G1 X134.404 Y111.167 E7.6825
G1 X134.26 Y113.689 E7.76232
G1 X134.187 Y116.231 E7.84267
G1 X134.187 Y118.742 E7.92201
G1 X134.258 Y121.29 E8.00255
G1 X134.399 Y123.794 E8.0818
G1 X134.614 Y126.331 E8.16225
G1 X134.901 Y128.855 E8.24251
G1 X134.967 Y129.344 E8.2581
G1 X134.993 Y129.551 E8.2647
G1 X135.02 Y129.785 E8.27214
G1 X135.085 Y130.679 E8.30046
G1 X135.095 Y131.009 E8.31089
G1 X135.1 Y131.33 E8.32104
G1 X135.099 Y139.395 E8.57587
G1 X135.09 Y140.122 E8.59884
G1 X135.039 Y141.041 E8.62792
G1 X134.908 Y141.953 E8.65704
G1 X134.698 Y142.849 E8.68611
G1 X134.412 Y143.724 E8.7152
G1 X134.051 Y144.571 E8.74429
G1 X133.617 Y145.383 E8.77338
G1 X133.115 Y146.155 E8.80248
G1 X132.547 Y146.88 E8.83158
G1 X131.919 Y147.553 E8.86067
G1 X131.235 Y148.169 E8.88975
G1 X130.5 Y148.723 E8.91883
G1 X129.72 Y149.212 E8.94792
G1 X128.9 Y149.631 E8.97702
G1 X128.047 Y149.977 E9.0061
G1 X127.167 Y150.248 E9.0352
G1 X126.267 Y150.441 E9.06428
G1 X125.353 Y150.556 E9.09339
G1 X124.788 Y150.587 E9.11127
G1 X124.467 Y150.596 E9.12142
G1 X124.17 Y150.6 E9.1308
G1 X111.07 Y150.599 E9.54472
G1 X110.372 Y150.59 E9.56678
G1 X109.453 Y150.538 E9.59586
G1 X108.542 Y150.407 E9.62495
G1 X107.646 Y150.197 E9.65402
G1 X106.771 Y149.91 E9.68312
G1 X105.924 Y149.548 E9.71223
G1 X105.112 Y149.114 E9.74132
G1 X104.341 Y148.612 E9.77039
G1 X103.616 Y148.044 E9.79949
G1 X102.943 Y147.415 E9.82859
G1 X102.328 Y146.731 E9.85766
G1 X101.774 Y145.996 E9.88674
G1 X101.286 Y145.215 E9.91584
G1 X100.867 Y144.395 E9.94494
G1 X100.521 Y143.542 E9.97402
G1 X100.251 Y142.662 E10.00311
G1 X100.058 Y141.761 E10.03222
G1 X99.944 Y140.848 E10.06129
G1 X99.913 Y140.277 E10.07936
G1 X99.904 Y139.944 E10.08989
G1 X99.9 Y139.658 E10.09892
G1 X99.901 Y131.544 E10.3553
G1 X99.912 Y130.83 E10.37787
G1 X99.997 Y129.645 E10.41541
G1 X100.088 Y128.937 E10.43796
G1 X100.381 Y126.358 E10.51997
G1 X100.596 Y123.833 E10.60004
G1 X100.74 Y121.311 E10.67986
G1 X100.813 Y118.769 E10.76022
G1 X100.813 Y116.258 E10.83956
G1 X100.742 Y113.71 E10.9201
G1 X100.601 Y111.203 E10.99944
G1 X100.386 Y108.675 E11.0796
G1 X100.098 Y106.135 E11.16037
G1 X100.033 Y105.656 E11.17565
G1 X100.006 Y105.438 E11.18259
G1 X99.978 Y105.193 E11.19038
G1 X99.913 Y104.288 E11.21905
G1 X99.904 Y103.969 E11.22913
G1 X99.9 Y103.67 E11.23858
G1 X99.901 Y95.531 E11.49575
G1 X99.91 Y94.866 E11.51676
G1 X99.962 Y93.946 E11.54588
G1 X100.094 Y93.035 E11.57496
G1 X100.305 Y92.139 E11.60405
G1 X100.592 Y91.264 E11.63315
G1 X100.955 Y90.418 E11.66223
G1 X101.389 Y89.606 E11.69133
G1 X101.892 Y88.835 E11.72041
G1 X102.461 Y88.111 E11.74951
G0 F7500 X102.855 Y88.267
G1 F1500 X103.481 Y87.617 E11.77802
G1 X104.162 Y87.024 E11.80656
G1 X104.894 Y86.494 E11.83511
G1 X105.669 Y86.031 E11.86364
G1 X106.482 Y85.638 E11.89217
G1 X107.327 Y85.318 E11.92072
G1 X108.196 Y85.075 E11.94923
G1 X109.084 Y84.909 E11.97777
G1 X110.223 Y84.813 E12.01389
G1 X110.544 Y84.804 E12.02404
G1 X110.83 Y84.8 E12.03307
G1 X123.793 Y84.8 E12.44267
G1 X124.637 Y84.811 E12.46934
G1 X125.539 Y84.864 E12.49789
G1 X126.432 Y84.996 E12.52641
G1 X127.31 Y85.207 E12.55494
G1 X128.166 Y85.495 E12.58348
G1 X128.993 Y85.857 E12.612
G1 X129.785 Y86.292 E12.64056
G1 X130.536 Y86.794 E12.6691
G1 X131.239 Y87.361 E12.69764
G1 X131.889 Y87.988 E12.72617
G1 X132.481 Y88.67 E12.75471
G1 X133.011 Y89.401 E12.78324
G1 X133.473 Y90.177 E12.81177
G1 X133.866 Y90.99 E12.8403
G1 X134.184 Y91.835 E12.86883
G1 X134.427 Y92.705 E12.89737
G1 X134.592 Y93.593 E12.92591
G1 X134.687 Y94.723 E12.96174
G1 X134.696 Y95.043 E12.97186
G1 X134.7 Y95.33 E12.98093
G1 X134.699 Y103.427 E13.23677
G1 X134.688 Y104.16 E13.25993
G1 X134.606 Y105.304 E13.29617
G1 X134.524 Y105.941 E13.31647
G1 X134.217 Y108.634 E13.40211
G1 X134.004 Y111.147 E13.4818
G1 X133.86 Y113.655 E13.56117
G1 X133.787 Y116.219 E13.64222
G1 X133.787 Y118.753 E13.72229
G1 X133.858 Y121.287 E13.80239
G1 X134 Y123.817 E13.88245
G1 X134.217 Y126.374 E13.96354
G1 X134.505 Y128.91 E14.04418
G1 X134.571 Y129.398 E14.05974
G1 X134.596 Y129.597 E14.06608
G1 X134.623 Y129.831 E14.07352
G1 X134.685 Y130.691 E14.10077
G1 X134.695 Y131.021 E14.1112
G1 X134.7 Y131.33 E14.12096
G1 X134.699 Y139.39 E14.37564
G1 X134.69 Y140.117 E14.39861
G1 X134.639 Y141.019 E14.42716
G1 X134.508 Y141.913 E14.4557
G1 X134.299 Y142.791 E14.48422
G1 X134.013 Y143.648 E14.51277
G1 X133.652 Y144.476 E14.54131
G1 X133.22 Y145.268 E14.56982
G1 X132.719 Y146.02 E14.59837
G1 X132.153 Y146.724 E14.62691
G1 X131.528 Y147.375 E14.65542
G1 X130.847 Y147.969 E14.68398
G1 X130.116 Y148.5 E14.71252
G1 X129.342 Y148.964 E14.74104
G1 X128.529 Y149.358 E14.76959
G1 X127.685 Y149.678 E14.79811
G1 X126.815 Y149.923 E14.82666
G1 X125.928 Y150.089 E14.85518
G1 X124.777 Y150.187 E14.89168
G1 X124.456 Y150.196 E14.90182
G1 X124.17 Y150.2 E14.91086
G1 X111.075 Y150.199 E15.32463
G1 X110.377 Y150.19 E15.34668
G1 X109.476 Y150.139 E15.3752
G1 X108.582 Y150.007 E15.40375
G1 X107.704 Y149.798 E15.43227
G1 X106.847 Y149.511 E15.46083
G1 X106.02 Y149.15 E15.48934
G1 X105.227 Y148.717 E15.51789
G1 X104.476 Y148.216 E15.54641
G1 X103.772 Y147.65 E15.57495
G1 X103.121 Y147.024 E15.60349
G1 X102.528 Y146.343 E15.63202
G1 X101.998 Y145.612 E15.66055
G1 X101.534 Y144.837 E15.68909
G1 X101.14 Y144.024 E15.71764
G1 X100.82 Y143.18 E15.74616
G1 X100.576 Y142.31 E15.77471
G1 X100.41 Y141.422 E15.80325
G1 X100.313 Y140.267 E15.83988
G1 X100.304 Y139.934 E15.8504
G1 X100.3 Y139.658 E15.85912
G1 X100.301 Y131.55 E16.11531
G1 X100.312 Y130.836 E16.13788
G1 X100.394 Y129.696 E16.17399
G1 X100.48 Y129.025 E16.19537
G1 X100.783 Y126.366 E16.27993
G1 X100.996 Y123.853 E16.35961
G1 X101.14 Y121.345 E16.43899
G1 X101.213 Y118.781 E16.52004
G1 X101.213 Y116.247 E16.60011
G1 X101.142 Y113.713 E16.6802
G1 X101 Y111.183 E16.76027
G1 X100.783 Y108.629 E16.84126
G1 X100.494 Y106.084 E16.92219
G1 X100.429 Y105.602 E16.93756
G1 X100.403 Y105.392 E16.94425
G1 X100.375 Y105.147 E16.95204
G1 X100.313 Y104.277 E16.9796
G1 X100.304 Y103.958 E16.98968
G1 X100.3 Y103.67 E16.99878
G1 X100.301 Y95.536 E17.25579
G1 X100.31 Y94.871 E17.27681
G1 X100.362 Y93.969 E17.30535
G1 X100.494 Y93.076 E17.33388
G1 X100.704 Y92.198 E17.3624
G1 X100.991 Y91.341 E17.39096
G1 X101.353 Y90.514 E17.41948
G1 X101.786 Y89.722 E17.448
G1 X102.288 Y88.971 E17.47655
G1 X102.855 Y88.267 E17.50511
G1 F2700 E11.50511
G1 F300 Z0.4
;MESH:test_pieza.stl
G0 F7500 X111.1 Y95.6 Z0.4
;TYPE:WALL-INNER
G1 F300 Z0.2
G1 F2700 E17.50511
G1 F1500 X123.9 Y95.6 E17.90955
G1 X123.9 Y103.4 E18.15601
G1 X121.9 Y103.4 E18.2192
G1 X121.9 Y131.6 E19.11024
G1 X123.9 Y131.6 E19.17344
G1 X123.9 Y139.4 E19.41989
G1 X111.1 Y139.4 E19.82434
G1 X111.1 Y131.6 E20.0708
G1 X113.1 Y131.6 E20.13399
G1 X113.1 Y103.4 E21.02503
G1 X111.1 Y103.4 E21.08822
G1 X111.1 Y95.6 E21.33468
G0 F7500 X110.7 Y95.2
;TYPE:WALL-OUTER
G1 F1500 X124.3 Y95.2 E21.74292
G1 X124.3 Y103.8 E22.00106
G1 X122.3 Y103.8 E22.0611
G1 X122.3 Y131.2 E22.88357
G1 X124.3 Y131.2 E22.94361
G1 X124.3 Y139.8 E23.20175
G1 X110.7 Y139.8 E23.60999
G1 X110.7 Y131.2 E23.86814
G1 X112.7 Y131.2 E23.92817
G1 X112.7 Y103.8 E24.75065
G1 X110.7 Y103.8 E24.81068
G1 X110.7 Y95.2 E25.06883
G0 F7500 X111.1 Y95.2
G0 X111.14 Y95.64
G0 X111.49 Y95.99
;TYPE:SKIN
G1 F1500 X123.51 Y95.99 E25.44863
G1 X123.51 Y103.01 E25.67044
G1 X121.51 Y103.01 E25.73363
G1 X121.51 Y131.99 E26.64932
G1 X123.51 Y131.99 E26.71251
G1 X123.51 Y139.01 E26.93432
G1 X111.49 Y139.01 E27.31412
G1 X111.49 Y131.99 E27.53593
G1 X113.49 Y131.99 E27.59913
G1 X113.49 Y103.01 E28.51481
G1 X111.49 Y103.01 E28.57801
G1 X111.49 Y95.99 E28.79982
G1 F2700 E22.79982
G1 F300 Z0.4
G0 F7500 X123.349 Y96.761 Z0.4
G1 F300 Z0.2
G1 F2700 E28.79982
G1 F1500 X122.736 Y96.149 E28.82719
G0 F7500 X122.171 Y96.149
G1 F1500 X123.349 Y97.327 E28.87983
G0 F7500 X123.349 Y97.893
G1 F1500 X121.605 Y96.149 E28.95776
G0 F7500 X121.039 Y96.149
G1 F1500 X123.349 Y98.458 E29.06096
G0 F7500 X123.349 Y99.024
G1 F1500 X120.474 Y96.149 E29.18943
G0 F7500 X119.908 Y96.149
G1 F1500 X123.349 Y99.59 E29.34319
G0 F7500 X123.349 Y100.156
G1 F1500 X119.342 Y96.149 E29.52224
G0 F7500 X118.776 Y96.149
G1 F1500 X123.349 Y100.721 E29.72656
G0 F7500 X123.349 Y101.287
G1 F1500 X118.211 Y96.149 E29.95616
G0 F7500 X117.645 Y96.149
G1 F1500 X123.349 Y101.853 E30.21104
G0 F7500 X123.349 Y102.418
G1 F1500 X117.079 Y96.149 E30.49119
G0 F7500 X116.514 Y96.149
G1 F1500 X123.214 Y102.85 E30.79061
G0 F7500 X122.649 Y102.85
G1 F1500 X115.948 Y96.149 E31.09004
G0 F7500 X115.382 Y96.149
G1 F1500 X122.083 Y102.85 E31.38948
G0 F7500 X121.517 Y102.85
G1 F1500 X114.817 Y96.149 E31.68889
G0 F7500 X114.251 Y96.149
G1 F1500 X121.35 Y103.248 E32.00611
G0 F7500 X121.35 Y103.813
G1 F1500 X113.685 Y96.149 E32.3486
G0 F7500 X113.12 Y96.149
G1 F1500 X121.35 Y104.379 E32.71635
G0 F7500 X121.35 Y104.945
G1 F1500 X112.554 Y96.149 E33.1094
G0 F7500 X111.988 Y96.149
G1 F1500 X121.35 Y105.51 E33.52772
G0 F7500 X121.35 Y106.076
G1 F1500 X111.649 Y96.375 E33.96121
G0 F7500 X111.649 Y96.941
G1 F1500 X121.35 Y106.642 E34.3947
G0 F7500 X121.35 Y107.207
G1 F1500 X111.649 Y97.507 E34.82817
G0 F7500 X111.649 Y98.072
G1 F1500 X121.35 Y107.773 E35.26166
G0 F7500 X121.35 Y108.339
G1 F1500 X111.649 Y98.638 E35.69515
G0 F7500 X111.649 Y99.204
G1 F1500 X121.35 Y108.905 E36.12864
G0 F7500 X121.35 Y109.47
G1 F1500 X111.649 Y99.769 E36.56213
G0 F7500 X111.649 Y100.335
G1 F1500 X121.35 Y110.036 E36.99562
G0 F7500 X121.35 Y110.602
G1 F1500 X113.649 Y102.901 E37.33974
G0 F7500 X113.598 Y102.85
G1 F1500 X111.649 Y100.901 E37.42683
G0 F7500 X111.649 Y101.466
G1 F1500 X113.032 Y102.85 E37.48865
G0 F7500 X112.466 Y102.85
G1 F1500 X111.649 Y102.032 E37.52518
G0 F7500 X111.649 Y102.598
G1 F1500 X111.901 Y102.85 E37.53645
G1 F2700 E31.53645
G1 F300 Z0.4
G0 F7500 X113.649 Y103.466 Z0.4
G1 F300 Z0.2
G1 F2700 E37.53645
