;FLAVOR:Marlin
;TIME:555
;Filament used: 0.183009m
;Layer height: 0.2
;MINX:6.5
;MINY:10.5
;MINZ:0.2
;MAXX:148.5
;MAXY:134.469
;MAXZ:34
;Generated with Cura_SteamEngine 4.7.1
M140 S60
M105
M190 S60
M104 S205
M105
M109 S205
M82 ;absolute extrusion mode
; Ender 3 Custom Start G-code
G92 E0 ; Reset Extruder
G28 ; Home all axes
; ***SET NEW E STEP *** (93 is factory value - 95 mine - start)
G90                          ; Force coordinates to be absolute relative to the origin
M92 E95 ;					 ; ***SET NEW E STEP *** (93 is factory value - 95 mine - end)
G90                          ; Force coordinates to be absolute relative to the origin
G28                          ; Home X/Y/Z axis
G92 E0 ; Reset Extruder								
G28 ; Home all axes		
G1 Z2.0 F3000 ; Move Z Axis up little to prevent scratching of Heat Bed
G1 X0.1 Y20 Z0.3 F5000.0 ; Move to start position
G92 E0 ; Reset Extruder
G1 Z2.0 F3000 ; Move Z Axis up little to prevent scratching of Heat Bed
G1 X5 Y20 Z0.3 F5000.0 ; Move over to prevent blob squish
G92 E0
G92 E0
G1 F2700 E-6
;LAYER_COUNT:170
;LAYER:0
M107
M204 S500
M205 X8 Y8
G0 F7500 X10.386 Y13.127 Z0.2
;TYPE:SKIRT
G1 F2700 E0
G1 F1500 X11.126 Y12.551 E0.02963
G1 X11.912 Y12.039 E0.05927
G1 X12.739 Y11.597 E0.0889
G1 X13.601 Y11.227 E0.11854
G1 X14.491 Y10.931 E0.14817
G1 X15.403 Y10.713 E0.1778
G1 X16.33 Y10.572 E0.20743
G1 X17.201 Y10.513 E0.23501
G1 X17.522 Y10.504 E0.24516
G1 X17.83 Y10.5 E0.25489
G1 X136.793 Y10.5 E4.01378
G1 X136.951 Y10.501 E4.01878
G1 X137.649 Y10.511 E4.04083
G1 X138.585 Y10.565 E4.07046
G1 X139.513 Y10.697 E4.10007
G1 X140.427 Y10.909 E4.12972
G1 X141.319 Y11.198 E4.15935
G1 X142.184 Y11.561 E4.18899
G1 X143.014 Y11.997 E4.21861
G1 X143.805 Y12.502 E4.24826
G1 X144.549 Y13.073 E4.2779
G1 X145.242 Y13.705 E4.30753
G1 X145.879 Y14.393 E4.33716
G1 X146.454 Y15.134 E4.36679
G1 X146.965 Y15.92 E4.39642
G1 X147.407 Y16.748 E4.42607
G1 X147.776 Y17.61 E4.4557
G1 X148.071 Y18.5 E4.48533
G1 X148.289 Y19.412 E4.51496
G1 X148.429 Y20.34 E4.54461
G1 X148.487 Y21.201 E4.57188
G1 X148.496 Y21.521 E4.58199
G1 X148.5 Y21.83 E4.59176
G1 X148.499 Y22.897 E4.62547
G1 X148.49 Y23.627 E4.64854
G1 X148.439 Y24.563 E4.67816
G1 X148.308 Y25.492 E4.7078
G1 X148.098 Y26.406 E4.73743
G1 X147.811 Y27.299 E4.76707
G1 X147.449 Y28.164 E4.7967
G1 X147.015 Y28.995 E4.82632
G1 X146.511 Y29.787 E4.85598
G1 X145.942 Y30.532 E4.8856
G1 X145.312 Y31.226 E4.91522
G1 X144.624 Y31.864 E4.94487
G1 X143.885 Y32.442 E4.97451
G1 X143.1 Y32.954 E5.00412
G1 X142.273 Y33.397 E5.03377
G1 X141.412 Y33.769 E5.0634
G1 X140.522 Y34.065 E5.09304
G1 X139.61 Y34.285 E5.12268
G1 X138.683 Y34.426 E5.15231
G1 X137.799 Y34.487 E5.18031
G1 X137.478 Y34.496 E5.19046
G1 X137.17 Y34.5 E5.20019
G1 X18.207 Y34.5 E8.95908
G1 X17.367 Y34.49 E8.98562
G1 X16.431 Y34.438 E9.01524
G1 X15.502 Y34.306 E9.04489
G1 X14.588 Y34.096 E9.07452
G1 X13.695 Y33.809 E9.10416
G1 X12.83 Y33.446 E9.1338
G1 X11.999 Y33.012 E9.16342
G1 X11.208 Y32.508 E9.19306
G1 X10.463 Y31.938 E9.2227
G1 X9.769 Y31.307 E9.25234
G1 X9.132 Y30.62 E9.28194
G1 X8.555 Y29.88 E9.31159
G1 X8.043 Y29.094 E9.34123
G1 X7.6 Y28.267 E9.37087
G1 X7.229 Y27.406 E9.40049
G1 X6.933 Y26.516 E9.43013
G1 X6.714 Y25.604 E9.45977
G1 X6.573 Y24.677 E9.48939
G1 X6.513 Y23.788 E9.51755
G1 X6.504 Y23.455 E9.52807
G1 X6.5 Y23.158 E9.53746
G1 X6.501 Y22.025 E9.57326
G1 X6.51 Y21.36 E9.59427
G1 X6.563 Y20.424 E9.62389
G1 X6.695 Y19.495 E9.65354
G1 X6.906 Y18.581 E9.68318
G1 X7.194 Y17.689 E9.7128
G1 X7.557 Y16.824 E9.74244
G1 X7.992 Y15.993 E9.77208
G1 X8.496 Y15.203 E9.80169
G1 X9.066 Y14.458 E9.83133
G1 X9.698 Y13.764 E9.86098
G1 X10.386 Y13.127 E9.89061
G0 F7500 X10.774 Y13.323
G1 F1500 X11.51 Y12.77 E9.9197
G1 X12.291 Y12.282 E9.9488
G1 X13.111 Y11.864 E9.97788
G1 X13.965 Y11.519 E10.00698
G1 X14.845 Y11.249 E10.03607
G1 X15.745 Y11.057 E10.06514
G1 X16.659 Y10.943 E10.09425
G1 X17.212 Y10.913 E10.11175
G1 X17.533 Y10.904 E10.12189
G1 X17.83 Y10.9 E10.13128
G1 X136.793 Y10.9 E13.89017
G1 X137.643 Y10.911 E13.91703
G1 X138.562 Y10.964 E13.94611
G1 X139.473 Y11.097 E13.9752
G1 X140.369 Y11.308 E14.00429
G1 X141.243 Y11.596 E14.03337
G1 X142.09 Y11.959 E14.06248
G1 X142.901 Y12.394 E14.09156
G1 X143.671 Y12.898 E14.12064
G1 X144.395 Y13.467 E14.14973
G1 X145.067 Y14.097 E14.17884
G1 X145.682 Y14.782 E14.20793
G1 X146.235 Y15.518 E14.23702
G1 X146.722 Y16.299 E14.2661
G1 X147.139 Y17.12 E14.29519
G1 X147.484 Y17.974 E14.3243
G1 X147.753 Y18.854 E14.35337
G1 X147.945 Y19.755 E14.38248
G1 X148.058 Y20.668 E14.41155
G1 X148.087 Y21.212 E14.42876
G1 X148.096 Y21.532 E14.43888
G1 X148.1 Y21.83 E14.44829
G1 X148.099 Y22.892 E14.48185
G1 X148.09 Y23.622 E14.50492
G1 X148.039 Y24.541 E14.534
G1 X147.908 Y25.452 E14.56308
G1 X147.699 Y26.349 E14.59218
G1 X147.412 Y27.224 E14.62128
G1 X147.051 Y28.07 E14.65034
G1 X146.617 Y28.883 E14.67946
G1 X146.115 Y29.654 E14.70853
G1 X145.548 Y30.379 E14.73761
G1 X144.92 Y31.052 E14.7667
G1 X144.235 Y31.669 E14.79583
G1 X143.5 Y32.223 E14.82491
G1 X142.72 Y32.711 E14.85398
G1 X141.9 Y33.13 E14.88308
G1 X141.047 Y33.477 E14.91218
G1 X140.167 Y33.748 E14.94127
G1 X139.267 Y33.941 E14.97035
G1 X138.354 Y34.056 E14.99943
G1 X137.788 Y34.087 E15.01734
G1 X137.467 Y34.096 E15.02749
G1 X137.17 Y34.1 E15.03687
G1 X18.207 Y34.1 E18.79576
G1 X17.372 Y34.09 E18.82215
G1 X16.453 Y34.038 E18.85123
G1 X15.542 Y33.907 E18.88031
G1 X14.646 Y33.697 E18.90939
G1 X13.771 Y33.41 E18.93849
G1 X12.924 Y33.048 E18.96759
G1 X12.112 Y32.614 E18.99668
G1 X11.341 Y32.112 E19.02575
G1 X10.616 Y31.544 E19.05485
G1 X9.943 Y30.915 E19.08396
G1 X9.328 Y30.231 E19.11302
G1 X8.774 Y29.496 E19.14211
G1 X8.286 Y28.715 E19.17121
G1 X7.867 Y27.895 E19.2003
G1 X7.521 Y27.042 E19.22939
G1 X7.251 Y26.162 E19.25847
G1 X7.058 Y25.261 E19.28759
G1 X6.944 Y24.348 E19.31666
G1 X6.913 Y23.777 E19.33473
G1 X6.904 Y23.444 E19.34525
G1 X6.9 Y23.158 E19.35429
G1 X6.901 Y22.031 E19.3899
G1 X6.91 Y21.366 E19.41091
G1 X6.962 Y20.446 E19.44003
G1 X7.094 Y19.535 E19.46912
G1 X7.305 Y18.639 E19.4982
G1 X7.592 Y17.764 E19.5273
G1 X7.955 Y16.918 E19.55639
G1 X8.389 Y16.106 E19.58548
G1 X8.892 Y15.335 E19.61457
G1 X9.461 Y14.611 E19.64366
G1 X10.089 Y13.939 E19.67272
G1 X10.774 Y13.323 E19.70183
G0 F7500 X11.162 Y13.524
G1 F1500 X11.894 Y12.994 E19.73039
G1 X12.669 Y12.531 E19.75891
G1 X13.482 Y12.138 E19.78744
G1 X14.327 Y11.818 E19.81599
G1 X15.196 Y11.575 E19.8445
G1 X16.084 Y11.409 E19.87305
G1 X17.223 Y11.313 E19.90917
G1 X17.544 Y11.304 E19.91931
G1 X17.83 Y11.3 E19.92835
G1 X136.793 Y11.3 E23.68724
G1 X137.637 Y11.311 E23.71391
G1 X138.539 Y11.364 E23.74246
G1 X139.432 Y11.496 E23.77098
G1 X140.31 Y11.707 E23.79951
G1 X141.166 Y11.995 E23.82805
G1 X141.993 Y12.357 E23.85658
G1 X142.785 Y12.792 E23.88513
G1 X143.536 Y13.294 E23.91367
G1 X144.239 Y13.861 E23.94221
G1 X144.889 Y14.488 E23.97074
G1 X145.481 Y15.17 E23.99928
G1 X146.011 Y15.901 E24.02781
G1 X146.473 Y16.677 E24.05634
G1 X146.866 Y17.49 E24.08488
G1 X147.184 Y18.335 E24.1134
G1 X147.427 Y19.205 E24.14195
G1 X147.592 Y20.093 E24.17048
G1 X147.687 Y21.223 E24.20631
G1 X147.696 Y21.543 E24.21643
G1 X147.7 Y21.83 E24.2255
G1 X147.699 Y22.887 E24.2589
G1 X147.69 Y23.617 E24.28196
G1 X147.639 Y24.518 E24.31048
G1 X147.508 Y25.412 E24.33903
G1 X147.299 Y26.291 E24.36758
G1 X147.013 Y27.147 E24.39609
G1 X146.652 Y27.975 E24.42463
G1 X146.22 Y28.768 E24.45317
G1 X145.719 Y29.519 E24.48169
G1 X145.154 Y30.223 E24.51022
G1 X144.528 Y30.875 E24.53878
G1 X143.847 Y31.468 E24.56731
G1 X143.117 Y31.999 E24.59583
G1 X142.342 Y32.464 E24.62439
G1 X141.529 Y32.857 E24.65292
G1 X140.685 Y33.178 E24.68145
G1 X139.816 Y33.423 E24.70998
G1 X138.928 Y33.589 E24.73852
G1 X137.777 Y33.687 E24.77502
G1 X137.456 Y33.696 E24.78517
G1 X137.17 Y33.7 E24.79421
G1 X18.207 Y33.7 E28.5531
G1 X17.377 Y33.69 E28.57933
G1 X16.476 Y33.639 E28.60784
G1 X15.582 Y33.507 E28.63639
G1 X14.704 Y33.298 E28.66491
G1 X13.847 Y33.011 E28.69347
G1 X13.02 Y32.65 E28.72198
G1 X12.227 Y32.217 E28.75053
G1 X11.476 Y31.716 E28.77905
G1 X10.772 Y31.15 E28.8076
G1 X10.121 Y30.524 E28.83613
G1 X9.528 Y29.843 E28.86466
G1 X8.998 Y29.112 E28.89319
G1 X8.534 Y28.337 E28.92174
G1 X8.14 Y27.524 E28.95028
G1 X7.82 Y26.68 E28.9788
G1 X7.576 Y25.81 E29.00735
G1 X7.41 Y24.922 E29.0359
G1 X7.313 Y23.767 E29.07252
G1 X7.304 Y23.434 E29.08305
G1 X7.3 Y23.158 E29.09177
G1 X7.301 Y22.036 E29.12722
G1 X7.31 Y21.371 E29.14823
G1 X7.362 Y20.469 E29.17678
G1 X7.494 Y19.576 E29.2053
G1 X7.704 Y18.698 E29.23383
G1 X7.991 Y17.841 E29.26239
G1 X8.353 Y17.014 E29.29091
G1 X8.786 Y16.222 E29.31943
G1 X9.288 Y15.471 E29.34797
G1 X9.855 Y14.767 E29.37654
G1 X10.481 Y14.117 E29.40505
G1 X11.162 Y13.524 E29.43358
G1 F2700 E23.43358
;MESH:mini_cube_2x3_33.stl
G0 F7500 X17.914 Y20.835
G0 X17.914 Y21.914
G0 X18.1 Y22.1
;TYPE:WALL-INNER
G1 F2700 E29.43358
G1 F1500 X136.9 Y22.1 E33.18732
G1 X136.9 Y22.9 E33.2126
G1 X18.1 Y22.9 E36.96634
G1 X18.1 Y22.1 E36.99161
G0 F7500 X17.7 Y21.7
;TYPE:WALL-OUTER
G1 F1500 X137.3 Y21.7 E40.58168
G1 X137.3 Y23.3 E40.62971
G1 X17.7 Y23.3 E44.21977
G1 X17.7 Y21.7 E44.2678
G0 F7500 X18.1 Y21.7
G0 X18.14 Y22.14
G0 X18.539 Y22.499
;TYPE:SKIN
G1 F1500 X18.822 Y22.499 E44.27789
G1 X73.976 Y22.499 E46.24377
G1 X129.13 Y22.499 E48.20965
G1 X136.484 Y22.499 E48.47177
G1 X136.633 Y22.365 E48.47891
G1 F2700 E42.47891
G0 F7500 X136.724 Y22.456
G0 X18.481 Y22.724
G1 F2700 E48.47891
G1 F1500 X18.275 Y22.517 E48.48353
G0 F7500 X18.3 Y22.517
;MESH:NONMESH
G0 F300 X18.3 Y22.517 Z0.4
G0 F7500 X18.1 Y22.1
;TIME_ELAPSED:68.800647
;LAYER:1
M106 S85
;TYPE:WALL-INNER
;MESH:mini_cube_2x3_33.stl
G1 F2250 X136.9 Y22.1 E52.43483
G1 X136.9 Y22.9 E52.46144
G1 X18.1 Y22.9 E56.41274
G1 X18.1 Y22.1 E56.43935
G0 F8250 X17.7 Y21.7
;TYPE:WALL-OUTER
G1 F1125 X137.3 Y21.7 E60.21837
G1 X137.3 Y23.3 E60.26892
G1 X17.7 Y23.3 E64.04794
G1 X17.7 Y21.7 E64.09849
G0 F8250 X18.1 Y21.7
G0 X18.14 Y22.14
G0 X18.454 Y22.274
;TYPE:SKIN
G1 F1125 X18.275 Y22.454 E64.10272
G0 F8250 X18.512 Y22.499
G1 F1125 X18.795 Y22.499 E64.11335
G1 X73.949 Y22.499 E66.18518
G1 X129.103 Y22.499 E68.257
G1 X136.457 Y22.499 E68.53325
G1 X136.619 Y22.62 E68.54085
G0 F8250 X136.7 Y22.516
G1 F2700 E62.54085
;MESH:NONMESH
G0 F300 X136.7 Y22.516 Z0.6
G0 F8250 X18.1 Y22.1
;TIME_ELAPSED:96.344790
;LAYER:2
M106 S170
;TYPE:WALL-INNER
;MESH:mini_cube_2x3_33.stl
G1 F2700 E68.54085
G1 F2400 X19.9 Y22.1 E68.60072
G1 X19.9 Y22.9 E68.62733
G1 X18.1 Y22.9 E68.68719
G1 X18.1 Y22.1 E68.7138
G0 F9000 X17.7 Y21.7
;TYPE:WALL-OUTER
G1 F600 X20.3 Y21.7 E68.79595
G1 X20.3 Y23.3 E68.84651
G1 X17.7 Y23.3 E68.92866
G1 X17.7 Y21.7 E68.97922
G0 F9000 X18.1 Y21.7
G0 X18.14 Y22.14
G0 X18.539 Y22.499
;TYPE:SKIN
G1 F600 X18.822 Y22.499 E68.99388
G1 X19.585 Y22.413 E69.03366
G0 F9000 X19.724 Y22.553
G0 X18.481 Y22.724
G1 F600 X18.275 Y22.517 E69.03852
G0 F9000 X18.3 Y22.517
;MESH:NONMESH
G0 F300 X18.3 Y22.517 Z0.8
G0 F9000 X18.1 Y22.1
;TIME_ELAPSED:98.296891
;LAYER:3
M106 S255
;TYPE:WALL-INNER
;MESH:mini_cube_2x3_33.stl
G1 F2400 X19.9 Y22.1 E69.09838
G1 X19.9 Y22.9 E69.12499
G1 X18.1 Y22.9 E69.18486
G1 X18.1 Y22.1 E69.21147
G0 F9000 X17.7 Y21.7
;TYPE:WALL-OUTER
G1 F600 X20.3 Y21.7 E69.29362
G1 X20.3 Y23.3 E69.34418
G1 X17.7 Y23.3 E69.42633
G1 X17.7 Y21.7 E69.47688
G0 F9000 X18.1 Y21.7
G0 X18.14 Y22.14
G0 X18.454 Y22.274
;TYPE:SKIN
G1 F600 X18.275 Y22.454 E69.48111
G0 F9000 X18.512 Y22.499
G1 F600 X18.795 Y22.499 E69.49582
G1 X19.571 Y22.571 E69.53633
G0 F9000 X19.7 Y22.418
;MESH:NONMESH
G0 F300 X19.7 Y22.418 Z1
G0 F9000 X18.1 Y22.1
;TIME_ELAPSED:100.020796
;LAYER:4
;TYPE:WALL-INNER
;MESH:mini_cube_2x3_33.stl
G1 F2400 X19.9 Y22.1 E69.5962
G1 X19.9 Y22.9 E69.62281
G1 X18.1 Y22.9 E69.68267
G1 X18.1 Y22.1 E69.70928
G0 F9000 X17.7 Y21.7
;TYPE:WALL-OUTER
G1 F600 X20.3 Y21.7 E69.79143
G1 X20.3 Y23.3 E69.84199
G1 X17.7 Y23.3 E69.92414
G1 X17.7 Y21.7 E69.9747
G0 F9000 X18.1 Y21.7
G0 X18.14 Y22.14
G0 X18.539 Y22.499
;TYPE:SKIN
G1 F600 X18.822 Y22.499 E69.98936
G1 X19.585 Y22.413 E70.02914
G0 F9000 X19.724 Y22.553
G0 X18.481 Y22.724
G1 F600 X18.275 Y22.517 E70.034
G0 F9000 X18.3 Y22.517
;MESH:NONMESH
G0 F300 X18.3 Y22.517 Z1.2
G0 F9000 X18.1 Y22.1
;TIME_ELAPSED:101.764115
;LAYER:5
;TYPE:WALL-INNER
;MESH:mini_cube_2x3_33.stl
G1 F2400 X19.9 Y22.1 E70.09387
G1 X19.9 Y22.9 E70.12047
G1 X18.1 Y22.9 E70.18034
G1 X18.1 Y22.1 E70.20695
G0 F9000 X17.7 Y21.7
;TYPE:WALL-OUTER
G1 F600 X20.3 Y21.7 E70.2891
G1 X20.3 Y23.3 E70.33966
G1 X17.7 Y23.3 E70.42181
G1 X17.7 Y21.7 E70.47237
G0 F9000 X18.1 Y21.7
G0 X18.14 Y22.14
G0 X18.454 Y22.274
;TYPE:SKIN
G1 F600 X18.275 Y22.454 E70.47659
G0 F9000 X18.512 Y22.499
G1 F600 X18.795 Y22.499 E70.4913
G1 X19.571 Y22.571 E70.53181
G0 F9000 X19.7 Y22.418
;MESH:NONMESH
G0 F300 X19.7 Y22.418 Z1.4
G0 F9000 X18.1 Y22.1
;TIME_ELAPSED:103.488020
;LAYER:6
;TYPE:WALL-INNER
;MESH:mini_cube_2x3_33.stl
G1 F2400 X19.9 Y22.1 E70.59168
G1 X19.9 Y22.9 E70.61829
G1 X18.1 Y22.9 E70.67815
G1 X18.1 Y22.1 E70.70476
G0 F9000 X17.7 Y21.7
;TYPE:WALL-OUTER
G1 F600 X20.3 Y21.7 E70.78692
G1 X20.3 Y23.3 E70.83747
G1 X17.7 Y23.3 E70.91962
G1 X17.7 Y21.7 E70.97018
G0 F9000 X18.1 Y21.7
G0 X18.14 Y22.14
G0 X18.539 Y22.499
;TYPE:SKIN
G1 F600 X18.822 Y22.499 E70.98484
G1 X19.585 Y22.413 E71.02462
G0 F9000 X19.724 Y22.553
G0 X18.481 Y22.724
G1 F600 X18.275 Y22.517 E71.02948
G0 F9000 X18.3 Y22.517
;MESH:NONMESH
G0 F300 X18.3 Y22.517 Z1.6
G0 F9000 X18.1 Y22.1
;TIME_ELAPSED:105.231339
;LAYER:7
;TYPE:WALL-INNER
;MESH:mini_cube_2x3_33.stl
G1 F2400 X19.9 Y22.1 E71.08935
G1 X19.9 Y22.9 E71.11595
G1 X18.1 Y22.9 E71.17582
G1 X18.1 Y22.1 E71.20243
G0 F9000 X17.7 Y21.7
;TYPE:WALL-OUTER
G1 F600 X20.3 Y21.7 E71.28458
G1 X20.3 Y23.3 E71.33514
G1 X17.7 Y23.3 E71.41729
G1 X17.7 Y21.7 E71.46785
G0 F9000 X18.1 Y21.7
G0 X18.14 Y22.14
G0 X18.454 Y22.274
;TYPE:SKIN
G1 F600 X18.275 Y22.454 E71.47207
G0 F9000 X18.512 Y22.499
G1 F600 X18.795 Y22.499 E71.48678
G1 X19.571 Y22.571 E71.52729
G0 F9000 X19.7 Y22.418
;MESH:NONMESH
G0 F300 X19.7 Y22.418 Z1.8
G0 F9000 X18.1 Y22.1
;TIME_ELAPSED:106.955244
;LAYER:8
;TYPE:WALL-INNER
;MESH:mini_cube_2x3_33.stl
G1 F2400 X19.9 Y22.1 E71.58716
G1 X19.9 Y22.9 E71.61377
G1 X18.1 Y22.9 E71.67364
G1 X18.1 Y22.1 E71.70024
G0 F9000 X17.7 Y21.7
;TYPE:WALL-OUTER
G1 F600 X20.3 Y21.7 E71.7824
G1 X20.3 Y23.3 E71.83295
G1 X17.7 Y23.3 E71.9151
G1 X17.7 Y21.7 E71.96566
G0 F9000 X18.1 Y21.7
G0 X18.14 Y22.14
G0 X18.539 Y22.499
;TYPE:SKIN
G1 F600 X18.822 Y22.499 E71.98032
G1 X19.585 Y22.413 E72.0201
G0 F9000 X19.724 Y22.553
G0 X18.481 Y22.724
G1 F600 X18.275 Y22.517 E72.02496
G0 F9000 X18.3 Y22.517
;MESH:NONMESH
G0 F300 X18.3 Y22.517 Z2
G0 F9000 X18.1 Y22.1
;TIME_ELAPSED:108.698563
;LAYER:9
;TYPE:WALL-INNER
;MESH:mini_cube_2x3_33.stl
G1 F2400 X19.9 Y22.1 E72.08483
G1 X19.9 Y22.9 E72.11143
G1 X18.1 Y22.9 E72.1713
G1 X18.1 Y22.1 E72.19791
G0 F9000 X17.7 Y21.7
;TYPE:WALL-OUTER
G1 F600 X20.3 Y21.7 E72.28006
G1 X20.3 Y23.3 E72.33062
G1 X17.7 Y23.3 E72.41277
G1 X17.7 Y21.7 E72.46333
G0 F9000 X18.1 Y21.7
G0 X18.14 Y22.14
G0 X18.454 Y22.274
;TYPE:SKIN
G1 F600 X18.275 Y22.454 E72.46755
G0 F9000 X18.512 Y22.499
G1 F600 X18.795 Y22.499 E72.48226
G1 X19.571 Y22.571 E72.52277
G0 F9000 X19.7 Y22.418
;MESH:NONMESH
G0 F300 X19.7 Y22.418 Z2.2
G0 F9000 X18.1 Y22.1
;TIME_ELAPSED:110.422468
;LAYER:10
;TYPE:WALL-INNER
;MESH:mini_cube_2x3_33.stl
G1 F2400 X19.9 Y22.1 E72.58264
G1 X19.9 Y22.9 E72.60925
G1 X18.1 Y22.9 E72.66912
G1 X18.1 Y22.1 E72.69572
G0 F9000 X17.7 Y21.7
;TYPE:WALL-OUTER
G1 F600 X20.3 Y21.7 E72.77788
G1 X20.3 Y23.3 E72.82843
G1 X17.7 Y23.3 E72.91058
G1 X17.7 Y21.7 E72.96114
G0 F9000 X18.1 Y21.7
G0 X18.14 Y22.14
G0 X18.539 Y22.499
;TYPE:SKIN
G1 F600 X18.822 Y22.499 E72.9758
G1 X19.585 Y22.413 E73.01558
G0 F9000 X19.724 Y22.553
G0 X18.481 Y22.724
G1 F600 X18.275 Y22.517 E73.02044
G0 F9000 X18.3 Y22.517
;MESH:NONMESH
G0 F300 X18.3 Y22.517 Z2.4
G0 F9000 X18.1 Y22.1
;TIME_ELAPSED:112.165787
;LAYER:11
;TYPE:WALL-INNER
;MESH:mini_cube_2x3_33.stl
G1 F2400 X19.9 Y22.1 E73.08031
G1 X19.9 Y22.9 E73.10691
G1 X18.1 Y22.9 E73.16678
G1 X18.1 Y22.1 E73.19339
G0 F9000 X17.7 Y21.7
;TYPE:WALL-OUTER
G1 F600 X20.3 Y21.7 E73.27554
G1 X20.3 Y23.3 E73.3261
