;FLAVOR:Marlin
M117 Time Left 3h51m52s
;TIME:13912
;Filament used: 14.625m
;Layer height: 0.28
;MINX:55.5
;MINY:104
;MINZ:0.285
;MAXX:179.5
;MAXY:171
;MAXZ:32.765
;POSTPROCESSED
;Generated with Cura_SteamEngine 4.7.1
M140 S60
M105
M190 S60
M104 S200
M105
M109 S200
M82 ;absolute extrusion mode
; Ender 3 Custom Start G-code
G92 E0 ; Reset Extruder
G28 ; Home all axes
; ***SET NEW E STEP *** (93 is factory value - 95 mine - start)
G90                          ; Force coordinates to be absolute relative to the origin
M92 E95 ;					 ; ***SET NEW E STEP *** (93 is factory value - 95 mine - end)
G90                          ; Force coordinates to be absolute relative to the origin
G28                          ; Home X/Y/Z axis
G92 E0 ; Reset Extruder								
G28 ; Home all axes		
G1 Z2.0 F3000 ; Move Z Axis up little to prevent scratching of Heat Bed
G1 X0.1 Y20 Z0.3 F5000.0 ; Move to start position
G1 X0.1 Y200.0 Z0.3 F1500.0 E15 ; Draw the first line
G1 X0.4 Y200.0 Z0.3 F5000.0 ; Move to side a little
G1 X0.4 Y20 Z0.3 F1500.0 E30 ; Draw the second line
G92 E0 ; Reset Extruder
G1 Z2.0 F3000 ; Move Z Axis up little to prevent scratching of Heat Bed
G1 X5 Y20 Z0.3 F5000.0 ; Move over to prevent blob squish
G92 E0
G92 E0
G1 F2700 E-6
;LAYER_COUNT:117
;LAYER:0
M107
M204 S500
M205 X8 Y8
G0 F7500 X60.912 Y105.539 Z0.285
;TYPE:SKIRT
G1 F2700 E0
G1 F1500 X61.739 Y105.097 E0.04222
G1 X62.601 Y104.727 E0.08446
G1 X63.491 Y104.431 E0.12669
G1 X64.403 Y104.213 E0.16891
G1 X65.33 Y104.072 E0.21113
G1 X66.201 Y104.013 E0.25044
G1 X66.522 Y104.004 E0.26489
G1 X66.83 Y104 E0.27876
G1 X167.793 Y104 E4.82471
G1 X167.951 Y104.001 E4.83183
G1 X168.649 Y104.011 E4.86326
G1 X169.585 Y104.065 E4.90547
G1 X170.513 Y104.197 E4.94768
G1 X171.427 Y104.409 E4.98993
G1 X172.319 Y104.698 E5.03214
G1 X173.184 Y105.061 E5.07438
G1 X174.014 Y105.497 E5.1166
G1 X174.805 Y106.002 E5.15885
G1 X175.549 Y106.573 E5.20108
G1 X176.242 Y107.205 E5.24331
G1 X176.879 Y107.893 E5.28553
G1 X177.454 Y108.634 E5.32776
G1 X177.965 Y109.42 E5.36997
G1 X178.407 Y110.248 E5.41223
G1 X178.776 Y111.11 E5.45445
G1 X179.071 Y112 E5.49667
G1 X179.289 Y112.912 E5.53889
G1 X179.429 Y113.84 E5.58114
G1 X179.487 Y114.701 E5.62
G1 X179.496 Y115.021 E5.63441
G1 X179.5 Y115.33 E5.64833
G1 X179.499 Y159.4 E7.63262
G1 X179.49 Y160.127 E7.66535
G1 X179.439 Y161.064 E7.70761
G1 X179.307 Y161.992 E7.74981
G1 X179.098 Y162.906 E7.79203
G1 X178.811 Y163.799 E7.83426
G1 X178.449 Y164.665 E7.87652
G1 X178.015 Y165.496 E7.91873
G1 X177.511 Y166.287 E7.96097
G1 X176.942 Y167.032 E8.00317
G1 X176.311 Y167.727 E8.04544
G1 X175.624 Y168.365 E8.08765
G1 X174.885 Y168.942 E8.12987
G1 X174.099 Y169.454 E8.17211
G1 X173.273 Y169.897 E8.21431
G1 X172.411 Y170.269 E8.25658
G1 X171.522 Y170.565 E8.29877
G1 X170.61 Y170.785 E8.34101
G1 X169.683 Y170.926 E8.38323
G1 X168.799 Y170.987 E8.42313
G1 X168.478 Y170.996 E8.43759
G1 X168.17 Y171 E8.45146
G1 X67.207 Y171 E12.99741
G1 X66.367 Y170.99 E13.03523
G1 X65.431 Y170.938 E13.07744
G1 X64.502 Y170.806 E13.11969
G1 X63.588 Y170.596 E13.16192
G1 X62.695 Y170.309 E13.20415
G1 X61.83 Y169.946 E13.24639
G1 X60.999 Y169.512 E13.2886
G1 X60.208 Y169.008 E13.33083
G1 X59.463 Y168.438 E13.37307
G1 X58.769 Y167.807 E13.4153
G1 X58.132 Y167.12 E13.45748
G1 X57.555 Y166.38 E13.49973
G1 X57.043 Y165.594 E13.54197
G1 X56.6 Y164.767 E13.58421
G1 X56.229 Y163.906 E13.62643
G1 X55.933 Y163.016 E13.66866
G1 X55.714 Y162.104 E13.71089
G1 X55.573 Y161.177 E13.75311
G1 X55.513 Y160.288 E13.79323
G1 X55.504 Y159.955 E13.80823
G1 X55.5 Y159.658 E13.8216
G1 X55.501 Y115.525 E15.80873
G1 X55.51 Y114.86 E15.83867
G1 X55.563 Y113.924 E15.88088
G1 X55.695 Y112.995 E15.92313
G1 X55.906 Y112.081 E15.96537
G1 X56.194 Y111.189 E16.00757
G1 X56.557 Y110.324 E16.04981
G1 X56.992 Y109.493 E16.09205
G1 X57.496 Y108.703 E16.13424
G1 X58.066 Y107.958 E16.17647
G1 X58.698 Y107.264 E16.21874
G1 X59.386 Y106.627 E16.26095
G1 X60.126 Y106.051 E16.30318
G1 X60.912 Y105.539 E16.34541
G0 F7500 X61.291 Y105.782
G1 F1500 X62.111 Y105.364 E16.38686
G1 X62.965 Y105.019 E16.42833
G1 X63.845 Y104.749 E16.46977
G1 X64.745 Y104.557 E16.51121
G1 X65.659 Y104.443 E16.55268
G1 X66.212 Y104.413 E16.57762
G1 X66.533 Y104.404 E16.59208
G1 X66.83 Y104.4 E16.60545
G1 X167.793 Y104.4 E21.1514
G1 X168.643 Y104.411 E21.18968
G1 X169.562 Y104.464 E21.23112
G1 X170.473 Y104.597 E21.27258
G1 X171.369 Y104.808 E21.31402
G1 X172.243 Y105.096 E21.35546
G1 X173.09 Y105.459 E21.39695
G1 X173.901 Y105.894 E21.43839
G1 X174.671 Y106.398 E21.47982
G1 X175.395 Y106.967 E21.52128
G1 X176.067 Y107.597 E21.56276
G1 X176.682 Y108.282 E21.60421
G1 X177.235 Y109.018 E21.64566
G1 X177.722 Y109.799 E21.6871
G1 X178.139 Y110.62 E21.72856
G1 X178.484 Y111.474 E21.77003
G1 X178.753 Y112.354 E21.81147
G1 X178.945 Y113.255 E21.85295
G1 X179.058 Y114.168 E21.89437
G1 X179.087 Y114.712 E21.9189
G1 X179.096 Y115.032 E21.93331
G1 X179.1 Y115.33 E21.94673
G1 X179.099 Y159.395 E23.9308
G1 X179.09 Y160.122 E23.96353
G1 X179.039 Y161.041 E24.00498
G1 X178.908 Y161.953 E24.04646
G1 X178.698 Y162.849 E24.0879
G1 X178.412 Y163.724 E24.12935
G1 X178.051 Y164.571 E24.1708
G1 X177.617 Y165.383 E24.21226
G1 X177.115 Y166.155 E24.25372
G1 X176.547 Y166.88 E24.29519
G1 X175.919 Y167.553 E24.33664
G1 X175.235 Y168.169 E24.37808
G1 X174.5 Y168.723 E24.41952
G1 X173.72 Y169.212 E24.46097
G1 X172.9 Y169.631 E24.50244
G1 X172.047 Y169.977 E24.54388
G1 X171.167 Y170.248 E24.58534
G1 X170.267 Y170.441 E24.62679
G1 X169.353 Y170.556 E24.66827
G1 X168.788 Y170.587 E24.69374
G1 X168.467 Y170.596 E24.7082
G1 X168.17 Y170.6 E24.72158
G1 X67.207 Y170.6 E29.26753
G1 X66.372 Y170.59 E29.30513
G1 X65.453 Y170.538 E29.34657
G1 X64.542 Y170.407 E29.38801
G1 X63.646 Y170.197 E29.42945
G1 X62.771 Y169.91 E29.47091
G1 X61.924 Y169.548 E29.51238
G1 X61.112 Y169.114 E29.55384
G1 X60.341 Y168.612 E29.59527
G1 X59.616 Y168.044 E29.63673
G1 X58.943 Y167.415 E29.67821
G1 X58.328 Y166.731 E29.71963
G1 X57.774 Y165.996 E29.76107
G1 X57.286 Y165.215 E29.80254
G1 X56.867 Y164.395 E29.844
G1 X56.521 Y163.542 E29.88544
G1 X56.251 Y162.662 E29.92689
G1 X56.058 Y161.761 E29.96838
G1 X55.944 Y160.848 E30.00981
G1 X55.913 Y160.277 E30.03555
G1 X55.904 Y159.944 E30.05055
G1 X55.9 Y159.658 E30.06343
G1 X55.901 Y115.531 E32.05029
G1 X55.91 Y114.866 E32.08023
G1 X55.962 Y113.946 E32.12172
G1 X56.094 Y113.035 E32.16317
G1 X56.305 Y112.139 E32.20462
G1 X56.592 Y111.264 E32.24608
G1 X56.955 Y110.418 E32.28753
G1 X57.389 Y109.606 E32.32899
G1 X57.892 Y108.835 E32.37044
G1 X58.461 Y108.111 E32.4119
G1 X59.089 Y107.439 E32.45331
G1 X59.774 Y106.823 E32.49479
G1 X60.51 Y106.27 E32.53624
G1 X61.291 Y105.782 E32.57771
G0 F7500 X61.669 Y106.031
G1 F1500 X62.482 Y105.638 E32.61837
G1 X63.327 Y105.318 E32.65905
G1 X64.196 Y105.075 E32.69968
G1 X65.084 Y104.909 E32.74035
G1 X66.223 Y104.813 E32.79182
G1 X66.544 Y104.804 E32.80628
G1 X66.83 Y104.8 E32.81916
G1 X167.793 Y104.8 E37.36511
G1 X168.637 Y104.811 E37.40311
G1 X169.539 Y104.864 E37.4438
G1 X170.432 Y104.996 E37.48444
G1 X171.31 Y105.207 E37.5251
G1 X172.166 Y105.495 E37.56577
G1 X172.993 Y105.857 E37.60641
G1 X173.785 Y106.292 E37.6471
G1 X174.536 Y106.794 E37.68777
G1 X175.239 Y107.361 E37.72844
G1 X175.889 Y107.988 E37.7691
G1 X176.481 Y108.67 E37.80976
G1 X177.011 Y109.401 E37.85042
G1 X177.473 Y110.177 E37.89108
G1 X177.866 Y110.99 E37.93174
G1 X178.184 Y111.835 E37.97239
G1 X178.427 Y112.705 E38.01306
G1 X178.592 Y113.593 E38.05373
G1 X178.687 Y114.723 E38.10479
G1 X178.696 Y115.043 E38.1192
G1 X178.7 Y115.33 E38.13213
G1 X178.699 Y159.39 E40.11597
G1 X178.69 Y160.117 E40.14871
G1 X178.639 Y161.019 E40.18938
G1 X178.508 Y161.913 E40.23007
G1 X178.299 Y162.791 E40.2707
G1 X178.013 Y163.648 E40.31138
G1 X177.652 Y164.476 E40.35205
G1 X177.22 Y165.268 E40.39268
G1 X176.719 Y166.02 E40.43336
G1 X176.153 Y166.724 E40.47403
G1 X175.528 Y167.375 E40.51467
G1 X174.847 Y167.969 E40.55536
G1 X174.116 Y168.5 E40.59604
G1 X173.342 Y168.964 E40.63667
G1 X172.529 Y169.358 E40.67735
G1 X171.685 Y169.678 E40.71799
G1 X170.815 Y169.923 E40.75869
G1 X169.928 Y170.089 E40.79932
G1 X168.777 Y170.187 E40.85133
G1 X168.456 Y170.196 E40.86579
G1 X168.17 Y170.2 E40.87867
G1 X67.207 Y170.2 E45.42462
G1 X66.377 Y170.19 E45.46199
G1 X65.476 Y170.139 E45.50262
G1 X64.582 Y170.007 E45.54331
G1 X63.704 Y169.798 E45.58395
G1 X62.847 Y169.511 E45.62465
G1 X62.02 Y169.15 E45.66527
G1 X61.227 Y168.717 E45.70596
G1 X60.476 Y168.216 E45.7466
G1 X59.772 Y167.65 E45.78728
G1 X59.121 Y167.024 E45.82794
G1 X58.528 Y166.343 E45.8686
G1 X57.998 Y165.612 E45.90925
G1 X57.534 Y164.837 E45.94993
G1 X57.14 Y164.024 E45.9906
G1 X56.82 Y163.18 E46.03125
G1 X56.576 Y162.31 E46.07193
G1 X56.41 Y161.422 E46.11261
G1 X56.313 Y160.267 E46.16479
G1 X56.304 Y159.934 E46.17979
G1 X56.3 Y159.658 E46.19222
G1 X56.301 Y115.536 E48.17885
G1 X56.31 Y114.871 E48.2088
G1 X56.362 Y113.969 E48.24948
G1 X56.494 Y113.076 E48.29013
G1 X56.704 Y112.198 E48.33077
G1 X56.991 Y111.341 E48.37147
G1 X57.353 Y110.514 E48.41211
G1 X57.786 Y109.722 E48.45276
G1 X58.288 Y108.971 E48.49343
G1 X58.855 Y108.267 E48.53413
G1 X59.481 Y107.617 E48.57476
G1 X60.162 Y107.024 E48.61542
G1 X60.894 Y106.494 E48.65611
G1 X61.669 Y106.031 E48.69676
G1 F2700 E42.69676
;MESH:harbringer_box.stl
G0 F7500 X155.827 Y124.665
G0 X155.827 Y123.23
G0 X153.9 Y123.4
;TYPE:WALL-INNER
G1 F2700 E48.69676
G1 F1800 X153.9 Y151.6 E49.96649
G1 X159.1 Y151.6 E50.20063
G1 X159.1 Y123.4 E51.47036
G1 X153.9 Y123.4 E51.70449
G0 F7500 X154.3 Y123.8
;TYPE:WALL-OUTER
G1 F1800 X154.3 Y151.2 E52.87652
G1 X158.7 Y151.2 E53.06472
G1 X158.7 Y123.8 E54.23675
G1 X154.3 Y123.8 E54.42496
G0 F7500 X154.3 Y124.2
G0 X153.86 Y124.2
G1 F2700 E48.42496
G0 F7500 X153.71 Y123.4
G0 X155.153 Y124.653
G0 X143.847 Y124.653
G0 X145.29 Y123.4
G0 X140.9 Y123.4
;TYPE:WALL-INNER
G1 F2700 E54.42496
G1 F1800 X140.9 Y151.6 E55.69469
G1 X145.1 Y151.6 E55.8838
G1 X145.1 Y123.4 E57.15353
G1 X140.9 Y123.4 E57.34263
G0 F7500 X141.3 Y123.8
;TYPE:WALL-OUTER
G1 F1800 X141.3 Y151.2 E58.51466
G1 X144.7 Y151.2 E58.66009
G1 X144.7 Y123.8 E59.83212
G1 X141.3 Y123.8 E59.97755
G0 F7500 X141.3 Y124.2
G0 X140.86 Y124.2
G1 F2700 E53.97755
G0 F7500 X140.71 Y123.4
G0 X142.153 Y124.653
G0 X130.847 Y124.653
G0 X132.29 Y123.4
G0 X127.9 Y123.4
;TYPE:WALL-INNER
G1 F2700 E59.97755
G1 F1800 X127.9 Y151.6 E61.24728
G1 X132.1 Y151.6 E61.43639
G1 X132.1 Y123.4 E62.70612
G1 X127.9 Y123.4 E62.89523
G0 F7500 X128.3 Y123.8
;TYPE:WALL-OUTER
G1 F1800 X128.3 Y151.2 E64.06725
G1 X131.7 Y151.2 E64.21269
G1 X131.7 Y123.8 E65.38471
G1 X128.3 Y123.8 E65.53015
G0 F7500 X128.3 Y124.2
G0 X127.86 Y124.2
G1 F2700 E59.53015
G0 F7500 X127.71 Y123.4
G0 X129.153 Y124.653
G0 X117.847 Y124.653
G0 X119.29 Y123.4
G0 X114.9 Y123.4
;TYPE:WALL-INNER
G1 F2700 E65.53015
G1 F1800 X114.9 Y151.6 E66.79988
G1 X119.1 Y151.6 E66.98899
G1 X119.1 Y123.4 E68.25872
G1 X114.9 Y123.4 E68.44782
G0 F7500 X115.3 Y123.8
;TYPE:WALL-OUTER
G1 F1800 X115.3 Y151.2 E69.61985
G1 X118.7 Y151.2 E69.76528
G1 X118.7 Y123.8 E70.93731
G1 X115.3 Y123.8 E71.08274
G0 F7500 X115.3 Y124.2
G0 X114.86 Y124.2
G1 F2700 E65.08274
G0 F7500 X114.71 Y123.4
G0 X116.153 Y124.653
G0 X104.847 Y124.653
G0 X106.29 Y123.4
G0 X101.9 Y123.4
;TYPE:WALL-INNER
G1 F2700 E71.08274
G1 F1800 X101.9 Y151.6 E72.35247
G1 X106.1 Y151.6 E72.54158
G1 X106.1 Y123.4 E73.81131
G1 X101.9 Y123.4 E74.00042
G0 F7500 X102.3 Y123.8
;TYPE:WALL-OUTER
G1 F1800 X102.3 Y151.2 E75.17244
G1 X105.7 Y151.2 E75.31788
G1 X105.7 Y123.8 E76.4899
G1 X102.3 Y123.8 E76.63534
G0 F7500 X102.3 Y124.2
G0 X101.86 Y124.2
G1 F2700 E70.63534
G0 F7500 X101.71 Y123.4
G0 X103.153 Y124.653
G0 X91.847 Y124.653
G0 X93.31 Y123.4
G0 X67.1 Y123.4
;TYPE:WALL-INNER
G1 F2700 E76.63534
G1 F1800 X67.1 Y115.6 E76.98654
G1 X167.9 Y115.6 E81.52515
G1 X167.9 Y159.4 E83.49728
G1 X67.1 Y159.4 E88.0359
G1 X67.1 Y151.6 E88.3871
G1 X93.1 Y151.6 E89.55777
G1 X93.1 Y123.4 E90.8275
G1 X67.1 Y123.4 E91.99818
G0 F7500 X67.3 Y123.8
;TYPE:WALL-OUTER
G1 F1800 X67.3 Y151.2 E93.1702
G1 X92.7 Y151.2 E94.25668
G1 X92.7 Y123.8 E95.4287
G1 X67.3 Y123.8 E96.51517
G0 F7500 X67.3 Y124.2
G1 F2700 E90.51517
G0 F7500 X67.1 Y124.2
G0 X66.87 Y115.37
G0 X66.7 Y115.2
G1 F2700 E96.51517
G1 F1800 X168.3 Y115.2 E100.86108
G1 X168.3 Y159.8 E102.76882
G1 X66.7 Y159.8 E107.11472
G1 X66.7 Y115.2 E109.02247
G0 F7500 X67.1 Y115.2
G0 X67.14 Y115.64
G0 X67.49 Y115.99
;TYPE:SKIN
G1 F1800 X167.51 Y115.99 E113.52596
G1 X167.51 Y159.01 E115.46298
G1 X67.49 Y159.01 E119.96647
G1 X67.49 Y151.99 E120.28255
G1 X93.49 Y151.99 E121.45322
G1 X93.49 Y123.01 E122.75807
G1 X67.49 Y123.01 E123.92875
G1 X67.49 Y115.99 E124.24483
G1 F2700 E118.24483
G0 F7500 X67.49 Y115.71
G0 X101.76 Y115.81
G0 X101.76 Y114.335
G0 X103.153 Y124.653
G0 X101.76 Y123.21
G0 X101.76 Y123.29
G0 X101.51 Y123.01
G1 F2700 E124.24483
G1 F1800 X101.51 Y151.99 E125.54968
G1 X106.49 Y151.99 E125.77391
G1 X106.49 Y123.01 E127.07876
G1 X101.51 Y123.01 E127.30299
G1 F2700 E121.30299
G0 F7500 X101.76 Y123.29
G0 X106.29 Y123.29
G0 X104.847 Y124.653
G0 X116.153 Y124.653
G0 X114.71 Y123.29
G0 X114.51 Y123.01
G1 F2700 E127.30299
G1 F1800 X114.51 Y151.99 E128.60784
G1 X119.49 Y151.99 E128.83207
G1 X119.49 Y123.01 E130.13692
G1 X114.51 Y123.01 E130.36115
G1 F2700 E124.36115
G0 F7500 X114.76 Y123.29
G0 X119.29 Y123.29
G0 X117.847 Y124.653
G0 X129.153 Y124.653
G0 X127.71 Y123.29
G0 X127.51 Y123.01
G1 F2700 E130.36115
G1 F1800 X127.51 Y151.99 E131.666
G1 X132.49 Y151.99 E131.89023
G1 X132.49 Y123.01 E133.19508
G1 X127.51 Y123.01 E133.41931
G1 F2700 E127.41931
G0 F7500 X127.76 Y123.29
G0 X132.29 Y123.29
G0 X130.847 Y124.653
G0 X142.153 Y124.653
G0 X140.71 Y123.29
G0 X140.51 Y123.01
G1 F2700 E133.41931
G1 F1800 X140.51 Y151.99 E134.72416
G1 X145.49 Y151.99 E134.94839
G1 X145.49 Y123.01 E136.25324
G1 X140.51 Y123.01 E136.47747
G1 F2700 E130.47747
G0 F7500 X140.76 Y123.29
G0 X145.29 Y123.29
G0 X143.847 Y124.653
G0 X155.153 Y124.653
G0 X153.71 Y123.29
G0 X153.51 Y123.01
G1 F2700 E136.47747
G1 F1800 X153.51 Y151.99 E137.78232
G1 X159.49 Y151.99 E138.05157
G1 X159.49 Y123.01 E139.35643
G1 X153.51 Y123.01 E139.62568
G1 F2700 E133.62568
G0 F7500 X153.76 Y123.29
G0 X155.827 Y123.23
G0 X155.827 Y124.665
G0 X169.165 Y123.204
G0 X167.69 Y123.204
G0 X167.79 Y116.437
G0 X167.349 Y116.437
G1 F2700 E139.62568
G1 F1800 X167.061 Y116.15 E139.64399
G0 F7500 X166.496 Y116.15
G1 F1800 X167.349 Y117.003 E139.6983
G0 F7500 X167.349 Y117.569
G1 F1800 X165.93 Y116.15 E139.78866
G0 F7500 X165.364 Y116.15
G1 F1800 X167.349 Y118.134 E139.91503
G0 F7500 X167.349 Y118.7
G1 F1800 X164.799 Y116.15 E140.0774
G0 F7500 X164.233 Y116.15
G1 F1800 X167.349 Y119.266 E140.27581
G0 F7500 X167.349 Y119.831
G1 F1800 X163.667 Y116.15 E140.51024
G0 F7500 X163.101 Y116.15
G1 F1800 X167.349 Y120.397 E140.7807
G0 F7500 X167.349 Y120.963
G1 F1800 X162.536 Y116.15 E141.08718
G0 F7500 X161.97 Y116.15
G1 F1800 X167.349 Y121.529 E141.42969
G0 F7500 X167.349 Y122.094
G1 F1800 X161.404 Y116.15 E141.80822
G0 F7500 X160.839 Y116.15
G1 F1800 X167.349 Y122.66 E142.22275
G0 F7500 X167.349 Y123.226
G1 F1800 X160.273 Y116.15 E142.67332
G0 F7500 X159.707 Y116.15
G1 F1800 X167.349 Y123.791 E143.1599
G0 F7500 X167.349 Y124.357
G1 F1800 X159.142 Y116.15 E143.68249
G0 F7500 X158.576 Y116.15
G1 F1800 X167.349 Y124.923 E144.24113
G0 F7500 X167.349 Y125.488
G1 F1800 X158.01 Y116.15 E144.83577
G0 F7500 X157.445 Y116.15
G1 F1800 X167.349 Y126.054 E145.46642
G0 F7500 X167.349 Y126.62
G1 F1800 X156.879 Y116.15 E146.13311
G0 F7500 X156.313 Y116.15
G1 F1800 X167.349 Y127.185 E146.83581
G0 F7500 X167.349 Y127.751
G1 F1800 X155.748 Y116.15 E147.57451
G0 F7500 X155.182 Y116.15
G1 F1800 X167.349 Y128.317 E148.34926
G0 F7500 X167.349 Y128.882
G1 F1800 X154.616 Y116.15 E149.16002
G0 F7500 X154.05 Y116.15
G1 F1800 X167.349 Y129.448 E150.00682
G0 F7500 X167.349 Y130.014
G1 F1800 X153.485 Y116.15 E150.88963
G0 F7500 X152.919 Y116.15
G1 F1800 X159.619 Y122.849 E151.31623
G0 F7500 X159.649 Y122.879
G1 F1800 X167.349 Y130.579 E151.80653
G0 F7500 X167.349 Y131.145
G1 F1800 X159.649 Y123.445 E152.29684
G0 F7500 X159.649 Y124.01
