;FLAVOR:Marlin
M117 Time Left 0h15m16s
;TIME:916
;Filament used: 0.2509m
;Layer height: 0.2
;MINX:6.5
;MINY:15.5
;MINZ:0.2
;MAXX:185.158
;MAXY:149.864
;MAXZ:34
;POSTPROCESSED
;Generated with Cura_SteamEngine 4.7.1
M140 S60
M105
M190 S60
M104 S200
M105
M109 S200
M82 ;absolute extrusion mode
; Ender 3 Custom Start G-code
G92 E0 ; Reset Extruder
G28 ; Home all axes
; ***SET NEW E STEP *** (93 is factory value - 95 mine - start)
G90                          ; Force coordinates to be absolute relative to the origin
M92 E95 ;					 ; ***SET NEW E STEP *** (93 is factory value - 95 mine - end)
G90                          ; Force coordinates to be absolute relative to the origin
G28                          ; Home X/Y/Z axis
G92 E0 ; Reset Extruder								
G28 ; Home all axes		
G1 Z2.0 F3000 ; Move Z Axis up little to prevent scratching of Heat Bed
G1 X0.1 Y20 Z0.3 F5000.0 ; Move to start position
G92 E0 ; Reset Extruder
G1 Z2.0 F3000 ; Move Z Axis up little to prevent scratching of Heat Bed
G1 X5 Y20 Z0.3 F5000.0 ; Move over to prevent blob squish
G92 E0
G92 E0
G1 F2700 E-6
;LAYER_COUNT:170
;LAYER:0
M107
M204 S500
M205 X8 Y8
G0 F7500 X11.126 Y17.551 Z0.2
;TYPE:SKIRT
G1 F2700 E0
G1 F1500 X11.912 Y17.039 E0.02964
G1 X12.739 Y16.597 E0.05927
G1 X13.601 Y16.227 E0.08891
G1 X14.491 Y15.931 E0.11854
G1 X15.403 Y15.713 E0.14817
G1 X16.33 Y15.572 E0.1778
G1 X17.201 Y15.513 E0.20538
G1 X17.522 Y15.504 E0.21553
G1 X17.83 Y15.5 E0.22526
G1 X136.793 Y15.5 E3.98415
G1 X136.951 Y15.501 E3.98915
G1 X137.649 Y15.511 E4.0112
G1 X138.585 Y15.565 E4.04083
G1 X139.513 Y15.697 E4.07044
G1 X140.427 Y15.909 E4.10009
G1 X141.319 Y16.198 E4.12972
G1 X142.184 Y16.561 E4.15936
G1 X143.014 Y16.997 E4.18898
G1 X143.805 Y17.502 E4.21863
G1 X144.549 Y18.073 E4.24827
G1 X145.242 Y18.705 E4.2779
G1 X145.879 Y19.393 E4.30753
G1 X146.454 Y20.134 E4.33716
G1 X146.965 Y20.92 E4.36679
G1 X147.407 Y21.748 E4.39644
G1 X147.776 Y22.61 E4.42607
G1 X148.071 Y23.5 E4.4557
G1 X148.289 Y24.412 E4.48533
G1 X148.429 Y25.34 E4.51498
G1 X148.487 Y26.201 E4.54225
G1 X148.496 Y26.521 E4.55236
G1 X148.5 Y26.83 E4.56213
G1 X148.499 Y27.897 E4.59584
G1 X148.49 Y28.627 E4.61891
G1 X148.439 Y29.563 E4.64853
G1 X148.308 Y30.492 E4.67817
G1 X148.098 Y31.406 E4.7078
G1 X147.811 Y32.299 E4.73744
G1 X147.449 Y33.164 E4.76707
G1 X147.015 Y33.995 E4.79669
G1 X146.511 Y34.787 E4.82635
G1 X145.942 Y35.532 E4.85597
G1 X145.312 Y36.226 E4.88559
G1 X144.624 Y36.864 E4.91524
G1 X143.885 Y37.442 E4.94488
G1 X143.1 Y37.954 E4.97449
G1 X142.273 Y38.397 E5.00414
G1 X141.412 Y38.769 E5.03377
G1 X140.522 Y39.065 E5.06341
G1 X139.61 Y39.285 E5.09305
G1 X138.683 Y39.426 E5.12268
G1 X137.799 Y39.487 E5.15068
G1 X137.478 Y39.496 E5.16083
G1 X137.17 Y39.5 E5.17056
G1 X18.207 Y39.5 E8.92945
G1 X17.367 Y39.49 E8.95599
G1 X16.431 Y39.438 E8.98561
G1 X15.502 Y39.306 E9.01526
G1 X14.588 Y39.096 E9.04489
G1 X13.695 Y38.809 E9.07453
G1 X12.83 Y38.446 E9.10417
G1 X11.999 Y38.012 E9.13379
G1 X11.208 Y37.508 E9.16343
G1 X10.463 Y36.938 E9.19307
G1 X9.769 Y36.307 E9.22271
G1 X9.132 Y35.62 E9.25231
G1 X8.555 Y34.88 E9.28196
G1 X8.043 Y34.094 E9.3116
G1 X7.6 Y33.267 E9.34124
G1 X7.229 Y32.406 E9.37086
G1 X6.933 Y31.516 E9.4005
G1 X6.714 Y30.604 E9.43014
G1 X6.573 Y29.677 E9.45976
G1 X6.513 Y28.788 E9.48792
G1 X6.504 Y28.455 E9.49844
G1 X6.5 Y28.158 E9.50783
G1 X6.501 Y27.025 E9.54363
G1 X6.51 Y26.36 E9.56464
G1 X6.563 Y25.424 E9.59426
G1 X6.695 Y24.495 E9.62391
G1 X6.906 Y23.581 E9.65355
G1 X7.194 Y22.689 E9.68317
G1 X7.557 Y21.824 E9.71281
G1 X7.992 Y20.993 E9.74245
G1 X8.496 Y20.203 E9.77206
G1 X9.066 Y19.458 E9.8017
G1 X9.698 Y18.764 E9.83135
G1 X10.386 Y18.127 E9.86098
G1 X11.126 Y17.551 E9.89061
G0 F7500 X11.51 Y17.77
G1 F1500 X12.291 Y17.282 E9.91971
G1 X13.111 Y16.864 E9.94879
G1 X13.965 Y16.519 E9.97789
G1 X14.845 Y16.249 E10.00698
G1 X15.745 Y16.057 E10.03606
G1 X16.659 Y15.943 E10.06516
G1 X17.212 Y15.913 E10.08266
G1 X17.533 Y15.904 E10.0928
G1 X17.83 Y15.9 E10.10219
G1 X136.793 Y15.9 E13.86108
G1 X137.643 Y15.911 E13.88794
G1 X138.562 Y15.964 E13.91702
G1 X139.473 Y16.097 E13.94611
G1 X140.369 Y16.308 E13.9752
G1 X141.243 Y16.596 E14.00428
G1 X142.09 Y16.959 E14.03339
G1 X142.901 Y17.394 E14.06247
G1 X143.671 Y17.898 E14.09155
G1 X144.395 Y18.467 E14.12065
G1 X145.067 Y19.097 E14.14975
G1 X145.682 Y19.782 E14.17884
G1 X146.235 Y20.518 E14.20793
G1 X146.722 Y21.299 E14.23701
G1 X147.139 Y22.12 E14.2661
G1 X147.484 Y22.974 E14.29521
G1 X147.753 Y23.854 E14.32428
G1 X147.945 Y24.755 E14.35339
G1 X148.058 Y25.668 E14.38246
G1 X148.087 Y26.212 E14.39967
G1 X148.096 Y26.532 E14.40979
G1 X148.1 Y26.83 E14.4192
G1 X148.099 Y27.892 E14.45276
G1 X148.09 Y28.622 E14.47583
G1 X148.039 Y29.541 E14.50491
G1 X147.908 Y30.452 E14.53399
G1 X147.699 Y31.349 E14.56309
G1 X147.412 Y32.224 E14.59219
G1 X147.051 Y33.07 E14.62125
G1 X146.617 Y33.883 E14.65037
G1 X146.115 Y34.654 E14.67944
G1 X145.548 Y35.379 E14.70852
G1 X144.92 Y36.052 E14.73761
G1 X144.235 Y36.669 E14.76674
G1 X143.5 Y37.223 E14.79582
G1 X142.72 Y37.711 E14.82489
G1 X141.9 Y38.13 E14.85399
G1 X141.047 Y38.477 E14.88309
G1 X140.167 Y38.748 E14.91218
G1 X139.267 Y38.941 E14.94126
G1 X138.354 Y39.056 E14.97034
G1 X137.788 Y39.087 E14.98825
G1 X137.467 Y39.096 E14.9984
G1 X137.17 Y39.1 E15.00778
G1 X18.207 Y39.1 E18.76667
G1 X17.372 Y39.09 E18.79306
G1 X16.453 Y39.038 E18.82214
G1 X15.542 Y38.907 E18.85122
G1 X14.646 Y38.697 E18.8803
G1 X13.771 Y38.41 E18.9094
G1 X12.924 Y38.048 E18.9385
G1 X12.112 Y37.614 E18.96759
G1 X11.341 Y37.112 E18.99666
G1 X10.616 Y36.544 E19.02577
G1 X9.943 Y35.915 E19.05487
G1 X9.328 Y35.231 E19.08394
G1 X8.774 Y34.496 E19.11302
G1 X8.286 Y33.715 E19.14212
G1 X7.867 Y32.895 E19.17121
G1 X7.521 Y32.042 E19.2003
G1 X7.251 Y31.162 E19.22938
G1 X7.058 Y30.261 E19.2585
G1 X6.944 Y29.348 E19.28757
G1 X6.913 Y28.777 E19.30564
G1 X6.904 Y28.444 E19.31616
G1 X6.9 Y28.158 E19.3252
G1 X6.901 Y27.031 E19.36081
G1 X6.91 Y26.366 E19.38183
G1 X6.962 Y25.446 E19.41094
G1 X7.094 Y24.535 E19.44003
G1 X7.305 Y23.639 E19.46911
G1 X7.592 Y22.764 E19.49821
G1 X7.955 Y21.918 E19.5273
G1 X8.389 Y21.106 E19.55639
G1 X8.892 Y20.335 E19.58548
G1 X9.461 Y19.611 E19.61457
G1 X10.089 Y18.939 E19.64363
G1 X10.774 Y18.323 E19.67274
G1 X11.51 Y17.77 E19.70183
G0 F7500 X11.894 Y17.994
G1 F1500 X12.669 Y17.531 E19.73036
G1 X13.482 Y17.138 E19.75889
G1 X14.327 Y16.818 E19.78744
G1 X15.196 Y16.575 E19.81595
G1 X16.084 Y16.409 E19.84449
G1 X17.223 Y16.313 E19.88061
G1 X17.544 Y16.304 E19.89076
G1 X17.83 Y16.3 E19.8998
G1 X136.793 Y16.3 E23.65868
G1 X137.637 Y16.311 E23.68535
G1 X138.539 Y16.364 E23.7139
G1 X139.432 Y16.496 E23.74243
G1 X140.31 Y16.707 E23.77096
G1 X141.166 Y16.995 E23.7995
G1 X141.993 Y17.357 E23.82802
G1 X142.785 Y17.792 E23.85657
G1 X143.536 Y18.294 E23.88511
G1 X144.239 Y18.861 E23.91365
G1 X144.889 Y19.488 E23.94219
G1 X145.481 Y20.17 E23.97072
G1 X146.011 Y20.901 E23.99925
G1 X146.473 Y21.677 E24.02779
G1 X146.866 Y22.49 E24.05632
G1 X147.184 Y23.335 E24.08485
G1 X147.427 Y24.205 E24.11339
G1 X147.592 Y25.093 E24.14193
G1 X147.687 Y26.223 E24.17776
G1 X147.696 Y26.543 E24.18787
G1 X147.7 Y26.83 E24.19694
G1 X147.699 Y27.887 E24.23034
G1 X147.69 Y28.617 E24.25341
G1 X147.639 Y29.518 E24.28192
G1 X147.508 Y30.412 E24.31047
G1 X147.299 Y31.291 E24.33902
G1 X147.013 Y32.147 E24.36754
G1 X146.652 Y32.975 E24.39608
G1 X146.22 Y33.768 E24.42461
G1 X145.719 Y34.519 E24.45314
G1 X145.154 Y35.223 E24.48166
G1 X144.528 Y35.875 E24.51022
G1 X143.847 Y36.468 E24.53875
G1 X143.117 Y36.999 E24.56727
G1 X142.342 Y37.464 E24.59583
G1 X141.529 Y37.857 E24.62436
G1 X140.685 Y38.178 E24.6529
G1 X139.816 Y38.423 E24.68142
G1 X138.928 Y38.589 E24.70997
G1 X137.777 Y38.687 E24.74647
G1 X137.456 Y38.696 E24.75662
G1 X137.17 Y38.7 E24.76565
G1 X18.207 Y38.7 E28.52454
G1 X17.377 Y38.69 E28.55077
G1 X16.476 Y38.639 E28.57928
G1 X15.582 Y38.507 E28.60784
G1 X14.704 Y38.298 E28.63636
G1 X13.847 Y38.011 E28.66491
G1 X13.02 Y37.65 E28.69342
G1 X12.227 Y37.217 E28.72197
G1 X11.476 Y36.716 E28.7505
G1 X10.772 Y36.15 E28.77904
G1 X10.121 Y35.524 E28.80758
G1 X9.528 Y34.843 E28.83611
G1 X8.998 Y34.112 E28.86464
G1 X8.534 Y33.337 E28.89318
G1 X8.14 Y32.524 E28.92173
G1 X7.82 Y31.68 E28.95025
G1 X7.576 Y30.81 E28.9788
G1 X7.41 Y29.922 E29.00734
G1 X7.313 Y28.767 E29.04396
G1 X7.304 Y28.434 E29.05449
G1 X7.3 Y28.158 E29.06321
G1 X7.301 Y27.036 E29.09866
G1 X7.31 Y26.371 E29.11968
G1 X7.362 Y25.469 E29.14823
G1 X7.494 Y24.576 E29.17675
G1 X7.704 Y23.698 E29.20527
G1 X7.991 Y22.841 E29.23383
G1 X8.353 Y22.014 E29.26235
G1 X8.786 Y21.222 E29.29088
G1 X9.288 Y20.471 E29.31942
G1 X9.855 Y19.767 E29.34798
G1 X10.481 Y19.117 E29.37649
G1 X11.162 Y18.524 E29.40503
G1 X11.894 Y17.994 E29.43358
G1 F2700 E23.43358
;MESH:z_mini_cube_2x3_33.stl
G0 F7500 X17.914 Y25.835
G0 X17.914 Y26.914
G0 X18.1 Y27.1
;TYPE:WALL-INNER
G1 F2700 E29.43358
G1 F1500 X136.9 Y27.1 E33.18732
G1 X136.9 Y27.9 E33.2126
G1 X18.1 Y27.9 E36.96634
G1 X18.1 Y27.1 E36.99161
G0 F7500 X17.7 Y26.7
;TYPE:WALL-OUTER
G1 F1500 X137.3 Y26.7 E40.58168
G1 X137.3 Y28.3 E40.62971
G1 X17.7 Y28.3 E44.21977
G1 X17.7 Y26.7 E44.2678
G0 F7500 X18.1 Y26.7
G0 X18.14 Y27.14
G0 X18.49 Y27.49
;TYPE:SKIN
G1 F1500 X136.51 Y27.49 E47.99689
G1 X136.51 Y27.51 E47.99753
G1 X18.49 Y27.51 E51.72662
G1 X18.49 Y27.49 E51.72725
G0 F7500 X18.49 Y27.3
;MESH:NONMESH
G0 F300 X18.49 Y27.3 Z0.4
G0 F7500 X18.1 Y27.1
M117 Time Left 0h14m04s
;TIME_ELAPSED:71.929106
;LAYER:1
M106 S85
;TYPE:WALL-INNER
;MESH:z_mini_cube_2x3_33.stl
G1 F2250 X136.9 Y27.1 E55.67856
G1 X136.9 Y27.9 E55.70516
G1 X18.1 Y27.9 E59.65647
G1 X18.1 Y27.1 E59.68308
G0 F8250 X17.7 Y26.7
;TYPE:WALL-OUTER
G1 F1125 X137.3 Y26.7 E63.46209
G1 X137.3 Y28.3 E63.51265
G1 X17.7 Y28.3 E67.29166
G1 X17.7 Y26.7 E67.34222
G0 F8250 X18.1 Y26.7
G0 X18.14 Y27.14
G0 X18.49 Y27.49
;TYPE:SKIN
G1 F1125 X136.51 Y27.49 E71.26758
G1 X136.51 Y27.51 E71.26825
G1 X18.49 Y27.51 E75.19361
G1 X18.49 Y27.49 E75.19427
G0 F8250 X18.49 Y27.3
;MESH:NONMESH
G0 F300 X18.49 Y27.3 Z0.6
G0 F8250 X18.1 Y27.1
M117 Time Left 0h13m31s
;TIME_ELAPSED:104.445941
;LAYER:2
M106 S170
;TYPE:WALL-INNER
;MESH:z_mini_cube_2x3_33.stl
G1 F2400 X19.9 Y27.1 E75.25414
G1 X19.9 Y27.9 E75.28075
G1 X18.1 Y27.9 E75.34062
G1 X18.1 Y27.1 E75.36723
G0 F9000 X17.7 Y26.7
;TYPE:WALL-OUTER
G1 F600 X20.3 Y26.7 E75.44938
G1 X20.3 Y28.3 E75.49993
G1 X17.7 Y28.3 E75.58209
G1 X17.7 Y26.7 E75.63264
G0 F9000 X18.1 Y26.7
G0 X18.14 Y27.14
G0 X18.473 Y27.524
;TYPE:SKIN
G1 F600 X18.731 Y27.499 E75.64469
G1 X19.539 Y27.459 E75.68228
G1 X19.681 Y27.318 E75.69158
G0 F9000 X19.637 Y27.274
G0 X18.39 Y27.724
G1 F600 X18.274 Y27.608 E75.69431
G0 F9000 X18.3 Y27.608
;MESH:NONMESH
G0 F300 X18.3 Y27.608 Z0.8
G0 F9000 X18.1 Y27.1
M117 Time Left 0h13m29s
;TIME_ELAPSED:106.182404
;LAYER:3
M106 S255
;TYPE:WALL-INNER
;MESH:z_mini_cube_2x3_33.stl
G1 F2400 X19.9 Y27.1 E75.75417
G1 X19.9 Y27.9 E75.78078
G1 X18.1 Y27.9 E75.84065
G1 X18.1 Y27.1 E75.86726
G0 F9000 X17.7 Y26.7
;TYPE:WALL-OUTER
G1 F600 X20.3 Y26.7 E75.94941
G1 X20.3 Y28.3 E75.99997
G1 X17.7 Y28.3 E76.08212
G1 X17.7 Y26.7 E76.13267
G0 F9000 X18.1 Y26.7
G0 X18.14 Y27.14
G0 X18.41 Y27.409
;TYPE:SKIN
G1 F600 X18.604 Y27.498 E76.14244
G1 X19.452 Y27.498 E76.18126
G1 X19.617 Y27.616 E76.19055
G0 F9000 X19.51 Y27.7
;MESH:NONMESH
G0 F300 X19.51 Y27.7 Z1
G0 F9000 X18.1 Y27.1
M117 Time Left 0h13m28s
;TIME_ELAPSED:107.846474
;LAYER:4
;TYPE:WALL-INNER
;MESH:z_mini_cube_2x3_33.stl
G1 F2400 X19.9 Y27.1 E76.25042
G1 X19.9 Y27.9 E76.27702
G1 X18.1 Y27.9 E76.33689
G1 X18.1 Y27.1 E76.3635
G0 F9000 X17.7 Y26.7
;TYPE:WALL-OUTER
G1 F600 X20.3 Y26.7 E76.44565
G1 X20.3 Y28.3 E76.49621
G1 X17.7 Y28.3 E76.57836
G1 X17.7 Y26.7 E76.62892
G0 F9000 X18.1 Y26.7
G0 X18.14 Y27.14
G0 X18.473 Y27.524
;TYPE:SKIN
G1 F600 X18.731 Y27.499 E76.64096
G1 X19.539 Y27.459 E76.67855
G1 X19.681 Y27.318 E76.68785
G0 F9000 X19.637 Y27.274
G0 X18.39 Y27.724
G1 F600 X18.274 Y27.608 E76.69058
G0 F9000 X18.3 Y27.608
;MESH:NONMESH
G0 F300 X18.3 Y27.608 Z1.2
G0 F9000 X18.1 Y27.1
M117 Time Left 0h13m26s
;TIME_ELAPSED:109.582937
;LAYER:5
;TYPE:WALL-INNER
;MESH:z_mini_cube_2x3_33.stl
G1 F2400 X19.9 Y27.1 E76.75045
G1 X19.9 Y27.9 E76.77706
G1 X18.1 Y27.9 E76.83693
G1 X18.1 Y27.1 E76.86353
G0 F9000 X17.7 Y26.7
;TYPE:WALL-OUTER
G1 F600 X20.3 Y26.7 E76.94569
G1 X20.3 Y28.3 E76.99624
G1 X17.7 Y28.3 E77.07839
G1 X17.7 Y26.7 E77.12895
G0 F9000 X18.1 Y26.7
G0 X18.14 Y27.14
G0 X18.41 Y27.409
;TYPE:SKIN
G1 F600 X18.604 Y27.498 E77.13872
G1 X19.452 Y27.498 E77.17754
G1 X19.617 Y27.616 E77.18682
G0 F9000 X19.51 Y27.7
;MESH:NONMESH
G0 F300 X19.51 Y27.7 Z1.4
G0 F9000 X18.1 Y27.1
M117 Time Left 0h13m24s
;TIME_ELAPSED:111.247006
;LAYER:6
;TYPE:WALL-INNER
;MESH:z_mini_cube_2x3_33.stl
G1 F2400 X19.9 Y27.1 E77.24669
G1 X19.9 Y27.9 E77.2733
G1 X18.1 Y27.9 E77.33317
G1 X18.1 Y27.1 E77.35977
G0 F9000 X17.7 Y26.7
;TYPE:WALL-OUTER
G1 F600 X20.3 Y26.7 E77.44193
G1 X20.3 Y28.3 E77.49248
G1 X17.7 Y28.3 E77.57463
G1 X17.7 Y26.7 E77.62519
G0 F9000 X18.1 Y26.7
G0 X18.14 Y27.14
G0 X18.473 Y27.524
;TYPE:SKIN
G1 F600 X18.731 Y27.499 E77.63724
G1 X19.539 Y27.459 E77.67483
G1 X19.681 Y27.318 E77.68413
G0 F9000 X19.637 Y27.274
G0 X18.39 Y27.724
G1 F600 X18.274 Y27.608 E77.68686
G0 F9000 X18.3 Y27.608
;MESH:NONMESH
G0 F300 X18.3 Y27.608 Z1.6
G0 F9000 X18.1 Y27.1
M117 Time Left 0h13m23s
;TIME_ELAPSED:112.983469
;LAYER:7
;TYPE:WALL-INNER
;MESH:z_mini_cube_2x3_33.stl
G1 F2400 X19.9 Y27.1 E77.74672
G1 X19.9 Y27.9 E77.77333
G1 X18.1 Y27.9 E77.8332
G1 X18.1 Y27.1 E77.85981
G0 F9000 X17.7 Y26.7
;TYPE:WALL-OUTER
G1 F600 X20.3 Y26.7 E77.94196
G1 X20.3 Y28.3 E77.99252
G1 X17.7 Y28.3 E78.07467
G1 X17.7 Y26.7 E78.12522
G0 F9000 X18.1 Y26.7
G0 X18.14 Y27.14
G0 X18.41 Y27.409
;TYPE:SKIN
G1 F600 X18.604 Y27.498 E78.13499
G1 X19.452 Y27.498 E78.17381
G1 X19.617 Y27.616 E78.1831
G0 F9000 X19.51 Y27.7
;MESH:NONMESH
G0 F300 X19.51 Y27.7 Z1.8
G0 F9000 X18.1 Y27.1
M117 Time Left 0h13m21s
;TIME_ELAPSED:114.647539
;LAYER:8
;TYPE:WALL-INNER
;MESH:z_mini_cube_2x3_33.stl
G1 F2400 X19.9 Y27.1 E78.24296
G1 X19.9 Y27.9 E78.26957
G1 X18.1 Y27.9 E78.32944
G1 X18.1 Y27.1 E78.35605
G0 F9000 X17.7 Y26.7
;TYPE:WALL-OUTER
G1 F600 X20.3 Y26.7 E78.4382
G1 X20.3 Y28.3 E78.48876
G1 X17.7 Y28.3 E78.57091
G1 X17.7 Y26.7 E78.62147
G0 F9000 X18.1 Y26.7
G0 X18.14 Y27.14
G0 X18.473 Y27.524
;TYPE:SKIN
G1 F600 X18.731 Y27.499 E78.63351
G1 X19.539 Y27.459 E78.6711
G1 X19.681 Y27.318 E78.6804
G0 F9000 X19.637 Y27.274
G0 X18.39 Y27.724
G1 F600 X18.274 Y27.608 E78.68313
G0 F9000 X18.3 Y27.608
;MESH:NONMESH
G0 F300 X18.3 Y27.608 Z2
G0 F9000 X18.1 Y27.1
M117 Time Left 0h13m19s
;TIME_ELAPSED:116.384001
;LAYER:9
;TYPE:WALL-INNER
;MESH:z_mini_cube_2x3_33.stl
G1 F2400 X19.9 Y27.1 E78.743
G1 X19.9 Y27.9 E78.76961
G1 X18.1 Y27.9 E78.82947
G1 X18.1 Y27.1 E78.85608
G0 F9000 X17.7 Y26.7
;TYPE:WALL-OUTER
G1 F600 X20.3 Y26.7 E78.93824
G1 X20.3 Y28.3 E78.98879
G1 X17.7 Y28.3 E79.07094
G1 X17.7 Y26.7 E79.1215
G0 F9000 X18.1 Y26.7
G0 X18.14 Y27.14
G0 X18.41 Y27.409
;TYPE:SKIN
G1 F600 X18.604 Y27.498 E79.13127
G1 X19.452 Y27.498 E79.17009
G1 X19.617 Y27.616 E79.17937
G0 F9000 X19.51 Y27.7
;MESH:NONMESH
G0 F300 X19.51 Y27.7 Z2.2
G0 F9000 X18.1 Y27.1
M117 Time Left 0h13m17s
;TIME_ELAPSED:118.048071
;LAYER:10
;TYPE:WALL-INNER
;MESH:z_mini_cube_2x3_33.stl
G1 F2400 X19.9 Y27.1 E79.23924
G1 X19.9 Y27.9 E79.26585
G1 X18.1 Y27.9 E79.32572
G1 X18.1 Y27.1 E79.35232
G0 F9000 X17.7 Y26.7
;TYPE:WALL-OUTER
G1 F600 X20.3 Y26.7 E79.43448
G1 X20.3 Y28.3 E79.48503
G1 X17.7 Y28.3 E79.56718
G1 X17.7 Y26.7 E79.61774
G0 F9000 X18.1 Y26.7
G0 X18.14 Y27.14
G0 X18.473 Y27.524
;TYPE:SKIN
G1 F600 X18.731 Y27.499 E79.62978
G1 X19.539 Y27.459 E79.66738
G1 X19.681 Y27.318 E79.67668
G0 F9000 X19.637 Y27.274
G0 X18.39 Y27.724
G1 F600 X18.274 Y27.608 E79.6794
G0 F9000 X18.3 Y27.608
;MESH:NONMESH
G0 F300 X18.3 Y27.608 Z2.4
G0 F9000 X18.1 Y27.1
M117 Time Left 0h13m16s
;TIME_ELAPSED:119.784534
;LAYER:11
;TYPE:WALL-INNER
;MESH:z_mini_cube_2x3_33.stl
G1 F2400 X19.9 Y27.1 E79.73927
G1 X19.9 Y27.9 E79.76588
G1 X18.1 Y27.9 E79.82575
G1 X18.1 Y27.1 E79.85236
G0 F9000 X17.7 Y26.7
;TYPE:WALL-OUTER
