;FLAVOR:Marlin
M117 Time Left 3h34m44s
;TIME:12884
;Filament used: 12.9101m
;Layer height: 0.28
;MINX:37.5
;MINY:99
;MINZ:0.285
;MAXX:197.5
;MAXY:166
;MAXZ:32.765
;POSTPROCESSED
;Generated with Cura_SteamEngine 4.7.1
M140 S60
M105
M190 S60
M104 S200
M105
M109 S200
M82 ;absolute extrusion mode
; Ender 3 Custom Start G-code
G92 E0 ; Reset Extruder
G28 ; Home all axes
; ***SET NEW E STEP *** (93 is factory value - 95 mine - start)
G90                          ; Force coordinates to be absolute relative to the origin
M92 E95 ;					 ; ***SET NEW E STEP *** (93 is factory value - 95 mine - end)
G90                          ; Force coordinates to be absolute relative to the origin
G28                          ; Home X/Y/Z axis
G92 E0 ; Reset Extruder								
G28 ; Home all axes		
G1 Z2.0 F3000 ; Move Z Axis up little to prevent scratching of Heat Bed
G1 X0.1 Y20 Z0.3 F5000.0 ; Move to start position
G1 X0.1 Y200.0 Z0.3 F1500.0 E15 ; Draw the first line
G1 X0.4 Y200.0 Z0.3 F5000.0 ; Move to side a little
G1 X0.4 Y20 Z0.3 F1500.0 E30 ; Draw the second line
G92 E0 ; Reset Extruder
G1 Z2.0 F3000 ; Move Z Axis up little to prevent scratching of Heat Bed
G1 X5 Y20 Z0.3 F5000.0 ; Move over to prevent blob squish
G92 E0
G92 E0
G1 F2700 E-6
;LAYER_COUNT:117
;LAYER:0
M107
M204 S500
M205 X8 Y8
G0 F7500 X43.739 Y100.097 Z0.285
;TYPE:SKIRT
G1 F2700 E0
G1 F1500 X44.601 Y99.727 E0.04224
G1 X45.491 Y99.431 E0.08447
G1 X46.403 Y99.213 E0.12669
G1 X47.33 Y99.072 E0.16891
G1 X48.201 Y99.013 E0.20821
G1 X48.522 Y99.004 E0.22267
G1 X48.83 Y99 E0.23654
G1 X185.793 Y99 E6.40343
G1 X185.951 Y99.001 E6.41054
G1 X186.649 Y99.011 E6.44197
G1 X187.585 Y99.065 E6.48419
G1 X188.513 Y99.197 E6.52639
G1 X189.427 Y99.409 E6.56864
G1 X190.319 Y99.698 E6.61086
G1 X191.184 Y100.061 E6.65309
G1 X192.014 Y100.497 E6.69531
G1 X192.805 Y101.002 E6.73756
G1 X193.549 Y101.573 E6.77979
G1 X194.242 Y102.205 E6.82202
G1 X194.879 Y102.893 E6.86424
G1 X195.454 Y103.634 E6.90647
G1 X195.965 Y104.42 E6.94868
G1 X196.407 Y105.248 E6.99094
G1 X196.776 Y106.11 E7.03316
G1 X197.071 Y107 E7.07538
G1 X197.289 Y107.912 E7.1176
G1 X197.429 Y108.84 E7.15985
G1 X197.487 Y109.701 E7.19871
G1 X197.496 Y110.021 E7.21312
G1 X197.5 Y110.33 E7.22704
G1 X197.499 Y154.4 E9.21133
G1 X197.49 Y155.127 E9.24407
G1 X197.439 Y156.064 E9.28632
G1 X197.307 Y156.992 E9.32852
G1 X197.098 Y157.906 E9.37074
G1 X196.811 Y158.799 E9.41297
G1 X196.449 Y159.665 E9.45523
G1 X196.015 Y160.496 E9.49745
G1 X195.511 Y161.287 E9.53968
G1 X194.942 Y162.032 E9.58189
G1 X194.311 Y162.727 E9.62415
G1 X193.624 Y163.365 E9.66637
G1 X192.885 Y163.942 E9.70858
G1 X192.099 Y164.454 E9.75082
G1 X191.273 Y164.897 E9.79302
G1 X190.411 Y165.269 E9.83529
G1 X189.522 Y165.565 E9.87748
G1 X188.61 Y165.785 E9.91972
G1 X187.683 Y165.926 E9.96194
G1 X186.799 Y165.987 E10.00184
G1 X186.478 Y165.996 E10.0163
G1 X186.17 Y166 E10.03017
G1 X49.207 Y166 E16.19705
G1 X48.367 Y165.99 E16.23488
G1 X47.431 Y165.938 E16.27709
G1 X46.502 Y165.806 E16.31933
G1 X45.588 Y165.596 E16.36156
G1 X44.695 Y165.309 E16.40379
G1 X43.83 Y164.946 E16.44603
G1 X42.999 Y164.512 E16.48824
G1 X42.208 Y164.008 E16.53047
G1 X41.463 Y163.438 E16.57271
G1 X40.769 Y162.807 E16.61494
G1 X40.132 Y162.12 E16.65713
G1 X39.555 Y161.38 E16.69938
G1 X39.043 Y160.594 E16.74162
G1 X38.6 Y159.767 E16.78386
G1 X38.229 Y158.906 E16.82607
G1 X37.933 Y158.016 E16.8683
G1 X37.714 Y157.104 E16.91053
G1 X37.573 Y156.177 E16.95275
G1 X37.513 Y155.288 E16.99287
G1 X37.504 Y154.955 E17.00787
G1 X37.5 Y154.658 E17.02124
G1 X37.501 Y110.525 E19.00837
G1 X37.51 Y109.86 E19.03832
G1 X37.563 Y108.924 E19.08053
G1 X37.695 Y107.995 E19.12278
G1 X37.906 Y107.081 E19.16501
G1 X38.194 Y106.189 E19.20722
G1 X38.557 Y105.324 E19.24946
G1 X38.992 Y104.493 E19.29169
G1 X39.496 Y103.703 E19.33388
G1 X40.066 Y102.958 E19.37612
G1 X40.698 Y102.264 E19.41838
G1 X41.386 Y101.627 E19.4606
G1 X42.126 Y101.051 E19.50282
G1 X42.912 Y100.539 E19.54506
G1 X43.739 Y100.097 E19.58728
G0 F7500 X44.111 Y100.364
G1 F1500 X44.965 Y100.019 E19.62875
G1 X45.845 Y99.749 E19.6702
G1 X46.745 Y99.557 E19.71163
G1 X47.659 Y99.443 E19.7531
G1 X48.212 Y99.413 E19.77804
G1 X48.533 Y99.404 E19.7925
G1 X48.83 Y99.4 E19.80587
G1 X185.793 Y99.4 E25.97276
G1 X186.643 Y99.411 E26.01103
G1 X187.562 Y99.464 E26.05248
G1 X188.473 Y99.597 E26.09393
G1 X189.369 Y99.808 E26.13538
G1 X190.243 Y100.096 E26.17681
G1 X191.09 Y100.459 E26.21831
G1 X191.901 Y100.894 E26.25974
G1 X192.671 Y101.398 E26.30118
G1 X193.395 Y101.967 E26.34264
G1 X194.067 Y102.597 E26.38412
G1 X194.682 Y103.282 E26.42557
G1 X195.235 Y104.018 E26.46702
G1 X195.722 Y104.799 E26.50846
G1 X196.139 Y105.62 E26.54992
G1 X196.484 Y106.474 E26.59139
G1 X196.753 Y107.354 E26.63282
G1 X196.945 Y108.255 E26.6743
G1 X197.058 Y109.168 E26.71572
G1 X197.087 Y109.712 E26.74025
G1 X197.096 Y110.032 E26.75467
G1 X197.1 Y110.33 E26.76809
G1 X197.099 Y154.395 E28.75215
G1 X197.09 Y155.122 E28.78489
G1 X197.039 Y156.041 E28.82633
G1 X196.908 Y156.953 E28.86782
G1 X196.698 Y157.849 E28.90925
G1 X196.412 Y158.724 E28.9507
G1 X196.051 Y159.571 E28.99216
G1 X195.617 Y160.383 E29.03361
G1 X195.115 Y161.155 E29.07508
G1 X194.547 Y161.88 E29.11655
G1 X193.919 Y162.553 E29.15799
G1 X193.235 Y163.169 E29.19944
G1 X192.5 Y163.723 E29.24088
G1 X191.72 Y164.212 E29.28233
G1 X190.9 Y164.631 E29.32379
G1 X190.047 Y164.977 E29.36524
G1 X189.167 Y165.248 E29.4067
G1 X188.267 Y165.441 E29.44814
G1 X187.353 Y165.556 E29.48962
G1 X186.788 Y165.587 E29.5151
G1 X186.467 Y165.596 E29.52956
G1 X186.17 Y165.6 E29.54293
G1 X49.207 Y165.6 E35.70982
G1 X48.372 Y165.59 E35.74742
G1 X47.453 Y165.538 E35.78886
G1 X46.542 Y165.407 E35.8303
G1 X45.646 Y165.197 E35.87174
G1 X44.771 Y164.91 E35.9132
G1 X43.924 Y164.548 E35.95467
G1 X43.112 Y164.114 E35.99613
G1 X42.341 Y163.612 E36.03755
G1 X41.616 Y163.044 E36.07902
G1 X40.943 Y162.415 E36.1205
G1 X40.328 Y161.731 E36.16192
G1 X39.774 Y160.996 E36.20336
G1 X39.286 Y160.215 E36.24482
G1 X38.867 Y159.395 E36.28629
G1 X38.521 Y158.542 E36.32773
G1 X38.251 Y157.662 E36.36918
G1 X38.058 Y156.761 E36.41067
G1 X37.944 Y155.848 E36.4521
G1 X37.913 Y155.277 E36.47784
G1 X37.904 Y154.944 E36.49284
G1 X37.9 Y154.658 E36.50572
G1 X37.901 Y110.531 E38.49258
G1 X37.91 Y109.866 E38.52252
G1 X37.962 Y108.946 E38.56401
G1 X38.094 Y108.035 E38.60546
G1 X38.305 Y107.139 E38.64691
G1 X38.592 Y106.264 E38.68837
G1 X38.955 Y105.418 E38.72982
G1 X39.389 Y104.606 E38.77128
G1 X39.892 Y103.835 E38.81273
G1 X40.461 Y103.111 E38.85419
G1 X41.089 Y102.439 E38.8956
G1 X41.774 Y101.823 E38.93708
G1 X42.51 Y101.27 E38.97853
G1 X43.291 Y100.782 E39.02
G1 X44.111 Y100.364 E39.06144
G0 F7500 X44.482 Y100.638
G1 F1500 X45.327 Y100.318 E39.10212
G1 X46.196 Y100.075 E39.14275
G1 X47.084 Y99.909 E39.18343
G1 X48.223 Y99.813 E39.23489
G1 X48.544 Y99.804 E39.24935
G1 X48.83 Y99.8 E39.26223
G1 X185.793 Y99.8 E45.42911
G1 X186.637 Y99.811 E45.46712
G1 X187.539 Y99.864 E45.5078
G1 X188.432 Y99.996 E45.54845
G1 X189.31 Y100.207 E45.58911
G1 X190.166 Y100.495 E45.62977
G1 X190.993 Y100.857 E45.67042
G1 X191.785 Y101.292 E45.7111
G1 X192.536 Y101.794 E45.75178
G1 X193.239 Y102.361 E45.79244
G1 X193.889 Y102.988 E45.83311
G1 X194.481 Y103.67 E45.87377
G1 X195.011 Y104.401 E45.91442
G1 X195.473 Y105.177 E45.95509
G1 X195.866 Y105.99 E45.99575
G1 X196.184 Y106.835 E46.0364
G1 X196.427 Y107.705 E46.07707
G1 X196.592 Y108.593 E46.11774
G1 X196.687 Y109.723 E46.1688
G1 X196.696 Y110.043 E46.18321
G1 X196.7 Y110.33 E46.19613
G1 X196.699 Y154.39 E48.17997
G1 X196.69 Y155.117 E48.21271
G1 X196.639 Y156.019 E48.25339
G1 X196.508 Y156.913 E48.29407
G1 X196.299 Y157.791 E48.33471
G1 X196.013 Y158.648 E48.37539
G1 X195.652 Y159.476 E48.41606
G1 X195.22 Y160.268 E48.45668
G1 X194.719 Y161.02 E48.49737
G1 X194.153 Y161.724 E48.53804
G1 X193.528 Y162.375 E48.57867
G1 X192.847 Y162.969 E48.61936
G1 X192.116 Y163.5 E48.66004
G1 X191.342 Y163.964 E48.70067
G1 X190.529 Y164.358 E48.74135
G1 X189.685 Y164.678 E48.78199
G1 X188.815 Y164.923 E48.82269
G1 X187.928 Y165.089 E48.86332
G1 X186.777 Y165.187 E48.91533
G1 X186.456 Y165.196 E48.92979
G1 X186.17 Y165.2 E48.94267
G1 X49.207 Y165.2 E55.10955
G1 X48.377 Y165.19 E55.14693
G1 X47.476 Y165.139 E55.18756
G1 X46.582 Y165.007 E55.22825
G1 X45.704 Y164.798 E55.26889
G1 X44.847 Y164.511 E55.30958
G1 X44.02 Y164.15 E55.35021
G1 X43.227 Y163.717 E55.39089
G1 X42.476 Y163.216 E55.43154
G1 X41.772 Y162.65 E55.47221
G1 X41.121 Y162.024 E55.51288
G1 X40.528 Y161.343 E55.55354
G1 X39.998 Y160.612 E55.59419
G1 X39.534 Y159.837 E55.63486
G1 X39.14 Y159.024 E55.67554
G1 X38.82 Y158.18 E55.71618
G1 X38.576 Y157.31 E55.75687
G1 X38.41 Y156.422 E55.79754
G1 X38.313 Y155.267 E55.84973
G1 X38.304 Y154.934 E55.86473
G1 X38.3 Y154.658 E55.87716
G1 X38.301 Y110.536 E57.86379
G1 X38.31 Y109.871 E57.89374
G1 X38.362 Y108.969 E57.93442
G1 X38.494 Y108.076 E57.97506
G1 X38.704 Y107.198 E58.01571
G1 X38.991 Y106.341 E58.0564
G1 X39.353 Y105.514 E58.09705
G1 X39.786 Y104.722 E58.13769
G1 X40.288 Y103.971 E58.17837
G1 X40.855 Y103.267 E58.21907
G1 X41.481 Y102.617 E58.2597
G1 X42.162 Y102.024 E58.30036
G1 X42.894 Y101.494 E58.34105
G1 X43.669 Y101.031 E58.3817
G1 X44.482 Y100.638 E58.42236
G1 F2700 E52.42236
;MESH:dragons_box.stl
G0 F7500 X108.827 Y119.665
G0 X108.827 Y118.23
G0 X106.9 Y118.4
;TYPE:WALL-INNER
G1 F2700 E58.42236
G1 F1800 X106.9 Y146.6 E59.69209
G1 X127.1 Y146.6 E60.60161
G1 X127.1 Y118.4 E61.87134
G1 X106.9 Y118.4 E62.78086
G0 F7500 X107.3 Y118.8
;TYPE:WALL-OUTER
G1 F1800 X107.3 Y146.2 E63.95289
G1 X126.7 Y146.2 E64.78272
G1 X126.7 Y118.8 E65.95474
G1 X107.3 Y118.8 E66.78457
G0 F7500 X107.3 Y119.2
G0 X106.86 Y119.2
G1 F2700 E60.78457
G0 F7500 X106.71 Y118.4
G0 X108.153 Y119.653
G0 X96.847 Y119.653
G0 X98.29 Y118.4
G0 X77.9 Y118.4
;TYPE:WALL-INNER
G1 F2700 E66.78457
G1 F1800 X77.9 Y146.6 E68.0543
G1 X98.1 Y146.6 E68.96382
G1 X98.1 Y118.4 E70.23355
G1 X77.9 Y118.4 E71.14308
G0 F7500 X78.3 Y118.8
;TYPE:WALL-OUTER
G1 F1800 X78.3 Y146.2 E72.3151
G1 X97.7 Y146.2 E73.14493
G1 X97.7 Y118.8 E74.31695
G1 X78.3 Y118.8 E75.14678
G0 F7500 X78.3 Y119.2
G0 X77.86 Y119.2
G1 F2700 E69.14678
G0 F7500 X77.71 Y118.4
G0 X79.153 Y119.653
G0 X67.847 Y119.653
G0 X69.31 Y118.4
G0 X49.1 Y118.4
;TYPE:WALL-INNER
G1 F2700 E75.14678
G1 F1800 X49.1 Y110.6 E75.49798
G1 X185.9 Y110.6 E81.65753
G1 X185.9 Y154.4 E83.62966
G1 X49.1 Y154.4 E89.7892
G1 X49.1 Y146.6 E90.14041
G1 X69.1 Y146.6 E91.04092
G1 X69.1 Y118.4 E92.31066
G1 X49.1 Y118.4 E93.21117
G0 F7500 X49.3 Y118.8
;TYPE:WALL-OUTER
G1 F1800 X49.3 Y146.2 E94.3832
G1 X68.7 Y146.2 E95.21303
G1 X68.7 Y118.8 E96.38505
G1 X49.3 Y118.8 E97.21488
G0 F7500 X49.3 Y119.2
G1 F2700 E91.21488
G0 F7500 X49.1 Y119.2
G0 X48.87 Y110.37
G0 X48.7 Y110.2
G1 F2700 E97.21488
G1 F1800 X186.3 Y110.2 E103.10066
G1 X186.3 Y154.8 E105.00841
G1 X48.7 Y154.8 E110.8942
G1 X48.7 Y110.2 E112.80195
G0 F7500 X49.1 Y110.2
G0 X49.14 Y110.64
G0 X49.49 Y110.99
;TYPE:SKIN
G1 F1800 X185.51 Y110.99 E118.92637
G1 X185.51 Y154.01 E120.86338
G1 X49.49 Y154.01 E126.98781
G1 X49.49 Y146.99 E127.30389
G1 X69.49 Y146.99 E128.20441
G1 X69.49 Y118.01 E129.50926
G1 X49.49 Y118.01 E130.40978
G1 X49.49 Y110.99 E130.72586
G1 F2700 E124.72586
G0 F7500 X49.49 Y110.71
G0 X77.76 Y110.81
G0 X77.76 Y109.335
G0 X79.153 Y119.653
G0 X77.76 Y118.21
G0 X77.76 Y118.29
G0 X77.51 Y118.01
G1 F2700 E130.72586
G1 F1800 X77.51 Y146.99 E132.03071
G1 X98.49 Y146.99 E132.97535
G1 X98.49 Y118.01 E134.2802
G1 X77.51 Y118.01 E135.22485
G1 F2700 E129.22485
G0 F7500 X77.76 Y118.29
G0 X98.29 Y118.29
G0 X96.847 Y119.653
G0 X108.153 Y119.653
G0 X106.71 Y118.29
G0 X106.51 Y118.01
G1 F2700 E135.22485
G1 F1800 X106.51 Y146.99 E136.5297
G1 X127.49 Y146.99 E137.47434
G1 X127.49 Y118.01 E138.77919
G1 X106.51 Y118.01 E139.72384
G1 F2700 E133.72384
G0 F7500 X106.76 Y118.29
G0 X106.73 Y136.125
G0 X108.165 Y136.125
G0 X106.704 Y155.665
G0 X106.704 Y154.19
G0 X49.763 Y154.29
G0 X49.763 Y153.849
G1 F2700 E139.72384
G1 F1800 X49.65 Y153.736 E139.73103
G0 F7500 X49.65 Y153.17
G1 F1800 X50.329 Y153.849 E139.77427
G0 F7500 X50.894 Y153.849
G1 F1800 X49.65 Y152.604 E139.85351
G0 F7500 X49.65 Y152.039
G1 F1800 X51.46 Y153.849 E139.96877
G0 F7500 X52.026 Y153.849
G1 F1800 X49.65 Y151.473 E140.12006
G0 F7500 X49.65 Y150.907
G1 F1800 X52.591 Y153.849 E140.30737
G0 F7500 X53.157 Y153.849
G1 F1800 X49.65 Y150.342 E140.53068
G0 F7500 X49.65 Y149.776
G1 F1800 X53.723 Y153.849 E140.79003
G0 F7500 X54.288 Y153.849
G1 F1800 X49.65 Y149.21 E141.08539
G0 F7500 X49.65 Y148.645
G1 F1800 X54.854 Y153.849 E141.41677
G0 F7500 X55.42 Y153.849
G1 F1800 X49.65 Y148.079 E141.78418
G0 F7500 X49.65 Y147.513
G1 F1800 X55.985 Y153.849 E142.1876
G0 F7500 X56.551 Y153.849
G1 F1800 X49.851 Y147.148 E142.61426
G0 F7500 X50.416 Y147.148
G1 F1800 X57.117 Y153.849 E143.04096
G0 F7500 X57.682 Y153.849
G1 F1800 X50.982 Y147.148 E143.46762
G0 F7500 X51.548 Y147.148
G1 F1800 X58.248 Y153.849 E143.89428
G0 F7500 X58.814 Y153.849
G1 F1800 X52.113 Y147.148 E144.32098
G0 F7500 X52.679 Y147.148
G1 F1800 X59.379 Y153.849 E144.74764
G0 F7500 X59.945 Y153.849
G1 F1800 X53.245 Y147.148 E145.1743
G0 F7500 X53.81 Y147.148
G1 F1800 X60.511 Y153.849 E145.601
G0 F7500 X61.077 Y153.849
G1 F1800 X54.376 Y147.148 E146.02769
G0 F7500 X54.942 Y147.148
G1 F1800 X61.642 Y153.849 E146.45435
G0 F7500 X62.208 Y153.849
G1 F1800 X55.507 Y147.148 E146.88105
G0 F7500 X56.073 Y147.148
G1 F1800 X62.774 Y153.849 E147.30774
G0 F7500 X63.339 Y153.849
G1 F1800 X56.639 Y147.148 E147.7344
G0 F7500 X57.204 Y147.148
G1 F1800 X63.905 Y153.849 E148.1611
G0 F7500 X64.471 Y153.849
G1 F1800 X57.77 Y147.148 E148.58779
G0 F7500 X58.336 Y147.148
G1 F1800 X65.036 Y153.849 E149.01446
G0 F7500 X65.602 Y153.849
G1 F1800 X58.901 Y147.148 E149.44115
G0 F7500 X59.467 Y147.148
G1 F1800 X66.168 Y153.849 E149.86785
G0 F7500 X66.733 Y153.849
G1 F1800 X60.033 Y147.148 E150.29451
G0 F7500 X60.599 Y147.148
G1 F1800 X67.299 Y153.849 E150.72117
G0 F7500 X67.865 Y153.849
G1 F1800 X61.164 Y147.148 E151.14787
G0 F7500 X61.73 Y147.148
G1 F1800 X68.43 Y153.849 E151.57453
G0 F7500 X68.996 Y153.849
G1 F1800 X62.296 Y147.148 E152.00119
G0 F7500 X62.861 Y147.148
G1 F1800 X69.562 Y153.849 E152.42789
G0 F7500 X70.128 Y153.849
G1 F1800 X63.427 Y147.148 E152.85458
G0 F7500 X63.993 Y147.148
G1 F1800 X70.693 Y153.849 E153.28124
G0 F7500 X71.259 Y153.849
G1 F1800 X64.558 Y147.148 E153.70794
G0 F7500 X65.124 Y147.148
G1 F1800 X71.825 Y153.849 E154.13463
G0 F7500 X72.39 Y153.849
G1 F1800 X65.69 Y147.148 E154.56129
G0 F7500 X66.255 Y147.148
G1 F1800 X72.956 Y153.849 E154.98799
G0 F7500 X73.522 Y153.849
G1 F1800 X66.821 Y147.148 E155.41468
G0 F7500 X67.387 Y147.148
G1 F1800 X74.087 Y153.849 E155.84135
G0 F7500 X74.653 Y153.849
G1 F1800 X67.952 Y147.148 E156.26804
G0 F7500 X68.518 Y147.148
G1 F1800 X75.219 Y153.849 E156.69474
G0 F7500 X75.784 Y153.849
G1 F1800 X69.084 Y147.148 E157.1214
G0 F7500 X69.65 Y147.148
G1 F1800 X76.35 Y153.849 E157.54806
G0 F7500 X76.916 Y153.849
G1 F1800 X69.65 Y146.583 E158.01073
G0 F7500 X69.65 Y146.017
G1 F1800 X77.481 Y153.849 E158.50941
G0 F7500 X78.047 Y153.849
G1 F1800 X69.65 Y145.451 E159.04413
G0 F7500 X69.65 Y144.886
G1 F1800 X78.613 Y153.849 E159.61486
G0 F7500 X79.178 Y153.849
G1 F1800 X69.65 Y144.32 E160.2216
G0 F7500 X69.65 Y143.754
G1 F1800 X79.744 Y153.849 E160.86438
G0 F7500 X80.31 Y153.849
G1 F1800 X69.65 Y143.189 E161.54317
G0 F7500 X69.65 Y142.623
G1 F1800 X80.876 Y153.849 E162.258
G0 F7500 X81.441 Y153.849
G1 F1800 X69.65 Y142.057 E163.00884
G0 F7500 X69.65 Y141.492
G1 F1800 X82.007 Y153.849 E163.79569
G0 F7500 X82.573 Y153.849
G1 F1800 X69.65 Y140.926 E164.61858
G0 F7500 X69.65 Y140.36
G1 F1800 X83.138 Y153.849 E165.47747
G0 F7500 X83.704 Y153.849
G1 F1800 X69.65 Y139.795 E166.37238
G0 F7500 X69.65 Y139.229
G1 F1800 X77.35 Y146.929 E166.86269
G0 F7500 X77.57 Y147.149
G1 F1800 X84.27 Y153.849 E167.28932
G0 F7500 X84.835 Y153.849
G1 F1800 X78.136 Y147.149 E167.71592
G0 F7500 X78.701 Y147.149
G1 F1800 X85.401 Y153.849 E168.14255
G0 F7500 X85.967 Y153.849
G1 F1800 X79.267 Y147.149 E168.56918
G0 F7500 X79.833 Y147.149
