;FLAVOR:Marlin
M117 Time Left 12h02m47s
;TIME:43367
;Filament used: 51.583m
;Layer height: 0.28
;MINX:53.5
;MINY:65.5
;MINZ:0.285
;MAXX:181.5
;MAXY:219.5
;MAXZ:52.925
;POSTPROCESSED
;Generated with Cura_SteamEngine 4.7.1
M140 S60
M105
M190 S60
M104 S200
M105
M109 S200
M82 ;absolute extrusion mode
; Ender 3 Custom Start G-code
G92 E0 ; Reset Extruder
G28 ; Home all axes
; ***SET NEW E STEP *** (93 is factory value - 95 mine - start)
G90                          ; Force coordinates to be absolute relative to the origin
M92 E95 ;					 ; ***SET NEW E STEP *** (93 is factory value - 95 mine - end)
G90                          ; Force coordinates to be absolute relative to the origin
G28                          ; Home X/Y/Z axis
G92 E0 ; Reset Extruder								
G28 ; Home all axes		
G1 Z2.0 F3000 ; Move Z Axis up little to prevent scratching of Heat Bed
G1 X0.1 Y20 Z0.3 F5000.0 ; Move to start position
G1 X0.1 Y200.0 Z0.3 F1500.0 E15 ; Draw the first line
G1 X0.4 Y200.0 Z0.3 F5000.0 ; Move to side a little
G1 X0.4 Y20 Z0.3 F1500.0 E30 ; Draw the second line
G92 E0 ; Reset Extruder
G1 Z2.0 F3000 ; Move Z Axis up little to prevent scratching of Heat Bed
G1 X5 Y20 Z0.3 F5000.0 ; Move over to prevent blob squish
G92 E0
G92 E0
G1 F2700 E-6
;LAYER_COUNT:189
;LAYER:0
M107
M204 S500
M205 X8 Y8
G0 F7500 X57.386 Y68.127 Z0.285
;TYPE:SKIRT
G1 F2700 E0
G1 F1500 X58.126 Y67.551 E0.04222
G1 X58.912 Y67.039 E0.08446
G1 X59.739 Y66.597 E0.12668
G1 X60.601 Y66.227 E0.16892
G1 X61.491 Y65.931 E0.21115
G1 X62.403 Y65.713 E0.25337
G1 X63.33 Y65.572 E0.29559
G1 X64.201 Y65.513 E0.3349
G1 X64.522 Y65.504 E0.34935
G1 X64.83 Y65.5 E0.36322
G1 X169.793 Y65.5 E5.08928
G1 X169.951 Y65.501 E5.09639
G1 X170.649 Y65.511 E5.12782
G1 X171.585 Y65.565 E5.17004
G1 X172.513 Y65.697 E5.21224
G1 X173.427 Y65.909 E5.25449
G1 X174.319 Y66.198 E5.29671
G1 X175.184 Y66.561 E5.33895
G1 X176.014 Y66.997 E5.38116
G1 X176.805 Y67.502 E5.42341
G1 X177.549 Y68.073 E5.46564
G1 X178.242 Y68.705 E5.50787
G1 X178.879 Y69.393 E5.55009
G1 X179.454 Y70.134 E5.59232
G1 X179.965 Y70.92 E5.63453
G1 X180.407 Y71.748 E5.67679
G1 X180.776 Y72.61 E5.71901
G1 X181.071 Y73.5 E5.76123
G1 X181.289 Y74.412 E5.80345
G1 X181.429 Y75.34 E5.84571
G1 X181.487 Y76.201 E5.88456
G1 X181.496 Y76.521 E5.89898
G1 X181.5 Y76.83 E5.91289
G1 X181.5 Y207.764 E11.80831
G1 X181.49 Y208.627 E11.84717
G1 X181.439 Y209.564 E11.88942
G1 X181.307 Y210.492 E11.93163
G1 X181.098 Y211.406 E11.97384
G1 X180.811 Y212.299 E12.01608
G1 X180.449 Y213.165 E12.05834
G1 X180.015 Y213.996 E12.10055
G1 X179.511 Y214.787 E12.14278
G1 X178.942 Y215.532 E12.18499
G1 X178.311 Y216.227 E12.22726
G1 X177.624 Y216.865 E12.26947
G1 X176.885 Y217.442 E12.31169
G1 X176.099 Y217.954 E12.35392
G1 X175.273 Y218.397 E12.39613
G1 X174.411 Y218.769 E12.4384
G1 X173.522 Y219.065 E12.48059
G1 X172.61 Y219.285 E12.52283
G1 X171.683 Y219.426 E12.56505
G1 X170.799 Y219.487 E12.60495
G1 X170.478 Y219.496 E12.6194
G1 X170.17 Y219.5 E12.63327
G1 X65.207 Y219.5 E17.35933
G1 X64.367 Y219.49 E17.39715
G1 X63.431 Y219.438 E17.43936
G1 X62.502 Y219.306 E17.48161
G1 X61.588 Y219.096 E17.52384
G1 X60.695 Y218.809 E17.56607
G1 X59.83 Y218.446 E17.60831
G1 X58.999 Y218.012 E17.65052
G1 X58.208 Y217.508 E17.69275
G1 X57.463 Y216.938 E17.73499
G1 X56.769 Y216.307 E17.77722
G1 X56.132 Y215.62 E17.8194
G1 X55.555 Y214.88 E17.86166
G1 X55.043 Y214.094 E17.90389
G1 X54.6 Y213.267 E17.94613
G1 X54.229 Y212.406 E17.98835
G1 X53.933 Y211.516 E18.03058
G1 X53.714 Y210.604 E18.07281
G1 X53.573 Y209.677 E18.11503
G1 X53.513 Y208.788 E18.15515
G1 X53.504 Y208.455 E18.17015
G1 X53.5 Y208.158 E18.18352
G1 X53.5 Y77.174 E24.08119
G1 X53.51 Y76.36 E24.11785
G1 X53.563 Y75.424 E24.16006
G1 X53.695 Y74.495 E24.20231
G1 X53.906 Y73.581 E24.24455
G1 X54.194 Y72.689 E24.28675
G1 X54.557 Y71.824 E24.32899
G1 X54.992 Y70.993 E24.37122
G1 X55.496 Y70.203 E24.41341
G1 X56.066 Y69.458 E24.45565
G1 X56.698 Y68.764 E24.49791
G1 X57.386 Y68.127 E24.54013
G0 F7500 X57.774 Y68.323
G1 F1500 X58.51 Y67.77 E24.58158
G1 X59.291 Y67.282 E24.62305
G1 X60.111 Y66.864 E24.66449
G1 X60.965 Y66.519 E24.70596
G1 X61.845 Y66.249 E24.7474
G1 X62.745 Y66.057 E24.78884
G1 X63.659 Y65.943 E24.83031
G1 X64.212 Y65.913 E24.85525
G1 X64.533 Y65.904 E24.86971
G1 X64.83 Y65.9 E24.88308
G1 X169.793 Y65.9 E29.60914
G1 X170.643 Y65.911 E29.64741
G1 X171.562 Y65.964 E29.68886
G1 X172.473 Y66.097 E29.73031
G1 X173.369 Y66.308 E29.77176
G1 X174.243 Y66.596 E29.81319
G1 X175.09 Y66.959 E29.85468
G1 X175.901 Y67.394 E29.89612
G1 X176.671 Y67.898 E29.93756
G1 X177.395 Y68.467 E29.97902
G1 X178.067 Y69.097 E30.02049
G1 X178.682 Y69.782 E30.06194
G1 X179.235 Y70.518 E30.10339
G1 X179.722 Y71.299 E30.14484
G1 X180.139 Y72.12 E30.1863
G1 X180.484 Y72.974 E30.22777
G1 X180.753 Y73.854 E30.2692
G1 X180.945 Y74.755 E30.31068
G1 X181.058 Y75.668 E30.3521
G1 X181.087 Y76.212 E30.37663
G1 X181.096 Y76.532 E30.39105
G1 X181.1 Y76.83 E30.40447
G1 X181.1 Y207.764 E36.29989
G1 X181.09 Y208.622 E36.33852
G1 X181.039 Y209.541 E36.37996
G1 X180.908 Y210.453 E36.42145
G1 X180.698 Y211.349 E36.46289
G1 X180.412 Y212.224 E36.50434
G1 X180.051 Y213.071 E36.54579
G1 X179.617 Y213.883 E36.58725
G1 X179.115 Y214.655 E36.62871
G1 X178.547 Y215.38 E36.67018
G1 X177.919 Y216.053 E36.71163
G1 X177.235 Y216.669 E36.75307
G1 X176.5 Y217.223 E36.79451
G1 X175.72 Y217.712 E36.83596
G1 X174.9 Y218.131 E36.87743
G1 X174.047 Y218.477 E36.91887
G1 X173.167 Y218.748 E36.96033
G1 X172.267 Y218.941 E37.00178
G1 X171.353 Y219.056 E37.04325
G1 X170.788 Y219.087 E37.06873
G1 X170.467 Y219.096 E37.08319
G1 X170.17 Y219.1 E37.09657
G1 X65.207 Y219.1 E41.82262
G1 X64.372 Y219.09 E41.86022
G1 X63.453 Y219.038 E41.90166
G1 X62.542 Y218.907 E41.9431
G1 X61.646 Y218.697 E41.98454
G1 X60.771 Y218.41 E42.026
G1 X59.924 Y218.048 E42.06748
G1 X59.112 Y217.614 E42.10893
G1 X58.341 Y217.112 E42.15036
G1 X57.616 Y216.544 E42.19183
G1 X56.943 Y215.915 E42.2333
G1 X56.328 Y215.231 E42.27472
G1 X55.774 Y214.496 E42.31616
G1 X55.286 Y213.715 E42.35763
G1 X54.867 Y212.895 E42.39909
G1 X54.521 Y212.042 E42.44054
G1 X54.251 Y211.162 E42.48198
G1 X54.058 Y210.261 E42.52347
G1 X53.944 Y209.348 E42.5649
G1 X53.913 Y208.777 E42.59065
G1 X53.904 Y208.444 E42.60565
G1 X53.9 Y208.158 E42.61852
G1 X53.9 Y77.174 E48.5162
G1 X53.91 Y76.366 E48.55258
G1 X53.962 Y75.446 E48.59407
G1 X54.094 Y74.535 E48.63552
G1 X54.305 Y73.639 E48.67697
G1 X54.592 Y72.764 E48.71843
G1 X54.955 Y71.918 E48.75988
G1 X55.389 Y71.106 E48.80133
G1 X55.892 Y70.335 E48.84278
G1 X56.461 Y69.611 E48.88425
G1 X57.089 Y68.939 E48.92566
G1 X57.774 Y68.323 E48.96714
G0 F7500 X58.162 Y68.524
G1 F1500 X58.894 Y67.994 E49.00783
G1 X59.669 Y67.531 E49.04848
G1 X60.482 Y67.138 E49.08914
G1 X61.327 Y66.818 E49.12982
G1 X62.196 Y66.575 E49.17045
G1 X63.084 Y66.409 E49.21112
G1 X64.223 Y66.313 E49.26259
G1 X64.544 Y66.304 E49.27705
G1 X64.83 Y66.3 E49.28993
G1 X169.793 Y66.3 E54.01598
G1 X170.637 Y66.311 E54.05399
G1 X171.539 Y66.364 E54.09467
G1 X172.432 Y66.496 E54.13532
G1 X173.31 Y66.707 E54.17597
G1 X174.166 Y66.995 E54.21664
G1 X174.993 Y67.357 E54.25729
G1 X175.785 Y67.792 E54.29797
G1 X176.536 Y68.294 E54.33865
G1 X177.239 Y68.861 E54.37931
G1 X177.889 Y69.488 E54.41997
G1 X178.481 Y70.17 E54.46064
G1 X179.011 Y70.901 E54.50129
G1 X179.473 Y71.677 E54.54196
G1 X179.866 Y72.49 E54.58261
G1 X180.184 Y73.335 E54.62327
G1 X180.427 Y74.205 E54.66394
G1 X180.592 Y75.093 E54.70461
G1 X180.687 Y76.223 E54.75566
G1 X180.696 Y76.543 E54.77008
G1 X180.7 Y76.83 E54.783
G1 X180.7 Y207.764 E60.67842
G1 X180.69 Y208.617 E60.71683
G1 X180.639 Y209.519 E60.75751
G1 X180.508 Y210.413 E60.7982
G1 X180.299 Y211.291 E60.83883
G1 X180.013 Y212.148 E60.87951
G1 X179.652 Y212.976 E60.92018
G1 X179.22 Y213.768 E60.9608
G1 X178.719 Y214.52 E61.00149
G1 X178.153 Y215.224 E61.04216
G1 X177.528 Y215.875 E61.08279
G1 X176.847 Y216.469 E61.12348
G1 X176.116 Y217 E61.16416
G1 X175.342 Y217.464 E61.2048
G1 X174.529 Y217.858 E61.24547
G1 X173.685 Y218.178 E61.28612
G1 X172.815 Y218.423 E61.32681
G1 X171.928 Y218.589 E61.36744
G1 X170.777 Y218.687 E61.41946
G1 X170.456 Y218.696 E61.43392
G1 X170.17 Y218.7 E61.44679
G1 X65.207 Y218.7 E66.17285
G1 X64.377 Y218.69 E66.21022
G1 X63.476 Y218.639 E66.25086
G1 X62.582 Y218.507 E66.29155
G1 X61.704 Y218.298 E66.33218
G1 X60.847 Y218.011 E66.37288
G1 X60.02 Y217.65 E66.41351
G1 X59.227 Y217.217 E66.45419
G1 X58.476 Y216.716 E66.49484
G1 X57.772 Y216.15 E66.53551
G1 X57.121 Y215.524 E66.57617
G1 X56.528 Y214.843 E66.61683
G1 X55.998 Y214.112 E66.65749
G1 X55.534 Y213.337 E66.69816
G1 X55.14 Y212.524 E66.73884
G1 X54.82 Y211.68 E66.77948
G1 X54.576 Y210.81 E66.82016
G1 X54.41 Y209.922 E66.86084
G1 X54.313 Y208.767 E66.91302
G1 X54.304 Y208.434 E66.92802
G1 X54.3 Y208.158 E66.94045
G1 X54.3 Y77.174 E72.83813
G1 X54.31 Y76.371 E72.87428
G1 X54.362 Y75.469 E72.91497
G1 X54.494 Y74.576 E72.95561
G1 X54.704 Y73.698 E72.99626
G1 X54.991 Y72.841 E73.03695
G1 X55.353 Y72.014 E73.0776
G1 X55.786 Y71.222 E73.11824
G1 X56.288 Y70.471 E73.15891
G1 X56.855 Y69.767 E73.19962
G1 X57.481 Y69.117 E73.24025
G1 X58.162 Y68.524 E73.28091
G1 F2700 E67.28091
;MESH:characters_box.stl
G0 F7500 X157.827 Y92.165
G0 X157.827 Y90.73
G0 X155.9 Y90.9
;TYPE:WALL-INNER
G1 F2700 E73.28091
G1 F1800 X155.9 Y194.1 E77.92758
G1 X161.1 Y194.1 E78.16171
G1 X161.1 Y90.9 E82.80839
G1 X155.9 Y90.9 E83.04252
G0 F7500 X156.3 Y91.3
;TYPE:WALL-OUTER
G1 F1800 X156.3 Y193.7 E87.42264
G1 X160.7 Y193.7 E87.61085
G1 X160.7 Y91.3 E91.99097
G1 X156.3 Y91.3 E92.17918
G0 F7500 X156.3 Y91.7
G0 X155.86 Y91.7
G1 F2700 E86.17918
G0 F7500 X155.71 Y90.9
G0 X157.153 Y92.153
G0 X145.847 Y92.153
G0 X147.29 Y90.9
G0 X138.9 Y90.9
;TYPE:WALL-INNER
G1 F2700 E92.17918
G1 F1800 X138.9 Y194.1 E96.82585
G1 X147.1 Y194.1 E97.19507
G1 X147.1 Y90.9 E101.84174
G1 X138.9 Y90.9 E102.21095
G0 F7500 X139.3 Y91.3
;TYPE:WALL-OUTER
G1 F1800 X139.3 Y193.7 E106.59107
G1 X146.7 Y193.7 E106.9076
G1 X146.7 Y91.3 E111.28773
G1 X139.3 Y91.3 E111.60426
G0 F7500 X139.3 Y91.7
G0 X138.86 Y91.7
G1 F2700 E105.60426
G0 F7500 X138.71 Y90.9
G0 X140.153 Y92.153
G0 X128.847 Y92.153
G0 X130.29 Y90.9
G0 X120.9 Y90.9
;TYPE:WALL-INNER
G1 F2700 E111.60426
G1 F1800 X120.9 Y194.1 E116.25093
G1 X130.1 Y194.1 E116.66517
G1 X130.1 Y90.9 E121.31184
G1 X120.9 Y90.9 E121.72608
G0 F7500 X121.3 Y91.3
;TYPE:WALL-OUTER
G1 F1800 X121.3 Y193.7 E126.1062
G1 X129.7 Y193.7 E126.46551
G1 X129.7 Y91.3 E130.84563
G1 X121.3 Y91.3 E131.20494
G0 F7500 X121.3 Y91.7
G0 X120.86 Y91.7
G1 F2700 E125.20494
G0 F7500 X120.71 Y90.9
G0 X122.153 Y92.153
G0 X110.847 Y92.153
G0 X112.29 Y90.9
G0 X104.9 Y90.9
;TYPE:WALL-INNER
G1 F2700 E131.20494
G1 F1800 X104.9 Y194.1 E135.85161
G1 X112.1 Y194.1 E136.1758
G1 X112.1 Y90.9 E140.82247
G1 X104.9 Y90.9 E141.14666
G0 F7500 X105.3 Y91.3
;TYPE:WALL-OUTER
G1 F1800 X105.3 Y193.7 E145.52678
G1 X111.7 Y193.7 E145.80053
G1 X111.7 Y91.3 E150.18065
G1 X105.3 Y91.3 E150.45441
G0 F7500 X105.3 Y91.7
G0 X104.86 Y91.7
G1 F2700 E144.45441
G0 F7500 X104.71 Y90.9
G0 X106.153 Y92.153
G0 X94.847 Y92.153
G0 X96.31 Y90.9
G0 X65.1 Y90.9
;TYPE:WALL-INNER
G1 F2700 E150.45441
G1 F1800 X65.1 Y77.1 E151.07577
G1 X169.9 Y77.1 E155.79448
G1 X169.9 Y207.9 E161.68387
G1 X65.1 Y207.9 E166.40259
G1 X65.1 Y194.1 E167.02395
G1 X96.1 Y194.1 E168.41975
G1 X96.1 Y90.9 E173.06642
G1 X65.1 Y90.9 E174.46223
G0 F7500 X65.3 Y91.3
;TYPE:WALL-OUTER
G1 F1800 X65.3 Y193.7 E178.84235
G1 X95.7 Y193.7 E180.14269
G1 X95.7 Y91.3 E184.52281
G1 X65.3 Y91.3 E185.82316
G0 F7500 X65.3 Y91.7
G1 F2700 E179.82316
G0 F7500 X65.1 Y91.7
G0 X64.87 Y76.87
G0 X64.7 Y76.7
G1 F2700 E185.82316
G1 F1800 X170.3 Y76.7 E190.34016
G1 X170.3 Y208.3 E195.9693
G1 X64.7 Y208.3 E200.4863
G1 X64.7 Y76.7 E206.11544
G0 F7500 X65.1 Y76.7
G0 X65.14 Y77.14
G0 X65.49 Y77.49
;TYPE:SKIN
G1 F1800 X169.51 Y77.49 E210.79903
G1 X169.51 Y207.51 E216.6533
G1 X65.49 Y207.51 E221.3369
G1 X65.49 Y194.49 E221.92313
G1 X96.49 Y194.49 E223.31894
G1 X96.49 Y90.51 E228.00073
G1 X65.49 Y90.51 E229.39653
G1 X65.49 Y77.49 E229.98277
G1 F2700 E223.98277
G0 F7500 X65.49 Y77.21
G0 X104.76 Y77.31
G0 X104.76 Y75.835
G0 X106.153 Y92.153
G0 X104.76 Y90.71
G0 X104.76 Y90.79
G0 X104.51 Y90.51
G1 F2700 E229.98277
G1 F1800 X104.51 Y194.49 E234.66457
G1 X112.49 Y194.49 E235.02387
G1 X112.49 Y90.51 E239.70567
G1 X104.51 Y90.51 E240.06497
G1 F2700 E234.06497
G0 F7500 X104.76 Y90.79
G0 X112.29 Y90.79
G0 X110.847 Y92.153
G0 X122.153 Y92.153
G0 X120.71 Y90.79
G0 X120.51 Y90.51
G1 F2700 E240.06497
G1 F1800 X120.51 Y194.49 E244.74677
G1 X130.49 Y194.49 E245.19613
G1 X130.49 Y90.51 E249.87792
G1 X120.51 Y90.51 E250.32728
G1 F2700 E244.32728
G0 F7500 X120.76 Y90.79
G0 X130.29 Y90.79
G0 X128.847 Y92.153
G0 X140.153 Y92.153
G0 X138.71 Y90.79
G0 X138.51 Y90.51
G1 F2700 E250.32728
G1 F1800 X138.51 Y194.49 E255.00907
G1 X147.49 Y194.49 E255.4134
G1 X147.49 Y90.51 E260.0952
G1 X138.51 Y90.51 E260.49953
G1 F2700 E254.49953
G0 F7500 X138.76 Y90.79
G0 X147.29 Y90.79
G0 X145.847 Y92.153
G0 X157.153 Y92.153
G0 X155.71 Y90.79
G0 X155.51 Y90.51
G1 F2700 E260.49953
G1 F1800 X155.51 Y194.49 E265.18133
G1 X161.49 Y194.49 E265.45058
G1 X161.49 Y90.51 E270.13237
G1 X155.51 Y90.51 E270.40163
G1 F2700 E264.40163
G0 F7500 X155.76 Y90.79
G0 X157.827 Y90.73
G0 X157.827 Y92.165
G0 X171.165 Y90.704
G0 X169.69 Y90.704
G0 X169.79 Y77.708
G0 X169.349 Y77.708
G1 F2700 E270.40163
G1 F1800 X169.291 Y77.65 E270.40532
G0 F7500 X168.725 Y77.65
G1 F1800 X169.349 Y78.274 E270.44506
G0 F7500 X169.349 Y78.84
G1 F1800 X168.159 Y77.65 E270.52083
G0 F7500 X167.594 Y77.65
G1 F1800 X169.349 Y79.405 E270.63258
G0 F7500 X169.349 Y79.971
G1 F1800 X167.028 Y77.65 E270.78038
G0 F7500 X166.462 Y77.65
G1 F1800 X169.349 Y80.537 E270.96421
G0 F7500 X169.349 Y81.103
G1 F1800 X165.897 Y77.65 E271.18405
G0 F7500 X165.331 Y77.65
G1 F1800 X169.349 Y81.668 E271.4399
G0 F7500 X169.349 Y82.234
G1 F1800 X164.765 Y77.65 E271.73179
G0 F7500 X164.2 Y77.65
G1 F1800 X169.349 Y82.8 E272.05969
G0 F7500 X169.349 Y83.365
G1 F1800 X163.634 Y77.65 E272.4236
G0 F7500 X163.068 Y77.65
G1 F1800 X169.349 Y83.931 E272.82356
G0 F7500 X169.349 Y84.497
G1 F1800 X162.503 Y77.65 E273.25951
G0 F7500 X161.937 Y77.65
G1 F1800 X169.349 Y85.062 E273.73148
G0 F7500 X169.349 Y85.628
G1 F1800 X161.371 Y77.65 E274.23949
G0 F7500 X160.805 Y77.65
G1 F1800 X169.349 Y86.194 E274.78354
G0 F7500 X169.349 Y86.759
G1 F1800 X160.24 Y77.65 E275.36357
G0 F7500 X159.674 Y77.65
G1 F1800 X169.349 Y87.325 E275.97964
G0 F7500 X169.349 Y87.891
G1 F1800 X159.108 Y77.65 E276.63175
G0 F7500 X158.543 Y77.65
G1 F1800 X169.349 Y88.456 E277.31983
G0 F7500 X169.349 Y89.022
G1 F1800 X157.977 Y77.65 E278.04396
G0 F7500 X157.411 Y77.65
G1 F1800 X169.349 Y89.588 E278.80412
G0 F7500 X169.349 Y90.153
G1 F1800 X156.846 Y77.65 E279.60027
G0 F7500 X156.28 Y77.65
G1 F1800 X169.349 Y90.719 E280.43245
G0 F7500 X169.349 Y91.285
G1 F1800 X155.714 Y77.65 E281.30068
G0 F7500 X155.149 Y77.65
G1 F1800 X169.349 Y91.851 E282.20491
G0 F7500 X169.349 Y92.416
G1 F1800 X154.583 Y77.65 E283.14516
G0 F7500 X154.017 Y77.65
G1 F1800 X169.349 Y92.982 E284.12144
G0 F7500 X169.349 Y93.548
G1 F1800 X153.452 Y77.65 E285.13373
G0 F7500 X152.886 Y77.65
G1 F1800 X169.349 Y94.113 E286.18204
G0 F7500 X169.349 Y94.679
G1 F1800 X152.32 Y77.65 E287.26638
G0 F7500 X151.755 Y77.65
G1 F1800 X169.349 Y95.245 E288.38673
G0 F7500 X169.349 Y95.81
G1 F1800 X151.189 Y77.65 E289.54309
G0 F7500 X150.623 Y77.65
G1 F1800 X169.349 Y96.376 E290.73549
G0 F7500 X169.349 Y96.942
G1 F1800 X150.057 Y77.65 E291.96394
G0 F7500 X149.492 Y77.65
G1 F1800 X169.349 Y97.507 E293.22835
G0 F7500 X169.349 Y98.073
G1 F1800 X161.648 Y90.372 E293.71873
G0 F7500 X161.626 Y90.349
G1 F1800 X148.926 Y77.65 E294.52738
G0 F7500 X148.36 Y77.65
G1 F1800 X161.06 Y90.349 E295.33604
G0 F7500 X160.494 Y90.349
G1 F1800 X147.795 Y77.65 E296.14466
G0 F7500 X147.229 Y77.65
G1 F1800 X159.929 Y90.349 E296.95332
G0 F7500 X159.363 Y90.349
G1 F1800 X146.663 Y77.65 E297.76198
G0 F7500 X146.098 Y77.65
G1 F1800 X158.797 Y90.349 E298.5706
G0 F7500 X158.232 Y90.349
G1 F1800 X145.532 Y77.65 E299.37926
